( Made using CamBam - http://www.cambam.co.uk )
( 000-jig-4inch-graphite-mold 11/12/2013 3:37:56 PM )
( T0 : 0.125 )
G20 G90 G91.1 G64 G40
G0 Z0.125
( T0 : 0.125 )
T0 M6
( Pocket1 )
G17
M3 S10000
G0 X0.0088 Y0.0088
G0 Z0.0625
G1 F5.0 Z-0.125
G2 F12.0 X0.0125 Y0.0 I-0.0088 J-0.0088
G2 X-0.0063 Y-0.0108 I-0.0125 J0.0
G2 Y0.0108 I0.0063 J0.0108
G2 X0.0088 Y0.0088 I0.0063 J-0.0108
G1 F5.0 X0.0442 Y0.0442
G2 F12.0 X0.0625 Y0.0 I-0.0442 J-0.0442
G2 X-0.0313 Y-0.0541 I-0.0625 J0.0
G2 Y0.0541 I0.0313 J0.0541
G2 X0.0442 Y0.0442 I0.0313 J-0.0541
G0 Z0.125
G0 X0.0059 Y1.7376
G0 Z0.0625
G1 F5.0 Z-0.125
G2 F12.0 X-0.1313 Y1.7727 I-0.0059 J0.2624
G2 Y2.2273 I0.1313 J0.2273
G2 X0.2625 Y2.0 I0.1313 J-0.2273
G2 X0.0059 Y1.7376 I-0.2625 J0.0
G1 F5.0 X0.0048 Y1.7876
G2 F12.0 X-0.1063 Y1.816 I-0.0048 J0.2124
G2 Y2.184 I0.1063 J0.184
G2 X0.2125 Y2.0 I0.1063 J-0.184
G2 X0.0048 Y1.7876 I-0.2125 J0.0
G1 F5.0 X0.0037 Y1.8375
G2 F12.0 X-0.0813 Y1.8593 I-0.0037 J0.1625
G2 Y2.1407 I0.0813 J0.1407
G2 X0.1625 Y2.0 I0.0812 J-0.1407
G2 X0.0037 Y1.8375 I-0.1625 J0.0
G1 F5.0 X0.0025 Y1.8875
G2 F12.0 X-0.0563 Y1.9026 I-0.0025 J0.1125
G2 Y2.0974 I0.0563 J0.0974
G2 X0.1125 Y2.0 I0.0563 J-0.0974
G2 X0.0025 Y1.8875 I-0.1125 J0.0
G1 F5.0 X0.0014 Y1.9375
G2 F12.0 X-0.0313 Y1.9459 I-0.0014 J0.0625
G2 Y2.0541 I0.0313 J0.0541
G2 X0.0625 Y2.0 I0.0312 J-0.0541
G2 X0.0014 Y1.9375 I-0.0625 J0.0
G1 F5.0 X0.0003 Y1.9875
G2 F12.0 X-0.0063 Y1.9892 I-0.0003 J0.0125
G2 Y2.0108 I0.0063 J0.0108
G2 X0.0125 Y2.0 I0.0063 J-0.0108
G2 X0.0003 Y1.9875 I-0.0125 J0.0
G0 Z0.125
G0 X0.0071 Y1.6876
G0 Z0.0625
G1 F5.0 Z-0.125
G2 F12.0 X-0.1563 Y1.7294 I-0.0071 J0.3124
G2 Y2.2706 I0.1563 J0.2706
G2 X0.3125 Y2.0 I0.1563 J-0.2706
G2 X0.0071 Y1.6876 I-0.3125 J0.0
G0 Z0.125
G0 X1.9875 Y1.9875
G0 Z0.0625
G1 F5.0 Z-0.125
G1 F12.0 Y2.0125
G1 X2.0125
G1 Y1.9875
G1 X1.9875
G1 F5.0 Y1.9625
G1 F12.0 X1.9625
G1 Y2.0375
G1 X2.0375
G1 Y1.9625
G1 X1.9875
G1 F5.0 Y1.9125
G1 F12.0 X1.9125
G1 Y2.0875
G1 X2.0875
G1 Y1.9125
G1 X1.9875
G1 F5.0 Y1.8625
G1 F12.0 X1.8625
G1 Y2.1375
G1 X2.1375
G1 Y1.8625
G1 X1.9875
G1 F5.0 Y1.8125
G1 F12.0 X1.8125
G1 Y2.1875
G1 X2.1875
G1 Y1.8125
G1 X1.9875
G1 F5.0 Y1.7625
G1 F12.0 X1.7625
G1 Y2.2375
G1 X2.2375
G1 Y1.7625
G1 X1.9875
G1 F5.0 Y1.7125
G1 F12.0 X1.7125
G1 Y2.2875
G1 X2.2875
G1 Y1.7125
G1 X1.9875
G1 F5.0 Y1.6625
G1 F12.0 X1.6625
G1 Y2.3375
G1 X2.3375
G1 Y1.6625
G1 X1.9875
G1 F5.0 Y1.6125
G1 F12.0 X1.6125
G1 Y2.3875
G1 X2.3875
G1 Y1.6125
G1 X1.9875
G1 F5.0 Y1.5625
G1 F12.0 X1.5625
G1 Y2.4375
G1 X2.4375
G1 Y1.5625
G1 X1.9875
G1 F5.0 Y1.5125
G1 F12.0 X1.5125
G1 Y2.4875
G1 X2.4875
G1 Y1.5125
G1 X1.9875
G1 F5.0 Y1.4625
G1 F12.0 X1.4625
G1 Y2.5375
G1 X2.5375
G1 Y1.4625
G1 X1.9875
G1 F5.0 Y1.4125
G1 F12.0 X1.4125
G1 Y2.5875
G1 X2.5875
G1 Y1.4125
G1 X1.9875
G1 F5.0 Y1.3625
G1 F12.0 X1.3625
G1 Y2.6375
G1 X2.6375
G1 Y1.3625
G1 X1.9875
G1 F5.0 Y1.3125
G1 F12.0 X1.3125
G1 Y2.6875
G1 X2.6875
G1 Y1.3125
G1 X1.9875
G1 F5.0 Y1.2625
G1 F12.0 X1.2625
G1 Y2.7375
G1 X2.7375
G1 Y1.2625
G1 X1.9875
G1 F5.0 Y1.2125
G1 F12.0 X1.2125
G1 Y2.7875
G1 X2.7875
G1 Y1.2125
G1 X1.9875
G1 F5.0 Y1.1625
G1 F12.0 X1.1625
G1 Y2.8375
G1 X2.8375
G1 Y1.1625
G1 X1.9875
G1 F5.0 Y1.1125
G1 F12.0 X1.1125
G1 Y2.8875
G1 X2.8875
G1 Y1.1125
G1 X1.9875
G1 F5.0 Y1.0625
G1 F12.0 X1.0625
G1 Y2.9375
G1 X2.9375
G1 Y1.0625
G1 X1.9875
G1 F5.0 Y1.0125
G1 F12.0 X1.0125
G1 Y2.9875
G1 X2.9875
G1 Y1.0125
G1 X1.9875
G1 F5.0 Y0.9625
G1 F12.0 X0.9625
G1 Y3.0375
G1 X3.0375
G1 Y0.9625
G1 X1.9875
G1 F5.0 Y0.9125
G1 F12.0 X0.9125
G1 Y3.0875
G1 X3.0875
G1 Y0.9125
G1 X1.9875
G1 F5.0 Y0.8625
G1 F12.0 X0.8625
G1 Y3.1375
G1 X3.1375
G1 Y0.8625
G1 X1.9875
G1 F5.0 Y0.8125
G1 F12.0 X0.8125
G1 Y3.1875
G1 X3.1875
G1 Y0.8125
G1 X1.9875
G1 F5.0 Y0.7625
G1 F12.0 X0.7625
G1 Y3.2375
G1 X3.2375
G1 Y0.7625
G1 X1.9875
G1 F5.0 Y0.7125
G1 F12.0 X0.7125
G1 Y3.2875
G1 X3.2875
G1 Y0.7125
G1 X1.9875
G1 F5.0 Y0.6625
G1 F12.0 X0.6625
G1 Y3.3375
G1 X3.3375
G1 Y0.6625
G1 X1.9875
G1 F5.0 Y0.6125
G1 F12.0 X0.6125
G1 Y3.3875
G1 X3.3875
G1 Y0.6125
G1 X1.9875
G1 F5.0 Y0.5625
G1 F12.0 X0.5625
G1 Y3.4375
G1 X3.4375
G1 Y0.5625
G1 X1.9875
G1 F5.0 Y0.5125
G1 F12.0 X0.5125
G1 Y3.4875
G1 X3.4875
G1 Y0.5125
G1 X1.9875
G1 F5.0 Y0.4625
G1 F12.0 X0.4625
G1 Y3.5375
G1 X3.5375
G1 Y0.4625
G1 X1.9875
G1 F5.0 Y0.4125
G1 F12.0 X0.4125
G1 Y3.5875
G1 X3.5875
G1 Y0.4125
G1 X1.9875
G1 F5.0 Y0.3625
G1 F12.0 X0.3625
G1 Y3.6375
G1 X3.6375
G1 Y0.3625
G1 X1.9875
G1 F5.0 Y0.3125
G1 F12.0 X0.3125
G1 Y3.6875
G1 X3.6875
G1 Y0.3125
G1 X1.9875
G1 F5.0 Y0.2625
G1 F12.0 X0.2625
G1 Y3.7375
G1 X3.7375
G1 Y0.2625
G1 X1.9875
G1 F5.0 Y0.2125
G1 F12.0 X0.2125
G1 Y3.7875
G1 X3.7875
G1 Y0.2125
G1 X1.9875
G1 F5.0 Y0.1625
G1 F12.0 X0.1625
G1 Y3.8375
G1 X3.8375
G1 Y0.1625
G1 X1.9875
G1 F5.0 Y0.1125
G1 F12.0 X0.1125
G1 Y3.8875
G1 X3.8875
G1 Y0.1125
G1 X1.9875
G1 F5.0 Y0.0625
G1 F12.0 X3.9375
G1 Y3.9375
G1 X0.0625
G1 Y0.0625
G1 X1.9875
G0 Z0.125
G0 X3.9875 Y0.0004
G0 Z0.0625
G1 F5.0 Z-0.125
G2 F12.0 X3.9938 Y0.0108 I0.0125 J-0.0004
G2 X4.0125 Y0.0 I0.0063 J-0.0108
G2 X3.9938 Y-0.0108 I-0.0125 J0.0
G2 X3.9875 Y0.0004 I0.0063 J0.0108
G1 F5.0 X3.9375 Y0.0019
G2 F12.0 X3.9688 Y0.0541 I0.0625 J-0.0019
G2 X4.0625 Y0.0 I0.0313 J-0.0541
G2 X3.9688 Y-0.0541 I-0.0625 J0.0
G2 X3.9375 Y0.0019 I0.0313 J0.0541
G0 Z0.125
G0 X3.9918 Y1.7376
G0 Z0.0625
G1 F5.0 Z-0.125
G3 F12.0 X4.2625 Y2.0 I0.0082 J0.2624
G3 X3.8688 Y2.2273 I-0.2625 J0.0
G3 Y1.7727 I0.1313 J-0.2273
G3 X3.9918 Y1.7376 I0.1313 J0.2273
G1 F5.0 X3.9934 Y1.7876
G3 F12.0 X4.2125 Y2.0 I0.0066 J0.2124
G3 X3.8938 Y2.184 I-0.2125 J0.0
G3 Y1.816 I0.1063 J-0.184
G3 X3.9934 Y1.7876 I0.1063 J0.184
G1 F5.0 X3.9949 Y1.8376
G3 F12.0 X4.1625 Y2.0 I0.0051 J0.1624
G3 X3.9188 Y2.1407 I-0.1625 J0.0
G3 Y1.8593 I0.0812 J-0.1407
G3 X3.9949 Y1.8376 I0.0812 J0.1407
G1 F5.0 X3.9965 Y1.8876
G3 F12.0 X4.1125 Y2.0 I0.0035 J0.1124
G3 X3.9438 Y2.0974 I-0.1125 J0.0
G3 Y1.9026 I0.0562 J-0.0974
G3 X3.9965 Y1.8876 I0.0562 J0.0974
G1 F5.0 X3.998 Y1.9375
G3 F12.0 X4.0625 Y2.0 I0.002 J0.0625
G3 X3.9688 Y2.0541 I-0.0625 J0.0
G3 Y1.9459 I0.0313 J-0.0541
G3 X3.998 Y1.9375 I0.0313 J0.0541
G1 F5.0 X3.9996 Y1.9875
G2 F12.0 X3.9938 Y1.9892 I0.0004 J0.0125
G2 Y2.0108 I0.0063 J0.0108
G2 X4.0125 Y2.0 I0.0063 J-0.0108
G2 X3.9996 Y1.9875 I-0.0125 J0.0
G0 Z0.125
G0 X3.9902 Y1.6877
G0 Z0.0625
G1 F5.0 Z-0.125
G2 F12.0 X3.8438 Y1.7294 I0.0098 J0.3123
G2 Y2.2706 I0.1563 J0.2706
G2 X4.3125 Y2.0 I0.1563 J-0.2706
G2 X3.9902 Y1.6877 I-0.3125 J0.0
G0 Z0.125
G0 X3.9999 Y3.9875
G0 Z0.0625
G1 F5.0 Z-0.125
G2 F12.0 X3.9938 Y3.9892 I0.0001 J0.0125
G2 Y4.0108 I0.0063 J0.0108
G2 X4.0125 Y4.0 I0.0063 J-0.0108
G2 X3.9999 Y3.9875 I-0.0125 J0.0
G1 F5.0 X3.9997 Y3.9375
G2 F12.0 X3.9688 Y3.9459 I0.0003 J0.0625
G2 Y4.0541 I0.0313 J0.0541
G2 X4.0625 Y4.0 I0.0312 J-0.0541
G2 X3.9997 Y3.9375 I-0.0625 J0.0
G0 Z0.125
G0 X0.0125 Y3.9998
G0 Z0.0625
G1 F5.0 Z-0.125
G2 F12.0 X-0.0062 Y3.9892 I-0.0125 J0.0002
G2 X-0.0063 Y4.0108 I0.0062 J0.0108
G2 X0.0125 Y4.0 I0.0063 J-0.0108
G2 Y3.9998 I-0.0125 J0.0
G1 F5.0 X0.0625 Y3.999
G2 F12.0 X-0.0313 Y3.9459 I-0.0625 J0.001
G2 Y4.0541 I0.0313 J0.0541
G2 X0.0625 Y4.0 I0.0312 J-0.0541
G2 Y3.999 I-0.0625 J0.0
G0 Z0.125
M5
M30
