( Made using CamBam - http://www.cambam.co.uk )
( 000-mold-back 11/16/2013 1:27:54 PM )
( T0 : 0.0313 )
G20 G90 G91.1 G64 G40
G0 Z0.125
( T0 : 0.0313 )
T0 M6
( Pocket3 )
G17
M3 S10000
G0 X1.1406 Y0.0156
G0 Z0.0625
G1 F4.0 Z-0.0313
G1 F8.0 Y0.4844
G0 Z0.125
G0 X2.8906 Y0.0156
G0 Z0.0625
G1 F4.0 Z-0.0313
G1 F8.0 Y0.4844
G0 Z0.125
M5
M30
