( Made using CamBam - http://www.cambam.co.uk )
( 000-acrylic-box-holder 11/7/2013 2:00:11 PM )
( T3 : 0.125 )
G20 G90 G91.1 G64 G40
G0 Z0.125
( T3 : 0.125 )
T3 M6
( Pocket1 )
G17
M3 S10000
G0 X1.0447 Y1.0
G0 Z0.0625
G1 F10.0 Z-0.125
G3 X1.0415 Y0.9875 I0.9553 J-0.25
G1 X0.9585
G3 X0.9553 Y1.0 I-0.9585 J-0.2375
G3 X0.9585 Y1.0125 I-0.9553 J0.25
G1 X1.0415
G3 X1.0447 Y1.0 I0.9585 J0.2375
G1 X1.0689 Y0.9937
G3 X1.0613 Y0.9625 I0.9311 J-0.2437
G1 X0.9387
G3 X0.9295 Y1.0 I-0.9387 J-0.2125
G3 X0.9387 Y1.0375 I-0.9295 J0.25
G1 X1.0613
G3 X1.0705 Y1.0 I0.9387 J0.2125
G3 X1.0689 Y0.9937 I0.9295 J-0.25
G1 X1.1172 Y0.981
G3 X1.1021 Y0.9125 I0.8828 J-0.231
G1 X0.8979
G3 X0.8776 Y1.0 I-0.8979 J-0.1625
G3 X0.8979 Y1.0875 I-0.8776 J0.25
G1 X1.1021
G3 X1.1224 Y1.0 I0.8979 J0.1625
G3 X1.1172 Y0.981 I0.8776 J-0.25
G1 X1.1656 Y0.9684
G3 X1.1449 Y0.8625 I0.8344 J-0.2184
G1 X0.8551
G3 X0.8255 Y1.0 I-0.8551 J-0.1125
G3 X0.8551 Y1.1375 I-0.8255 J0.25
G1 X1.1449
G3 X1.1745 Y1.0 I0.8551 J0.1125
G3 X1.1656 Y0.9684 I0.8255 J-0.25
G1 X1.214 Y0.9557
G3 X1.1899 Y0.8125 I0.786 J-0.2057
G1 X0.8101
G3 X0.7731 Y1.0 I-0.8101 J-0.0625
G3 X0.8101 Y1.1875 I-0.7731 J0.25
G1 X1.1899
G3 X1.2269 Y1.0 I0.8101 J0.0625
G3 X1.214 Y0.9557 I0.7731 J-0.25
G1 X1.2623 Y0.943
G3 X1.2376 Y0.7625 I0.7377 J-0.193
G1 X0.7624
G3 X0.7204 Y1.0 I-0.7624 J-0.0125
G3 X0.7624 Y1.2375 I-0.7204 J0.25
G1 X1.2376
G3 X1.2796 Y1.0 I0.7624 J0.0125
G3 X1.2623 Y0.943 I0.7204 J-0.25
G1 X1.3107 Y0.9304
G3 X1.2875 Y0.75 I0.6893 J-0.1804
G1 Y0.7125
G1 X0.7125
G1 Y0.75
G3 X0.6672 Y1.0 I-0.7125 J0.0
G3 X0.7125 Y1.25 I-0.6672 J0.25
G1 Y1.2875
G1 X1.2875
G1 Y1.25
G3 X1.3328 Y1.0 I0.7125 J0.0
G3 X1.3107 Y0.9304 I0.6672 J-0.25
G1 X1.3591 Y0.9177
G3 X1.3375 Y0.75 I0.6409 J-0.1677
G1 Y0.6625
G1 X0.6625
G1 Y0.75
G3 X0.6135 Y1.0 I-0.6625 J0.0
G3 X0.6625 Y1.25 I-0.6135 J0.25
G1 Y1.3375
G1 X1.3375
G1 Y1.25
G3 X1.3865 Y1.0 I0.6625 J0.0
G3 X1.3591 Y0.9177 I0.6135 J-0.25
G1 X1.4075 Y0.9051
G3 X1.3875 Y0.75 I0.5925 J-0.1551
G1 Y0.6125
G1 X0.6125
G1 Y0.75
G3 X0.5592 Y1.0 I-0.6125 J0.0
G3 X0.6125 Y1.25 I-0.5592 J0.25
G1 Y1.3875
G1 X1.3875
G1 Y1.25
G3 X1.4408 Y1.0 I0.6125 J0.0
G3 X1.4075 Y0.9051 I0.5592 J-0.25
G1 X1.4558 Y0.8924
G3 X1.4375 Y0.75 I0.5442 J-0.1424
G1 Y0.5625
G1 X0.5625
G1 Y0.75
G3 X0.5039 Y1.0 I-0.5625 J0.0
G3 X0.5625 Y1.25 I-0.5039 J0.25
G1 Y1.4375
G1 X1.4375
G1 Y1.25
G3 X1.4961 Y1.0 I0.5625 J0.0
G3 X1.4558 Y0.8924 I0.5039 J-0.25
G1 X1.5042 Y0.8797
G3 X1.4875 Y0.75 I0.4958 J-0.1297
G1 Y0.5125
G1 X0.5125
G1 Y0.75
G3 X0.4474 Y1.0 I-0.5125 J0.0
G3 X0.5125 Y1.25 I-0.4474 J0.25
G1 Y1.4875
G1 X1.4875
G1 Y1.25
G3 X1.5526 Y1.0 I0.5125 J0.0
G3 X1.5042 Y0.8797 I0.4474 J-0.25
G1 X1.5526 Y0.8671
G3 X1.5375 Y0.75 I0.4474 J-0.1171
G1 Y0.4625
G1 X0.4625
G1 Y0.75
G3 X0.3891 Y1.0 I-0.4625 J0.0
G3 X0.4625 Y1.25 I-0.3891 J0.25
G1 Y1.5375
G1 X1.5375
G1 Y1.25
G3 X1.6109 Y1.0 I0.4625 J0.0
G3 X1.5526 Y0.8671 I0.3891 J-0.25
G1 X1.6009 Y0.8544
G3 X1.5875 Y0.75 I0.3991 J-0.1044
G1 Y0.4125
G1 X0.4125
G1 Y0.75
G3 X0.3281 Y1.0 I-0.4125 J0.0
G3 X0.4125 Y1.25 I-0.3281 J0.25
G1 Y1.5875
G1 X1.5875
G1 Y1.25
G3 X1.6719 Y1.0 I0.4125 J0.0
G3 X1.6009 Y0.8544 I0.3281 J-0.25
G1 X1.6493 Y0.8418
G3 X1.6375 Y0.75 I0.3507 J-0.0918
G1 Y0.3625
G1 X0.3625
G1 Y0.75
G3 X0.2625 Y1.0 I-0.3625 J0.0
G3 X0.3625 Y1.25 I-0.2625 J0.25
G1 Y1.6375
G1 X1.6375
G1 Y1.25
G3 X1.7375 Y1.0 I0.3625 J0.0
G3 X1.6493 Y0.8418 I0.2625 J-0.25
G1 X1.6977 Y0.8291
G3 X1.6875 Y0.75 I0.3023 J-0.0791
G1 Y0.3125
G1 X0.3125
G1 Y0.75
G3 X0.1875 Y1.0 I-0.3125 J0.0
G3 X0.3125 Y1.25 I-0.1875 J0.25
G1 Y1.6875
G1 X1.6875
G1 Y1.25
G3 X1.8125 Y1.0 I0.3125 J0.0
G3 X1.6977 Y0.8291 I0.1875 J-0.25
G1 X1.7461 Y0.8165
G3 X1.7375 Y0.75 I0.2539 J-0.0665
G1 Y0.2625
G1 X0.2625
G1 Y0.75
G3 X0.08 Y1.0 I-0.2625 J0.0
G3 X0.2625 Y1.25 I-0.08 J0.25
G1 Y1.7375
G1 X1.7375
G1 Y1.25
G3 X1.92 Y1.0 I0.2625 J0.0
G3 X1.7461 Y0.8165 I0.08 J-0.25
G1 X1.7944 Y0.8038
G3 X1.7875 Y0.75 I0.2056 J-0.0538
G1 Y0.2125
G1 X0.2125
G1 Y0.75
G3 X0.0 Y0.9625 I-0.2125 J0.0
G2 X-0.0188 Y0.9675 I0.0 J0.0375
G2 Y1.0325 I0.0187 J0.0325
G2 X0.0 Y1.0375 I0.0188 J-0.0325
G3 X0.2125 Y1.25 I0.0 J0.2125
G1 Y1.7875
G1 X1.7875
G1 Y1.25
G3 X2.0 Y1.0375 I0.2125 J0.0
G2 X2.0375 Y1.0 I0.0 J-0.0375
G2 X2.0 Y0.9625 I-0.0375 J0.0
G3 X1.7944 Y0.8038 I0.0 J-0.2125
G1 X1.8428 Y0.7911
G3 X1.8375 Y0.75 I0.1572 J-0.0411
G1 Y0.1625
G1 X0.1625
G1 Y0.75
G3 X0.0 Y0.9125 I-0.1625 J0.0
G2 X-0.0438 Y0.9242 I0.0 J0.0875
G2 Y1.0758 I0.0438 J0.0758
G2 X0.0 Y1.0875 I0.0438 J-0.0758
G3 X0.1625 Y1.25 I0.0 J0.1625
G1 Y1.8375
G1 X1.8375
G1 Y1.25
G3 X2.0 Y1.0875 I0.1625 J0.0
G2 X2.0875 Y1.0 I0.0 J-0.0875
G2 X2.0 Y0.9125 I-0.0875 J0.0
G3 X1.8428 Y0.7911 I0.0 J-0.1625
G1 X1.8912 Y0.7785
G3 X1.8875 Y0.75 I0.1088 J-0.0285
G1 Y0.1125
G1 X0.1125
G1 Y0.75
G3 X0.0 Y0.8625 I-0.1125 J0.0
G2 X-0.0688 Y0.8809 I0.0 J0.1375
G2 Y1.1191 I0.0688 J0.1191
G2 X0.0 Y1.1375 I0.0688 J-0.1191
G3 X0.1125 Y1.25 I0.0 J0.1125
G1 Y1.8875
G1 X1.8875
G1 Y1.25
G3 X2.0 Y1.1375 I0.1125 J0.0
G2 X2.1375 Y1.0 I0.0 J-0.1375
G2 X2.0 Y0.8625 I-0.1375 J0.0
G3 X1.8912 Y0.7785 I0.0 J-0.1125
G1 X1.9395 Y0.7658
G3 X1.9375 Y0.75 I0.0605 J-0.0158
G1 Y0.0625
G1 X0.0625
G1 Y0.75
G3 X0.0 Y0.8125 I-0.0625 J0.0
G2 X-0.0938 Y0.8376 I0.0 J0.1875
G2 Y1.1624 I0.0938 J0.1624
G2 X0.0 Y1.1875 I0.0938 J-0.1624
G3 X0.0625 Y1.25 I0.0 J0.0625
G1 Y1.9375
G1 X1.9375
G1 Y1.25
G3 X2.0 Y1.1875 I0.0625 J0.0
G2 X2.1875 Y1.0 I0.0 J-0.1875
G2 X2.0 Y0.8125 I-0.1875 J0.0
G3 X1.9395 Y0.7658 I0.0 J-0.0625
G0 Z0.125
M5
M30
