( Made using CamBam - http://www.cambam.co.uk )
( 000-mold-middle 1/20/2014 3:56:53 PM )
( T0 : 0.0625 )
G20 G90 G91.1 G64 G40
G0 Z0.125
( T0 : 0.0625 )
T0 M6
( Pocket1 )
G17
M3 S10000
G0 X0.7563 Y2.75
G0 Z0.0625
G1 F5.0 Z-0.063
G2 F12.0 X0.7469 Y2.7446 I-0.0063 J0.0
G2 Y2.7554 I0.0031 J0.0054
G2 X0.7563 Y2.75 I0.0031 J-0.0054
G1 F5.0 X0.7813
G2 F12.0 X0.7344 Y2.7229 I-0.0313 J0.0
G2 Y2.7771 I0.0156 J0.0271
G2 X0.7813 Y2.75 I0.0156 J-0.0271
G1 F5.0 X0.7563
G1 Z-0.126
G2 F12.0 X0.7469 Y2.7446 I-0.0063 J0.0
G2 Y2.7554 I0.0031 J0.0054
G2 X0.7563 Y2.75 I0.0031 J-0.0054
G1 F5.0 X0.7813
G2 F12.0 X0.7344 Y2.7229 I-0.0313 J0.0
G2 Y2.7771 I0.0156 J0.0271
G2 X0.7813 Y2.75 I0.0156 J-0.0271
G0 Z0.125
G0 X3.2438
G0 Z0.0625
G1 F5.0 Z-0.063
G2 F12.0 X3.2469 Y2.7554 I0.0062 J0.0
G2 X3.2563 Y2.75 I0.0031 J-0.0054
G2 X3.2469 Y2.7446 I-0.0063 J0.0
G2 X3.2438 Y2.75 I0.0031 J0.0054
G1 F5.0 X3.2188
G2 F12.0 X3.2344 Y2.7771 I0.0313 J0.0
G2 X3.2813 Y2.75 I0.0156 J-0.0271
G2 X3.2344 Y2.7229 I-0.0313 J0.0
G2 X3.2188 Y2.75 I0.0156 J0.0271
G1 F5.0 X3.2438
G1 Z-0.126
G2 F12.0 X3.2469 Y2.7554 I0.0062 J0.0
G2 X3.2563 Y2.75 I0.0031 J-0.0054
G2 X3.2469 Y2.7446 I-0.0063 J0.0
G2 X3.2438 Y2.75 I0.0031 J0.0054
G1 F5.0 X3.2188
G2 F12.0 X3.2344 Y2.7771 I0.0313 J0.0
G2 X3.2813 Y2.75 I0.0156 J-0.0271
G2 X3.2344 Y2.7229 I-0.0313 J0.0
G2 X3.2188 Y2.75 I0.0156 J0.0271
G0 Z0.125
G0 X3.2499 Y0.2562
G0 Z0.0625
G1 F5.0 Z-0.063
G2 F12.0 X3.2563 Y0.25 I0.0001 J-0.0062
G2 X3.2469 Y0.2446 I-0.0063 J0.0
G2 Y0.2554 I0.0031 J0.0054
G2 X3.2499 Y0.2562 I0.0031 J-0.0054
G1 F5.0 X3.2496 Y0.2812
G2 F12.0 X3.2813 Y0.25 I0.0004 J-0.0312
G2 X3.2344 Y0.2229 I-0.0313 J0.0
G2 Y0.2771 I0.0156 J0.0271
G2 X3.2496 Y0.2812 I0.0156 J-0.0271
G1 F5.0 X3.2499 Y0.2562
G1 Z-0.126
G2 F12.0 X3.2563 Y0.25 I0.0001 J-0.0062
G2 X3.2469 Y0.2446 I-0.0063 J0.0
G2 Y0.2554 I0.0031 J0.0054
G2 X3.2499 Y0.2562 I0.0031 J-0.0054
G1 F5.0 X3.2496 Y0.2812
G2 F12.0 X3.2813 Y0.25 I0.0004 J-0.0312
G2 X3.2344 Y0.2229 I-0.0313 J0.0
G2 Y0.2771 I0.0156 J0.0271
G2 X3.2496 Y0.2812 I0.0156 J-0.0271
G0 Z0.125
G0 X0.7562 Y0.2501
G0 Z0.0625
G1 F5.0 Z-0.063
G1 F12.0 X0.7563 Y0.25
G2 X0.7469 Y0.2446 I-0.0062 J0.0
G2 Y0.2554 I0.0031 J0.0054
G2 X0.7562 Y0.2501 I0.0031 J-0.0054
G1 F5.0 X0.7812 Y0.2504
G2 F12.0 X0.7813 Y0.25 I-0.0312 J-0.0004
G2 X0.7344 Y0.2229 I-0.0313 J0.0
G2 Y0.2771 I0.0156 J0.0271
G2 X0.7812 Y0.2504 I0.0156 J-0.0271
G1 F5.0 X0.7562 Y0.2501
G1 Z-0.126
G1 F12.0 X0.7563 Y0.25
G2 X0.7469 Y0.2446 I-0.0062 J0.0
G2 Y0.2554 I0.0031 J0.0054
G2 X0.7562 Y0.2501 I0.0031 J-0.0054
G1 F5.0 X0.7812 Y0.2504
G2 F12.0 X0.7813 Y0.25 I-0.0312 J-0.0004
G2 X0.7344 Y0.2229 I-0.0313 J0.0
G2 Y0.2771 I0.0156 J0.0271
G2 X0.7812 Y0.2504 I0.0156 J-0.0271
( Profile1 )
S10000
G0 Z0.125
G0 X1.0313 Y0.5313
G0 Z0.0625
G1 F5.0 Z-0.063
G1 F12.0 Y2.4688
G1 X2.9688
G1 Y0.5313
G1 X1.0313
G1 F5.0 Z-0.126
G1 F12.0 Y2.4688
G1 X2.9688
G1 Y0.5313
G1 X1.0313
G0 Z0.125
M5
M30
