( Made using CamBam - http://www.cambam.co.uk )
( 000-mold-back-meltdirectly 1/20/2014 4:18:25 PM )
( T0 : 0.0313 )
G20 G90 G91.1 G64 G40
G0 Z0.125
( T0 : 0.0313 )
T0 M6
( Pocket1 )
G17
M3 S10000
G0 X0.7531 Y2.75
G0 Z0.0625
G1 F5.0 Z-0.063
G2 F12.0 X0.7484 Y2.7473 I-0.0031 J0.0
G2 Y2.7527 I0.0016 J0.0027
G2 X0.7531 Y2.75 I0.0016 J-0.0027
G1 F5.0 X0.7594
G2 F12.0 X0.7453 Y2.7419 I-0.0094 J0.0
G2 Y2.7581 I0.0047 J0.0081
G2 X0.7594 Y2.75 I0.0047 J-0.0081
G1 F5.0 X0.7719
G2 F12.0 X0.7391 Y2.7311 I-0.0219 J0.0
G2 Y2.7689 I0.0109 J0.0189
G2 X0.7719 Y2.75 I0.0109 J-0.0189
G1 F5.0 X0.7844
G2 F12.0 X0.7328 Y2.7202 I-0.0344 J0.0
G2 Y2.7798 I0.0172 J0.0298
G2 X0.7844 Y2.75 I0.0172 J-0.0298
G1 F5.0 X0.7969
G2 F12.0 X0.7266 Y2.7094 I-0.0469 J0.0
G2 Y2.7906 I0.0234 J0.0406
G2 X0.7969 Y2.75 I0.0234 J-0.0406
G0 Z0.125
G0 X0.7531
G0 Z-0.0005
G1 F5.0 Z-0.126
G2 F12.0 X0.7484 Y2.7473 I-0.0031 J0.0
G2 Y2.7527 I0.0016 J0.0027
G2 X0.7531 Y2.75 I0.0016 J-0.0027
G1 F5.0 X0.7594
G2 F12.0 X0.7453 Y2.7419 I-0.0094 J0.0
G2 Y2.7581 I0.0047 J0.0081
G2 X0.7594 Y2.75 I0.0047 J-0.0081
G1 F5.0 X0.7719
G2 F12.0 X0.7391 Y2.7311 I-0.0219 J0.0
G2 Y2.7689 I0.0109 J0.0189
G2 X0.7719 Y2.75 I0.0109 J-0.0189
G1 F5.0 X0.7844
G2 F12.0 X0.7328 Y2.7202 I-0.0344 J0.0
G2 Y2.7798 I0.0172 J0.0298
G2 X0.7844 Y2.75 I0.0172 J-0.0298
G1 F5.0 X0.7969
G2 F12.0 X0.7266 Y2.7094 I-0.0469 J0.0
G2 Y2.7906 I0.0234 J0.0406
G2 X0.7969 Y2.75 I0.0234 J-0.0406
G0 Z0.125
G0 X3.2469
G0 Z0.0625
G1 F5.0 Z-0.063
G2 F12.0 X3.2484 Y2.7527 I0.0031 J0.0
G2 X3.2531 Y2.75 I0.0016 J-0.0027
G2 X3.2484 Y2.7473 I-0.0031 J0.0
G2 X3.2469 Y2.75 I0.0016 J0.0027
G1 F5.0 X3.2406
G2 F12.0 X3.2453 Y2.7581 I0.0094 J0.0
G2 X3.2594 Y2.75 I0.0047 J-0.0081
G2 X3.2453 Y2.7419 I-0.0094 J0.0
G2 X3.2406 Y2.75 I0.0047 J0.0081
G1 F5.0 X3.2281
G2 F12.0 X3.2391 Y2.7689 I0.0219 J0.0
G2 X3.2719 Y2.75 I0.0109 J-0.0189
G2 X3.2391 Y2.7311 I-0.0219 J0.0
G2 X3.2281 Y2.75 I0.0109 J0.0189
G1 F5.0 X3.2156
G2 F12.0 X3.2328 Y2.7798 I0.0344 J0.0
G2 X3.2844 Y2.75 I0.0172 J-0.0298
G2 X3.2328 Y2.7202 I-0.0344 J0.0
G2 X3.2156 Y2.75 I0.0172 J0.0298
G1 F5.0 X3.2031
G2 F12.0 X3.2266 Y2.7906 I0.0469 J0.0
G2 X3.2969 Y2.75 I0.0234 J-0.0406
G2 X3.2266 Y2.7094 I-0.0469 J0.0
G2 X3.2031 Y2.75 I0.0234 J0.0406
G0 Z0.125
G0 X3.2469
G0 Z-0.0005
G1 F5.0 Z-0.126
G2 F12.0 X3.2484 Y2.7527 I0.0031 J0.0
G2 X3.2531 Y2.75 I0.0016 J-0.0027
G2 X3.2484 Y2.7473 I-0.0031 J0.0
G2 X3.2469 Y2.75 I0.0016 J0.0027
G1 F5.0 X3.2406
G2 F12.0 X3.2453 Y2.7581 I0.0094 J0.0
G2 X3.2594 Y2.75 I0.0047 J-0.0081
G2 X3.2453 Y2.7419 I-0.0094 J0.0
G2 X3.2406 Y2.75 I0.0047 J0.0081
G1 F5.0 X3.2281
G2 F12.0 X3.2391 Y2.7689 I0.0219 J0.0
G2 X3.2719 Y2.75 I0.0109 J-0.0189
G2 X3.2391 Y2.7311 I-0.0219 J0.0
G2 X3.2281 Y2.75 I0.0109 J0.0189
G1 F5.0 X3.2156
G2 F12.0 X3.2328 Y2.7798 I0.0344 J0.0
G2 X3.2844 Y2.75 I0.0172 J-0.0298
G2 X3.2328 Y2.7202 I-0.0344 J0.0
G2 X3.2156 Y2.75 I0.0172 J0.0298
G1 F5.0 X3.2031
G2 F12.0 X3.2266 Y2.7906 I0.0469 J0.0
G2 X3.2969 Y2.75 I0.0234 J-0.0406
G2 X3.2266 Y2.7094 I-0.0469 J0.0
G2 X3.2031 Y2.75 I0.0234 J0.0406
G0 Z0.125
G0 X3.2499 Y0.2531
G0 Z0.0625
G1 F5.0 Z-0.063
G2 F12.0 X3.2531 Y0.25 I0.0001 J-0.0031
G2 X3.2484 Y0.2473 I-0.0031 J0.0
G2 Y0.2527 I0.0016 J0.0027
G2 X3.2499 Y0.2531 I0.0016 J-0.0027
G1 F5.0 X3.2498 Y0.2594
G2 F12.0 X3.2594 Y0.25 I0.0002 J-0.0094
G2 X3.2453 Y0.2419 I-0.0094 J0.0
G2 Y0.2581 I0.0047 J0.0081
G2 X3.2498 Y0.2594 I0.0047 J-0.0081
G1 F5.0 X3.2496 Y0.2719
G2 F12.0 X3.2719 Y0.25 I0.0004 J-0.0219
G2 X3.2391 Y0.2311 I-0.0219 J0.0
G2 Y0.2689 I0.0109 J0.0189
G2 X3.2496 Y0.2719 I0.0109 J-0.0189
G1 F5.0 X3.2494 Y0.2844
G2 F12.0 X3.2844 Y0.25 I0.0006 J-0.0344
G2 X3.2328 Y0.2202 I-0.0344 J0.0
G2 Y0.2798 I0.0172 J0.0298
G2 X3.2494 Y0.2844 I0.0172 J-0.0298
G1 F5.0 X3.2491 Y0.2969
G2 F12.0 X3.2969 Y0.25 I0.0009 J-0.0469
G2 X3.2266 Y0.2094 I-0.0469 J0.0
G2 Y0.2906 I0.0234 J0.0406
G2 X3.2491 Y0.2969 I0.0234 J-0.0406
G0 Z0.125
G0 X3.2499 Y0.2531
G0 Z-0.0005
G1 F5.0 Z-0.126
G2 F12.0 X3.2531 Y0.25 I0.0001 J-0.0031
G2 X3.2484 Y0.2473 I-0.0031 J0.0
G2 Y0.2527 I0.0016 J0.0027
G2 X3.2499 Y0.2531 I0.0016 J-0.0027
G1 F5.0 X3.2498 Y0.2594
G2 F12.0 X3.2594 Y0.25 I0.0002 J-0.0094
G2 X3.2453 Y0.2419 I-0.0094 J0.0
G2 Y0.2581 I0.0047 J0.0081
G2 X3.2498 Y0.2594 I0.0047 J-0.0081
G1 F5.0 X3.2496 Y0.2719
G2 F12.0 X3.2719 Y0.25 I0.0004 J-0.0219
G2 X3.2391 Y0.2311 I-0.0219 J0.0
G2 Y0.2689 I0.0109 J0.0189
G2 X3.2496 Y0.2719 I0.0109 J-0.0189
G1 F5.0 X3.2494 Y0.2844
G2 F12.0 X3.2844 Y0.25 I0.0006 J-0.0344
G2 X3.2328 Y0.2202 I-0.0344 J0.0
G2 Y0.2798 I0.0172 J0.0298
G2 X3.2494 Y0.2844 I0.0172 J-0.0298
G1 F5.0 X3.2491 Y0.2969
G2 F12.0 X3.2969 Y0.25 I0.0009 J-0.0469
G2 X3.2266 Y0.2094 I-0.0469 J0.0
G2 Y0.2906 I0.0234 J0.0406
G2 X3.2491 Y0.2969 I0.0234 J-0.0406
G0 Z0.125
G0 X0.7531 Y0.2501
G0 Z0.0625
G1 F5.0 Z-0.063
G1 F12.0 Y0.25
G2 X0.7484 Y0.2473 I-0.0031 J0.0
G2 Y0.2527 I0.0016 J0.0027
G2 X0.7531 Y0.2501 I0.0016 J-0.0027
G1 F5.0 X0.7594 Y0.2502
G2 F12.0 Y0.25 I-0.0094 J-0.0002
G2 X0.7453 Y0.2419 I-0.0094 J0.0
G2 Y0.2581 I0.0047 J0.0081
G2 X0.7594 Y0.2502 I0.0047 J-0.0081
G1 F5.0 X0.7719 Y0.2504
G2 F12.0 Y0.25 I-0.0219 J-0.0004
G2 X0.7391 Y0.2311 I-0.0219 J0.0
G2 Y0.2689 I0.0109 J0.0189
G2 X0.7719 Y0.2504 I0.0109 J-0.0189
G1 F5.0 X0.7844 Y0.2506
G2 F12.0 Y0.25 I-0.0344 J-0.0006
G2 X0.7328 Y0.2202 I-0.0344 J0.0
G2 Y0.2798 I0.0172 J0.0298
G2 X0.7844 Y0.2506 I0.0172 J-0.0298
G1 F5.0 X0.7969 Y0.2509
G2 F12.0 Y0.25 I-0.0469 J-0.0009
G2 X0.7266 Y0.2094 I-0.0469 J0.0
G2 Y0.2906 I0.0234 J0.0406
G2 X0.7969 Y0.2509 I0.0234 J-0.0406
G0 Z0.125
G0 X0.7531 Y0.2501
G0 Z-0.0005
G1 F5.0 Z-0.126
G1 F12.0 Y0.25
G2 X0.7484 Y0.2473 I-0.0031 J0.0
G2 Y0.2527 I0.0016 J0.0027
G2 X0.7531 Y0.2501 I0.0016 J-0.0027
G1 F5.0 X0.7594 Y0.2502
G2 F12.0 Y0.25 I-0.0094 J-0.0002
G2 X0.7453 Y0.2419 I-0.0094 J0.0
G2 Y0.2581 I0.0047 J0.0081
G2 X0.7594 Y0.2502 I0.0047 J-0.0081
G1 F5.0 X0.7719 Y0.2504
G2 F12.0 Y0.25 I-0.0219 J-0.0004
G2 X0.7391 Y0.2311 I-0.0219 J0.0
G2 Y0.2689 I0.0109 J0.0189
G2 X0.7719 Y0.2504 I0.0109 J-0.0189
G1 F5.0 X0.7844 Y0.2506
G2 F12.0 Y0.25 I-0.0344 J-0.0006
G2 X0.7328 Y0.2202 I-0.0344 J0.0
G2 Y0.2798 I0.0172 J0.0298
G2 X0.7844 Y0.2506 I0.0172 J-0.0298
G1 F5.0 X0.7969 Y0.2509
G2 F12.0 Y0.25 I-0.0469 J-0.0009
G2 X0.7266 Y0.2094 I-0.0469 J0.0
G2 Y0.2906 I0.0234 J0.0406
G2 X0.7969 Y0.2509 I0.0234 J-0.0406
( Profile1 )
S10000
G0 Z0.125
G0 X2.4844 Y1.5
G0 Z0.0625
G1 F5.0 Z-0.063
G2 F12.0 X1.7578 Y1.0805 I-0.4844 J0.0
G2 Y1.9195 I0.2422 J0.4195
G2 X2.4844 Y1.5 I0.2422 J-0.4195
G1 F5.0 Z-0.126
G2 F12.0 X1.7578 Y1.0805 I-0.4844 J0.0
G2 Y1.9195 I0.2422 J0.4195
G2 X2.4844 Y1.5 I0.2422 J-0.4195
G0 Z0.125
G0 X2.8686 Y0.6393
G0 Z0.0625
G1 F5.0 Z-0.063
G2 F12.0 X2.8906 Y0.625 I0.0064 J-0.0143
G2 X2.8672 Y0.6115 I-0.0156 J0.0
G2 Y0.6385 I0.0078 J0.0135
G2 X2.8686 Y0.6393 I0.0078 J-0.0135
G1 F5.0 Z-0.126
G2 F12.0 X2.8906 Y0.625 I0.0064 J-0.0143
G2 X2.8672 Y0.6115 I-0.0156 J0.0
G2 Y0.6385 I0.0078 J0.0135
G2 X2.8686 Y0.6393 I0.0078 J-0.0135
G0 Z0.125
G0 X2.8749 Y2.3594
G0 Z0.0625
G1 F5.0 Z-0.063
G2 F12.0 X2.8672 Y2.3615 I0.0001 J0.0156
G2 Y2.3885 I0.0078 J0.0135
G2 X2.8906 Y2.375 I0.0078 J-0.0135
G2 X2.8749 Y2.3594 I-0.0156 J0.0
G1 F5.0 Z-0.126
G2 F12.0 X2.8672 Y2.3615 I0.0001 J0.0156
G2 Y2.3885 I0.0078 J0.0135
G2 X2.8906 Y2.375 I0.0078 J-0.0135
G2 X2.8749 Y2.3594 I-0.0156 J0.0
G0 Z0.125
G0 X1.1406 Y2.3749
G0 Z0.0625
G1 F5.0 Z-0.063
G2 F12.0 X1.1172 Y2.3615 I-0.0156 J0.0001
G2 Y2.3885 I0.0078 J0.0135
G2 X1.1406 Y2.375 I0.0078 J-0.0135
G2 Y2.3749 I-0.0156 J0.0
G1 F5.0 Z-0.126
G2 F12.0 X1.1172 Y2.3615 I-0.0156 J0.0001
G2 Y2.3885 I0.0078 J0.0135
G2 X1.1406 Y2.375 I0.0078 J-0.0135
G2 Y2.3749 I-0.0156 J0.0
G0 Z0.125
G0 X1.1251 Y0.6406
G0 Z0.0625
G1 F5.0 Z-0.063
G2 F12.0 X1.1406 Y0.625 I-0.0001 J-0.0156
G2 X1.1172 Y0.6115 I-0.0156 J0.0
G2 Y0.6385 I0.0078 J0.0135
G2 X1.1251 Y0.6406 I0.0078 J-0.0135
G1 F5.0 Z-0.126
G2 F12.0 X1.1406 Y0.625 I-0.0001 J-0.0156
G2 X1.1172 Y0.6115 I-0.0156 J0.0
G2 Y0.6385 I0.0078 J0.0135
G2 X1.1251 Y0.6406 I0.0078 J-0.0135
G0 Z0.125
M5
M30
