( Made using CamBam - http://www.cambam.co.uk )
( 000-3inch-cutoff 1/31/2014 11:29:45 AM )
( T0 : 0.0313 )
G20 G90 G91.1 G64 G40
G0 Z0.125
( T0 : 0.0313 )
T0 M6
( Engrave1 )
G17
M3 S10000
G0 X0.0 Y3.0
G0 Z0.0625
G1 F4.0 Z-0.035
G1 F8.0 X4.0
G1 F4.0 Z-0.07
G1 F8.0 X0.0
G1 F4.0 Z-0.105
G1 F8.0 X4.0
G1 F4.0 Z-0.126
G1 F8.0 X0.0
G0 Z0.125
M5
M30
