( Made using CamBam - http://www.cambam.co.uk )
( 000-mold-middleback-depth 11/22/2013 4:12:23 PM )
( T0 : 0.0625 )
G20 G90 G91.1 G64 G40
G0 Z0.125
( T0 : 0.0625 )
T0 M6
( Engrave1 )
G17
M3 S10000
G0 X0.0 Y3.0313
G0 Z0.0625
G1 F10.0 Z-0.09
G1 F14.0 X3.0313
G1 F10.0 Z-0.18
G1 F14.0 X0.0
G1 F10.0 Z-0.255
G1 F14.0 X3.0313
G0 Z0.125
M5
M30
