( Made using CamBam - http://www.cambam.co.uk )
( Untitled 10/24/2013 12:00:39 AM )
( T4 : 0.125 )
G20 G90 G91.1 G64 G40
G0 Z0.125
( T4 : 0.125 )
T4 M6
( Pocket1 )
G17
M3 S1000
G0 X1.4875 Y1.4875
G0 Z0.0625
G1 F10.0 Z-0.0625
G1 F30.0 Y1.5125
G1 X1.5125
G1 Y1.4875
G1 X1.4875
G1 F10.0 Y1.4625
G1 F30.0 X1.4625
G1 Y1.5375
G1 X1.5375
G1 Y1.4625
G1 X1.4875
G1 F10.0 Y1.4125
G1 F30.0 X1.4125
G1 Y1.5875
G1 X1.5875
G1 Y1.4125
G1 X1.4875
G1 F10.0 Y1.3625
G1 F30.0 X1.3625
G1 Y1.6375
G1 X1.6375
G1 Y1.3625
G1 X1.4875
G1 F10.0 Y1.3125
G1 F30.0 X1.3125
G1 Y1.6875
G1 X1.6875
G1 Y1.3125
G1 X1.4875
G1 F10.0 Y1.2625
G1 F30.0 X1.2625
G1 Y1.7375
G1 X1.7375
G1 Y1.2625
G1 X1.4875
G1 F10.0 Y1.2125
G1 F30.0 X1.2125
G1 Y1.7875
G1 X1.7875
G1 Y1.2125
G1 X1.4875
G1 F10.0 Y1.1625
G1 F30.0 X1.1625
G1 Y1.8375
G1 X1.8375
G1 Y1.1625
G1 X1.4875
G1 F10.0 Y1.1125
G1 F30.0 X1.1125
G1 Y1.8875
G1 X1.8875
G1 Y1.1125
G1 X1.4875
G1 F10.0 Y1.0625
G1 F30.0 X1.0625
G1 Y1.9375
G1 X1.9375
G1 Y1.0625
G1 X1.4875
G1 F10.0 Y1.0125
G1 F30.0 X1.0125
G1 Y1.9875
G1 X1.9875
G1 Y1.0125
G1 X1.4875
G1 F10.0 Y0.9625
G1 F30.0 X0.9625
G1 Y2.0375
G1 X2.0375
G1 Y0.9625
G1 X1.4875
G1 F10.0 Y0.9125
G1 F30.0 X0.9125
G1 Y2.0875
G1 X2.0875
G1 Y0.9125
G1 X1.4875
G1 F10.0 Y0.8625
G1 F30.0 X0.8625
G1 Y2.1375
G1 X2.1375
G1 Y0.8625
G1 X1.4875
G1 F10.0 Y0.8125
G1 F30.0 X0.8125
G1 Y2.1875
G1 X2.1875
G1 Y0.8125
G1 X1.4875
G1 F10.0 Y0.7625
G1 F30.0 X0.7625
G1 Y2.2375
G1 X2.2375
G1 Y0.7625
G1 X1.4875
G1 F10.0 Y0.7125
G1 F30.0 X0.7125
G1 Y2.2875
G1 X2.2875
G1 Y0.7125
G1 X1.4875
G1 F10.0 Y0.6625
G1 F30.0 X0.6625
G1 Y2.3375
G1 X2.3375
G1 Y0.6625
G1 X1.4875
G1 F10.0 Y0.6125
G1 F30.0 X0.6125
G1 Y2.3875
G1 X2.3875
G1 Y0.6125
G1 X1.4875
G1 F10.0 Y0.5625
G1 F30.0 X0.5625
G1 Y2.4375
G1 X2.4375
G1 Y0.5625
G1 X1.4875
G1 F10.0 Y0.5125
G1 F30.0 X0.5125
G1 Y2.4875
G1 X2.4875
G1 Y0.5125
G1 X1.4875
G1 F10.0 Y0.4625
G1 F30.0 X0.4625
G1 Y2.5375
G1 X2.5375
G1 Y0.4625
G1 X1.4875
G1 F10.0 Y0.4125
G1 F30.0 X0.4125
G1 Y2.5875
G1 X2.5875
G1 Y0.4125
G1 X1.4875
G1 F10.0 Y0.3625
G1 F30.0 X0.3625
G1 Y2.6375
G1 X2.6375
G1 Y0.3625
G1 X1.4875
G1 F10.0 Y0.3125
G1 F30.0 X0.3125
G1 Y2.6875
G1 X2.6875
G1 Y0.3125
G1 X1.4875
G1 F10.0 Y0.2625
G1 F30.0 X0.2625
G1 Y2.7375
G1 X2.7375
G1 Y0.2625
G1 X1.4875
G1 F10.0 Y0.2125
G1 F30.0 X0.2125
G1 Y2.7875
G1 X2.7875
G1 Y0.2125
G1 X1.4875
G1 F10.0 Y0.1625
G1 F30.0 X0.1625
G1 Y2.8375
G1 X2.8375
G1 Y0.1625
G1 X1.4875
G1 F10.0 Y0.1125
G1 F30.0 X0.1125
G1 Y2.8875
G1 X2.8875
G1 Y0.1125
G1 X1.4875
G1 F10.0 Y0.0625
G1 F30.0 X2.9375
G1 Y2.9375
G1 X0.0625
G1 Y0.0625
G1 X1.4875
G0 Z0.125
M5
M30
