( Made using CamBam - http://www.cambam.co.uk )
( 001-hydrogen 11/7/2013 11:59:56 PM )
( T0 : 0.0078 )
G20 G90 G91.1 G64 G40
G0 Z0.125
( T0 : 0.0078 )
T0 M6
( Engrave1 )
G17
M3 S1000
G0 X0.7219 Y1.4207
G0 Z0.0425
G1 F4.0 Z-0.021
G1 F8.0 X0.9636
G1 Y1.3789
G1 X0.9141
G3 X0.9021 Y1.3781 I-0.0008 J-0.0785
G3 X0.8911 Y1.3734 I0.0016 J-0.0192
G3 X0.8882 Y1.3656 I0.0168 J-0.0105
G3 X0.8867 Y1.3408 I0.15 J-0.022
G1 Y1.1848
G1 X1.1148
G1 Y1.3408
G3 X1.1143 Y1.3575 I-0.2237 J0.0011
G3 X1.1133 Y1.3659 I-0.0838 J-0.0059
G3 X1.1104 Y1.3738 I-0.0189 J-0.0023
G3 X1.0985 Y1.3782 I-0.0128 J-0.0163
G3 X1.0859 Y1.3789 I-0.0118 J-0.0997
G1 X1.0401
G1 Y1.4207
G1 X1.2807
G1 Y1.3789
G1 X1.2316
G3 X1.2227 Y1.3785 I-0.0006 J-0.0785
G3 X1.2141 Y1.376 I0.0015 J-0.0213
G3 X1.2067 Y1.3657 I0.0134 J-0.0173
G3 X1.2054 Y1.3511 I0.0817 J-0.0146
G3 X1.2053 Y1.3364 I0.5579 J-0.0139
G1 Y0.9548
G3 X1.2054 Y0.9411 I0.4383 J-0.001
G3 X1.2058 Y0.9342 I0.1533 J0.0045
G3 X1.2071 Y0.9274 I0.0209 J0.0005
G3 X1.2203 Y0.9187 I0.0197 J0.0157
G3 X1.236 Y0.9167 I0.0147 J0.0533
G1 X1.2807
G1 Y0.875
G1 X1.0401
G1 Y0.9167
G1 X1.0859
G3 X1.0988 Y0.918 I0.0009 J0.0603
G3 X1.11 Y0.9244 I-0.0027 J0.0176
G3 X1.1142 Y0.9409 I-0.0356 J0.0176
G3 X1.1148 Y0.9578 I-0.1933 J0.0158
G1 Y1.135
G1 X0.8867
G1 Y0.9548
G3 X0.8869 Y0.9401 I0.3225 J-0.001
G3 X0.8875 Y0.9327 I0.1184 J0.0051
G3 X0.8892 Y0.9255 I0.0208 J0.0012
G3 X0.9007 Y0.9183 I0.0162 J0.0131
G3 X0.9141 Y0.9167 I0.0126 J0.0492
G1 X0.9636
G1 Y0.875
G1 X0.7219
G1 Y0.9167
G1 X0.7724
G3 X0.7863 Y0.92 I0.0014 J0.0251
G3 X0.7936 Y0.9277 I-0.0103 J0.0172
G3 X0.7955 Y0.9578 I-0.1685 J0.0253
G1 Y1.3408
G3 X0.7949 Y1.3574 I-0.1963 J0.0011
G3 X0.7937 Y1.3656 I-0.0753 J-0.0061
G3 X0.7907 Y1.3734 I-0.0185 J-0.0027
G3 X0.7793 Y1.3781 I-0.0129 J-0.0151
G3 X0.7669 Y1.3789 I-0.0115 J-0.0838
G1 X0.7219
G1 Y1.4207
G0 Z0.125
G0 X0.8075 Y0.7079
G0 Z0.0425
G1 F4.0 Z-0.021
G1 F8.0 X0.8351
G1 Y0.48
G1 X0.8075
G1 Y0.4971
G2 X0.7828 Y0.4812 I-0.0659 J0.075
G2 X0.7548 Y0.4755 I-0.0274 J0.0626
G2 X0.7287 Y0.481 I-0.0009 J0.0598
G2 X0.7082 Y0.498 I0.0248 J0.0508
G2 X0.6946 Y0.5279 I0.0644 J0.0474
G2 X0.6911 Y0.5606 I0.1363 J0.0312
G2 X0.6969 Y0.5976 I0.1094 J0.0017
G2 X0.713 Y0.6253 I0.0817 J-0.029
G2 X0.7362 Y0.6423 I0.0507 J-0.0448
G2 X0.7637 Y0.6482 I0.0276 J-0.0619
G2 X0.7866 Y0.6454 I0.0012 J-0.0857
G2 X0.8075 Y0.637 I-0.0275 J-0.0994
G1 Y0.7079
G0 Z0.125
G0 X0.7876 Y0.6211
G0 Z0.0425
G1 F4.0 Z-0.021
G3 F8.0 X0.7684 Y0.623 I-0.0185 J-0.089
G3 X0.7485 Y0.6192 I-0.0008 J-0.0505
G3 X0.7324 Y0.6069 I0.0162 J-0.0377
G3 X0.7221 Y0.5851 I0.0442 J-0.0342
G3 X0.7195 Y0.5612 I0.0979 J-0.0228
G3 X0.7214 Y0.5383 I0.1244 J-0.0011
G3 X0.7294 Y0.5168 I0.0588 J0.0098
G3 X0.7434 Y0.505 I0.0263 J0.0171
G3 X0.7614 Y0.5017 I0.017 J0.0419
G3 X0.7851 Y0.5068 I-0.0006 J0.0602
G3 X0.8075 Y0.5203 I-0.0413 J0.0941
G1 Y0.6142
G3 X0.7876 Y0.6211 I-0.0439 J-0.0949
G0 Z0.125
G0 X0.8893
G0 Z0.0425
G1 F4.0 Z-0.021
G1 F8.0 Y0.6436
G1 X0.9168
G1 Y0.6195
G2 X0.9306 Y0.6297 I0.1203 J-0.1485
G2 X0.9457 Y0.6381 I0.0561 J-0.0827
G2 X0.9713 Y0.6436 I0.0259 J-0.0573
G2 X0.9817 Y0.6432 I0.0013 J-0.0926
G2 X0.9914 Y0.6419 I-0.0179 J-0.167
G1 Y0.6136
G1 X0.9899
G3 X0.9779 Y0.6156 I-0.0213 J-0.0885
G3 X0.9643 Y0.6164 I-0.0127 J-0.1096
G3 X0.9396 Y0.6107 I0.0001 J-0.0561
G3 X0.9168 Y0.5962 I0.0476 J-0.1002
G1 Y0.48
G1 X0.8893
G1 Y0.6211
G0 Z0.125
G0 X1.0091 Y0.5916
G0 Z0.0425
G1 F4.0 Z-0.021
G2 F8.0 X1.0101 Y0.5952 I0.1158 J-0.0285
G2 X1.0261 Y0.6249 I0.0743 J-0.0209
G2 X1.0511 Y0.6427 I0.0497 J-0.0431
G2 X1.0813 Y0.6482 I0.0291 J-0.0748
G2 X1.1114 Y0.6427 I0.0011 J-0.0793
G2 X1.1362 Y0.6249 I-0.025 J-0.061
G2 X1.1523 Y0.5952 I-0.058 J-0.0507
G2 X1.1567 Y0.5617 I-0.114 J-0.032
G2 X1.1523 Y0.5283 I-0.1184 J-0.0014
G2 X1.1362 Y0.4986 I-0.0741 J0.021
G2 X1.1114 Y0.4809 I-0.0497 J0.0434
G2 X1.0813 Y0.4755 I-0.0289 J0.0743
G2 X1.0511 Y0.4809 I-0.0012 J0.0807
G2 X1.0261 Y0.4986 I0.0245 J0.0611
G2 X1.0101 Y0.5283 I0.0583 J0.0505
G2 X1.0057 Y0.5617 I0.1149 J0.032
G2 X1.0091 Y0.5916 I0.1192 J0.0014
G0 Z0.125
G0 X1.0364 Y0.5861
G0 Z0.0425
G1 F4.0 Z-0.021
G3 F8.0 X1.0341 Y0.5617 I0.1148 J-0.0231
G3 X1.0366 Y0.5374 I0.1107 J-0.0012
G3 X1.0466 Y0.515 I0.0553 J0.0113
G3 X1.062 Y0.5029 I0.0315 J0.0243
G3 X1.0813 Y0.4992 I0.0185 J0.044
G3 X1.1004 Y0.5029 I0.0008 J0.0472
G3 X1.1157 Y0.5149 I-0.0161 J0.0365
G3 X1.1259 Y0.5373 I-0.0443 J0.0335
G3 X1.1283 Y0.5617 I-0.1084 J0.0233
G3 X1.126 Y0.5863 I-0.1157 J0.0013
G3 X1.1159 Y0.6089 I-0.0531 J-0.0102
G3 X1.1004 Y0.6208 I-0.0312 J-0.0246
G3 X1.0813 Y0.6244 I-0.0184 J-0.0445
G3 X1.062 Y0.6208 I-0.0008 J-0.0491
G3 X1.0464 Y0.6089 I0.0155 J-0.0364
G3 X1.0365 Y0.5863 I0.0435 J-0.0327
G3 X1.0364 Y0.5861 I0.1148 J-0.0233
G0 Z0.125
G0 X1.1885 Y0.5739
G0 Z0.0425
G1 F4.0 Z-0.021
G2 F8.0 X1.1894 Y0.5818 I0.125 J-0.01
G2 X1.1939 Y0.5997 I0.0838 J-0.0119
G2 X1.2102 Y0.6262 I0.0781 J-0.0297
G2 X1.2333 Y0.6423 I0.0478 J-0.044
G2 X1.2604 Y0.6482 I0.0277 J-0.0624
G2 X1.2842 Y0.6452 I0.0018 J-0.0832
G2 X1.3045 Y0.6366 I-0.0291 J-0.0969
G1 X1.3063 Y0.6436
G1 X1.3321
G1 Y0.4986
G2 X1.3284 Y0.4663 I-0.1295 J-0.0017
G2 X1.3227 Y0.4509 I-0.073 J0.0185
G2 X1.3132 Y0.4375 I-0.0494 J0.025
G2 X1.2861 Y0.4219 I-0.0426 J0.0427
G2 X1.255 Y0.418 I-0.0294 J0.1089
G2 X1.2295 Y0.4199 I-0.0002 J0.1684
G2 X1.2052 Y0.4251 I0.0267 J0.1868
G1 Y0.4532
G1 X1.2067
G3 X1.2281 Y0.4467 I0.0746 J0.2088
G3 X1.2574 Y0.4428 I0.0295 J0.108
G3 X1.2807 Y0.4462 I0.0018 J0.0698
G3 X1.295 Y0.4555 I-0.0106 J0.032
G3 X1.3023 Y0.4693 I-0.0251 J0.0222
G3 X1.3045 Y0.4873 I-0.0665 J0.0173
G1 Y0.5023
G2 X1.2807 Y0.4873 I-0.0691 J0.0839
G2 X1.2665 Y0.4835 I-0.0221 J0.0534
G2 X1.2518 Y0.4825 I-0.0141 J0.0991
G2 X1.226 Y0.4875 I-0.001 J0.0635
G2 X1.2052 Y0.5036 I0.0227 J0.051
G2 X1.1916 Y0.532 I0.0578 J0.0452
G2 X1.1881 Y0.5633 I0.1253 J0.0299
G2 X1.1885 Y0.5739 I0.1254 J0.0006
G0 Z0.125
G0 X1.2167 Y0.5719
G0 Z0.0425
G1 F4.0 Z-0.021
G3 F8.0 X1.2165 Y0.5639 I0.0942 J-0.0068
G3 X1.2184 Y0.5424 I0.1139 J-0.0011
G3 X1.2262 Y0.5222 I0.0536 J0.0092
G3 X1.2404 Y0.511 I0.0249 J0.0169
G3 X1.2583 Y0.508 I0.0169 J0.0461
G3 X1.2823 Y0.5125 I-0.0003 J0.0676
G3 X1.3045 Y0.525 I-0.0317 J0.0829
G1 Y0.6142
G3 X1.284 Y0.6212 I-0.0435 J-0.0933
G3 X1.2653 Y0.6234 I-0.0188 J-0.0797
G3 X1.2457 Y0.6199 I-0.0008 J-0.0519
G3 X1.2295 Y0.6082 I0.0156 J-0.0385
G3 X1.2191 Y0.5872 I0.0397 J-0.0328
G3 X1.2167 Y0.5719 I0.0918 J-0.0221
G0 Z0.125
G0 X1.3748 Y0.5663
G0 Z0.0425
G1 F4.0 Z-0.021
G2 F8.0 X1.3795 Y0.5948 I0.1129 J-0.004
G2 X1.3965 Y0.6246 I0.0741 J-0.0227
G2 X1.4228 Y0.6426 I0.0524 J-0.0482
G2 X1.4542 Y0.6482 I0.0303 J-0.0798
G2 X1.4818 Y0.644 I0.0013 J-0.0842
G2 X1.5052 Y0.6288 I-0.018 J-0.0536
G2 X1.5195 Y0.6031 I-0.0467 J-0.0426
G2 X1.5232 Y0.5739 I-0.1005 J-0.0278
G1 Y0.559
G1 X1.4027
G3 X1.4072 Y0.5326 I0.0707 J-0.0014
G3 X1.4197 Y0.5143 I0.0462 J0.018
G3 X1.4377 Y0.5037 I0.0335 J0.0366
G3 X1.4608 Y0.5002 I0.0224 J0.0694
G3 X1.4944 Y0.5068 I-0.0006 J0.0916
G3 X1.507 Y0.5124 I-0.0522 J0.1337
G3 X1.5186 Y0.52 I-0.0249 J0.0509
G1 X1.52
G1 Y0.49
G2 X1.4916 Y0.4801 I-0.0882 J0.2093
G2 X1.4611 Y0.4762 I-0.03 J0.1114
G2 X1.4272 Y0.4809 I-0.0015 J0.1134
G2 X1.3976 Y0.4982 I0.0215 J0.071
G2 X1.3796 Y0.5271 I0.0493 J0.0505
G2 X1.3747 Y0.5609 I0.1024 J0.0322
G2 X1.3748 Y0.5663 I0.113 J0.0014
G0 Z0.125
G0 X1.4027 Y0.58
G0 Z0.0425
G1 F4.0 Z-0.021
G1 F8.0 X1.4964
G3 X1.4941 Y0.5978 I-0.0651 J0.0004
G3 X1.4854 Y0.6136 I-0.038 J-0.0105
G3 X1.4704 Y0.623 I-0.0247 J-0.0227
G3 X1.4528 Y0.6255 I-0.0167 J-0.0559
G3 X1.4338 Y0.6225 I-0.0008 J-0.058
G3 X1.4175 Y0.6124 I0.0138 J-0.0405
G3 X1.4027 Y0.58 I0.0359 J-0.036
G0 Z0.125
G0 X1.565
G0 Z0.0425
G1 F4.0 Z-0.021
G1 F8.0 Y0.6436
G1 X1.5925
G1 Y0.6255
G2 X1.6192 Y0.6422 I0.0723 J-0.0857
G2 X1.6475 Y0.6482 I0.0284 J-0.0641
G2 X1.6695 Y0.6447 I0.001 J-0.0649
G2 X1.6879 Y0.6322 I-0.0145 J-0.0412
G2 X1.699 Y0.6104 I-0.0409 J-0.0345
G2 X1.7018 Y0.5862 I-0.0924 J-0.0231
G1 Y0.48
G1 X1.6743
G1 Y0.5732
G3 X1.6729 Y0.5943 I-0.1591 J0.0006
G3 X1.6681 Y0.6098 I-0.0395 J-0.0038
G3 X1.6576 Y0.6189 I-0.0188 J-0.0112
G3 X1.6397 Y0.6219 I-0.0164 J-0.0419
G3 X1.6161 Y0.6164 I0.0011 J-0.0574
G3 X1.5925 Y0.6022 I0.0498 J-0.1094
G1 Y0.48
G1 X1.565
G1 Y0.58
G0 Z0.125
G0 X1.2821 Y0.3465
G0 Z0.0425
G1 F4.0 Z-0.021
G2 F8.0 X1.2882 Y0.336 I-0.0286 J-0.0236
G2 X1.2911 Y0.3188 I-0.0455 J-0.0165
G2 X1.289 Y0.3063 I-0.0388 J0.0002
G2 X1.2834 Y0.2949 I-0.0512 J0.0178
G2 X1.2756 Y0.2849 I-0.0526 J0.033
G2 X1.2656 Y0.277 I-0.0323 J0.031
G2 X1.2781 Y0.2687 I-0.0425 J-0.0768
G2 X1.2926 Y0.2515 I-0.0345 J-0.0438
G2 X1.2979 Y0.2296 I-0.0412 J-0.0215
G2 X1.2946 Y0.2087 I-0.0618 J-0.0009
G2 X1.283 Y0.1911 I-0.0409 J0.0143
G2 X1.2638 Y0.1805 I-0.0328 J0.0365
G2 X1.2421 Y0.1776 I-0.0208 J0.0726
G2 X1.2209 Y0.1801 I-0.001 J0.0819
G2 X1.2061 Y0.1867 I0.0118 J0.0458
G2 X1.1916 Y0.2059 I0.0225 J0.0321
G2 X1.1879 Y0.2296 I0.0649 J0.0224
G2 X1.1971 Y0.2591 I0.0545 J-0.0009
G2 X1.2071 Y0.271 I0.05 J-0.0314
G2 X1.2201 Y0.2795 I0.0314 J-0.0342
G2 X1.2015 Y0.2965 I0.024 J0.0448
G2 X1.1943 Y0.3189 I0.033 J0.023
G2 X1.1975 Y0.3362 I0.0455 J0.0007
G2 X1.2078 Y0.3504 I0.0344 J-0.014
G2 X1.2242 Y0.3594 I0.0298 J-0.035
G2 X1.2427 Y0.362 I0.0178 J-0.0596
G2 X1.2616 Y0.3596 I0.0009 J-0.0684
G2 X1.2784 Y0.3504 I-0.0111 J-0.0403
G2 X1.2821 Y0.3465 I-0.0249 J-0.0275
G0 Z0.125
G0 X1.2627 Y0.3322
G0 Z0.0425
G1 F4.0 Z-0.021
G3 F8.0 X1.2599 Y0.3353 I-0.0151 J-0.0112
G3 X1.2427 Y0.3413 I-0.0162 J-0.0187
G3 X1.2335 Y0.3402 I-0.0004 J-0.0378
G3 X1.2221 Y0.3325 I0.0037 J-0.0179
G3 X1.2188 Y0.3192 I0.0214 J-0.0124
G3 X1.2225 Y0.308 I0.0201 J0.0004
G3 X1.235 Y0.2959 I0.0398 J0.0288
G3 X1.25 Y0.2871 I0.0679 J0.0983
G3 X1.2617 Y0.3015 I-0.0417 J0.0456
G3 X1.2666 Y0.3194 I-0.0313 J0.0183
G3 X1.265 Y0.3281 I-0.0231 J0.0003
G3 X1.2627 Y0.3322 I-0.0174 J-0.007
G0 Z0.125
G0 X1.2391 Y0.2689
G0 Z0.0425
G1 F4.0 Z-0.021
G3 F8.0 X1.22 Y0.2531 I0.0263 J-0.0515
G3 X1.2123 Y0.2296 I0.0308 J-0.0231
G3 X1.2206 Y0.2072 I0.0318 J-0.0009
G3 X1.2421 Y0.1983 I0.0205 J0.0191
G3 X1.2542 Y0.2004 I0.0004 J0.0341
G3 X1.2645 Y0.2071 I-0.0103 J0.0271
G3 X1.2734 Y0.2296 I-0.0213 J0.0215
G3 X1.2673 Y0.2481 I-0.0317 J-0.0001
G3 X1.2613 Y0.2545 I-0.0286 J-0.021
G3 X1.2505 Y0.2622 I-0.061 J-0.0735
G3 X1.2391 Y0.2689 I-0.1054 J-0.1681
G0 Z0.125
G0 X1.1696 Y0.269
G0 Z0.0425
G1 F4.0 Z-0.021
G2 F8.0 X1.1666 Y0.2357 I-0.1925 J0.0004
G2 X1.1548 Y0.2025 I-0.1013 J0.0172
G2 X1.1367 Y0.1839 I-0.0444 J0.0251
G2 X1.1116 Y0.1776 I-0.0241 J0.043
G2 X1.0874 Y0.1822 I-0.0011 J0.0595
G2 X1.0684 Y0.1977 I0.019 J0.0428
G2 X1.06 Y0.2158 I0.0495 J0.0337
G2 X1.0549 Y0.2451 I0.1511 J0.0415
G2 X1.0537 Y0.2748 I0.3315 J0.0284
G2 X1.057 Y0.3074 I0.1487 J0.0013
G2 X1.0693 Y0.3377 I0.0917 J-0.0195
G2 X1.088 Y0.3559 I0.0452 J-0.0279
G2 X1.1133 Y0.362 I0.0243 J-0.045
G2 X1.137 Y0.3574 I0.0011 J-0.0569
G2 X1.1554 Y0.3417 I-0.0186 J-0.0406
G2 X1.1632 Y0.3252 I-0.0508 J-0.0339
G2 X1.1683 Y0.2983 I-0.1316 J-0.0391
G2 X1.1696 Y0.2709 I-0.2732 J-0.0262
G2 Y0.269 I-0.1925 J-0.0016
G0 Z0.125
G0 X1.1451 Y0.2692
G0 Z0.0425
G1 F4.0 Z-0.021
G3 F8.0 Y0.2725 I-0.304 J0.0024
G3 X1.1446 Y0.2935 I-0.3481 J0.0011
G3 X1.1418 Y0.3143 I-0.124 J-0.0057
G3 X1.138 Y0.3251 I-0.0516 J-0.0123
G3 X1.1312 Y0.3344 I-0.029 J-0.014
G3 X1.1127 Y0.3413 I-0.0177 J-0.0193
G3 X1.0926 Y0.3327 I-0.0007 J-0.0261
G3 X1.0846 Y0.3191 I0.0316 J-0.0278
G3 X1.0794 Y0.2962 I0.0914 J-0.0328
G3 X1.0781 Y0.2727 I0.2025 J-0.0225
G3 X1.0789 Y0.2514 I0.2747 J-0.0008
G3 X1.0809 Y0.2352 I0.1655 J0.0123
G3 X1.0838 Y0.223 I0.0984 J0.0171
G3 X1.0926 Y0.2062 I0.0448 J0.0126
G3 X1.1099 Y0.1983 I0.0169 J0.0143
G3 X1.1257 Y0.2025 I0.0007 J0.0295
G3 X1.1366 Y0.2148 I-0.0168 J0.0258
G3 X1.1414 Y0.2287 I-0.0536 J0.0262
G3 X1.1444 Y0.2505 I-0.1463 J0.0314
G3 X1.1451 Y0.2692 I-0.3032 J0.0211
G0 Z0.125
G0 X1.0385 Y0.2693
G0 Z0.0425
G1 F4.0 Z-0.021
G2 F8.0 X1.0355 Y0.2357 I-0.1925 J0.0001
G2 X1.0237 Y0.2025 I-0.1013 J0.0172
G2 X1.0056 Y0.1839 I-0.0444 J0.0251
G2 X0.9805 Y0.1776 I-0.0241 J0.043
G2 X0.9563 Y0.1822 I-0.0011 J0.0595
G2 X0.9373 Y0.1977 I0.019 J0.0428
G2 X0.9289 Y0.2158 I0.0495 J0.0337
G2 X0.9238 Y0.2451 I0.1511 J0.0415
G2 X0.9226 Y0.2748 I0.3315 J0.0284
G2 X0.9259 Y0.3074 I0.1487 J0.0013
G2 X0.9382 Y0.3377 I0.0917 J-0.0195
G2 X0.9569 Y0.3559 I0.0452 J-0.0279
G2 X0.9822 Y0.362 I0.0243 J-0.045
G2 X1.0059 Y0.3574 I0.0011 J-0.0569
G2 X1.0243 Y0.3417 I-0.0186 J-0.0406
G2 X1.0321 Y0.3252 I-0.0508 J-0.0339
G2 X1.0372 Y0.2983 I-0.1316 J-0.0391
G2 X1.0385 Y0.2709 I-0.2732 J-0.0262
G2 Y0.2693 I-0.1925 J-0.0016
G0 Z0.125
G0 X1.014 Y0.2694
G0 Z0.0425
G1 F4.0 Z-0.021
G3 F8.0 Y0.2725 I-0.304 J0.0022
G3 X1.0135 Y0.2935 I-0.3481 J0.0011
G3 X1.0107 Y0.3143 I-0.124 J-0.0057
G3 X1.0069 Y0.3251 I-0.0516 J-0.0123
G3 X1.0001 Y0.3344 I-0.029 J-0.014
G3 X0.9816 Y0.3413 I-0.0177 J-0.0193
G3 X0.9615 Y0.3327 I-0.0007 J-0.0261
G3 X0.9535 Y0.3191 I0.0316 J-0.0278
G3 X0.9483 Y0.2962 I0.0914 J-0.0328
G3 X0.947 Y0.2727 I0.2025 J-0.0225
G3 X0.9478 Y0.2514 I0.2747 J-0.0008
G3 X0.9498 Y0.2352 I0.1655 J0.0123
G3 X0.9527 Y0.223 I0.0984 J0.0171
G3 X0.9615 Y0.2062 I0.0448 J0.0126
G3 X0.9788 Y0.1983 I0.0169 J0.0143
G3 X0.9946 Y0.2025 I0.0007 J0.0295
G3 X1.0055 Y0.2148 I-0.0168 J0.0258
G3 X1.0103 Y0.2287 I-0.0536 J0.0262
G3 X1.0133 Y0.2505 I-0.1463 J0.0314
G3 X1.014 Y0.2694 I-0.3032 J0.0211
G0 Z0.125
G0 X0.8827 Y0.2041
G0 Z0.0425
G1 F4.0 Z-0.021
G2 F8.0 X0.8845 Y0.196 I-0.0158 J-0.0079
G2 X0.8792 Y0.1829 I-0.018 J-0.0002
G2 X0.8662 Y0.1776 I-0.0127 J0.0123
G2 X0.8533 Y0.1829 I-0.0003 J0.0176
G2 X0.8479 Y0.196 I0.0127 J0.0128
G2 X0.8533 Y0.2089 I0.0176 J0.0003
G2 X0.8662 Y0.2143 I0.0127 J-0.0123
G2 X0.8792 Y0.2089 I0.0003 J-0.0176
G2 X0.8827 Y0.2041 I-0.0123 J-0.0127
G0 Z0.125
G0 X0.7771
G0 Z0.0425
G1 F4.0 Z-0.021
G1 F8.0 Y0.18
G1 X0.7527
G1 Y0.3171
G1 X0.7163 Y0.2944
G1 Y0.3172
G3 X0.7456 Y0.3364 I-0.0825 J0.1581
G3 X0.7584 Y0.3472 I-0.1135 J0.1463
G3 X0.7698 Y0.3596 I-0.0743 J0.0802
G1 X0.7771
G1 Y0.2041
G0 Z0.125
G0 X0.5708 Y0.4196
G0 Z0.0425
G1 F4.0 Z-0.021
G1 F8.0 X0.5414
G1 X0.5718 Y0.4879
G1 X0.5066 Y0.6436
G1 X0.5365
G1 X0.5868 Y0.5223
G1 X0.6375 Y0.6436
G1 X0.6663
G1 X0.5708 Y0.4196
G0 Z0.125
G0 X0.4684 Y0.48
G0 Z0.0425
G1 F4.0 Z-0.021
G1 F8.0 X0.4394
G1 Y0.5868
G1 X0.3306
G1 Y0.48
G1 X0.3016
G1 Y0.6981
G1 X0.3306
G1 Y0.6126
G1 X0.4394
G1 Y0.6981
G1 X0.4684
G1 Y0.48
G0 Z0.125
G0 X1.6875 Y1.5
G0 Z0.0425
G1 F4.0 Z-0.021
G1 F8.0 Y1.7193
G1 X1.6293 Y1.683
G1 Y1.7195
G3 X1.6762 Y1.7502 I-0.132 J0.253
G3 X1.6966 Y1.7676 I-0.1817 J0.2341
G3 X1.7148 Y1.7873 I-0.1189 J0.1283
G1 X1.7266
G1 Y1.5
G1 X1.6875
G0 Z0.125
M5
M30
