( Made using CamBam - http://www.cambam.co.uk )
( 002-helium 11/8/2013 12:12:02 AM )
( T0 : 0.0078 )
G20 G90 G91.1 G64 G40
G0 Z0.125
( T0 : 0.0078 )
T0 M6
( Engrave1 )
G17
M3 S1000
G0 X0.5342 Y1.4207
G0 Z0.0425
G1 F4.0 Z-0.021
G1 F8.0 X0.7759
G1 Y1.3789
G1 X0.7264
G3 X0.7144 Y1.3781 I-0.0008 J-0.0785
G3 X0.7034 Y1.3734 I0.0016 J-0.0192
G3 X0.7006 Y1.3656 I0.0168 J-0.0105
G3 X0.699 Y1.3408 I0.15 J-0.022
G1 Y1.1848
G1 X0.9271
G1 Y1.3408
G3 X0.9266 Y1.3575 I-0.2237 J0.0011
G3 X0.9256 Y1.3659 I-0.0838 J-0.0059
G3 X0.9227 Y1.3738 I-0.0189 J-0.0023
G3 X0.9109 Y1.3782 I-0.0128 J-0.0163
G3 X0.8982 Y1.3789 I-0.0118 J-0.0997
G1 X0.8524
G1 Y1.4207
G1 X1.093
G1 Y1.3789
G1 X1.0439
G3 X1.035 Y1.3785 I-0.0006 J-0.0785
G3 X1.0264 Y1.376 I0.0015 J-0.0213
G3 X1.019 Y1.3657 I0.0134 J-0.0173
G3 X1.0178 Y1.3511 I0.0817 J-0.0146
G3 X1.0176 Y1.3364 I0.5579 J-0.0139
G1 Y0.9548
G3 X1.0178 Y0.9411 I0.4383 J-0.001
G3 X1.0181 Y0.9342 I0.1533 J0.0045
G3 X1.0194 Y0.9274 I0.0209 J0.0005
G3 X1.0327 Y0.9187 I0.0197 J0.0157
G3 X1.0483 Y0.9167 I0.0147 J0.0533
G1 X1.093
G1 Y0.875
G1 X0.8524
G1 Y0.9167
G1 X0.8982
G3 X0.9111 Y0.918 I0.0009 J0.0603
G3 X0.9224 Y0.9244 I-0.0027 J0.0176
G3 X0.9265 Y0.9409 I-0.0356 J0.0176
G3 X0.9271 Y0.9578 I-0.1933 J0.0158
G1 Y1.135
G1 X0.699
G1 Y0.9548
G3 X0.6993 Y0.9401 I0.3225 J-0.001
G3 X0.6998 Y0.9327 I0.1184 J0.0051
G3 X0.7015 Y0.9255 I0.0208 J0.0012
G3 X0.713 Y0.9183 I0.0162 J0.0131
G3 X0.7264 Y0.9167 I0.0126 J0.0492
G1 X0.7759
G1 Y0.875
G1 X0.5342
G1 Y0.9167
G1 X0.5847
G3 X0.5986 Y0.92 I0.0014 J0.0251
G3 X0.606 Y0.9277 I-0.0103 J0.0172
G3 X0.6078 Y0.9578 I-0.1685 J0.0253
G1 Y1.3408
G3 X0.6072 Y1.3574 I-0.1963 J0.0011
G3 X0.6061 Y1.3656 I-0.0753 J-0.0061
G3 X0.603 Y1.3734 I-0.0185 J-0.0027
G3 X0.5916 Y1.3781 I-0.0129 J-0.0151
G3 X0.5792 Y1.3789 I-0.0115 J-0.0838
G1 X0.5342
G1 Y1.4207
G0 Z0.125
G0 X1.1735 Y1.1373
G0 Z0.0425
G1 F4.0 Z-0.021
G2 F8.0 X1.2032 Y1.1833 I0.161 J-0.0713
G2 X1.256 Y1.2227 I0.1202 J-0.1059
G2 X1.3204 Y1.2361 I0.0628 J-0.141
G2 X1.3669 Y1.2298 I0.0012 J-0.1657
G2 X1.4091 Y1.2094 I-0.0384 J-0.133
G2 X1.4655 Y1.1339 I-0.0949 J-0.1297
G2 X1.476 Y1.088 I-0.1975 J-0.0695
G2 X1.479 Y1.0409 I-0.4172 J-0.0503
G1 X1.2384
G3 X1.244 Y0.9904 I0.2556 J0.0028
G3 X1.2651 Y0.9442 I0.1061 J0.0206
G3 X1.338 Y0.9116 I0.0706 J0.06
G3 X1.4043 Y0.9362 I0.0 J0.1015
G3 X1.4479 Y0.9918 I-0.1253 J0.1432
G1 X1.4823 Y0.9779
G2 X1.4557 Y0.934 I-0.2504 J0.1218
G2 X1.3979 Y0.883 I-0.1426 J0.1033
G2 X1.323 Y0.8651 I-0.0729 J0.1394
G2 X1.204 Y0.916 I-0.003 J0.1576
G2 X1.1672 Y0.9763 I0.1227 J0.1163
G2 X1.156 Y1.046 I0.1975 J0.0674
G2 X1.1666 Y1.1191 I0.2379 J0.0027
G2 X1.1735 Y1.1373 I0.1679 J-0.0532
G0 Z0.125
G0 X1.2428 Y1.1225
G0 Z0.0425
G1 F4.0 Z-0.021
G3 F8.0 X1.2384 Y1.0812 I0.1953 J-0.0418
G1 X1.3765
G3 X1.3911 Y1.0874 I0.001 J0.0179
G3 X1.3957 Y1.0994 I-0.0211 J0.015
G3 X1.3966 Y1.1123 I-0.0808 J0.0121
G3 X1.3739 Y1.1742 I-0.0893 J0.0023
G3 X1.3504 Y1.1929 I-0.0609 J-0.0523
G3 X1.3212 Y1.1998 I-0.0289 J-0.0567
G3 X1.2885 Y1.1913 I-0.0005 J-0.0651
G3 X1.2633 Y1.1687 I0.0441 J-0.0744
G3 X1.2438 Y1.1269 I0.0895 J-0.0671
G3 X1.2428 Y1.1225 I0.1943 J-0.0463
G0 Z0.125
G0 X1.0179 Y0.6996
G0 Z0.0425
G1 F4.0 Z-0.021
G1 F8.0 Y0.671
G1 X0.9869
G1 Y0.6996
G1 X1.0179
G0 Z0.125
G0 X1.0162 Y0.6436
G0 Z0.0425
G1 F4.0 Z-0.021
G1 F8.0 Y0.48
G1 X0.9886
G1 Y0.6436
G1 X1.0162
G0 Z0.125
G0 X1.0695
G0 Z0.0425
G1 F4.0 Z-0.021
G1 F8.0 X1.097
G1 Y0.5505
G3 X1.0982 Y0.5291 I0.1696 J-0.0014
G3 X1.1032 Y0.514 I0.0387 J0.0044
G3 X1.1135 Y0.5046 I0.0204 J0.012
G3 X1.1225 Y0.5022 I0.0125 J0.0291
G3 X1.1318 Y0.5017 I0.0088 J0.0713
G3 X1.1551 Y0.5072 I-0.0017 J0.0585
G3 X1.1788 Y0.5215 I-0.0434 J0.0994
G1 Y0.6436
G1 X1.2063
G1 Y0.48
G1 X1.1788
G1 Y0.4982
G2 X1.1521 Y0.4813 I-0.085 J0.1049
G2 X1.124 Y0.4755 I-0.0273 J0.0607
G2 X1.1022 Y0.4789 I-0.0009 J0.0639
G2 X1.0839 Y0.4911 I0.0153 J0.0429
G2 X1.0724 Y0.513 I0.0393 J0.0345
G2 X1.0695 Y0.5374 I0.0914 J0.0233
G1 Y0.6436
G0 Z0.125
G0 X0.9339
G0 Z0.0425
G1 F4.0 Z-0.021
G1 F8.0 Y0.48
G1 X0.9063
G1 Y0.7079
G1 X0.9339
G1 Y0.6436
G0 Z0.125
G0 X0.8577 Y0.6111
G0 Z0.0425
G1 F4.0 Z-0.021
G2 F8.0 X0.8605 Y0.6031 I-0.0581 J-0.0249
G2 X0.8643 Y0.5739 I-0.1005 J-0.0278
G1 Y0.559
G1 X0.7437
G3 X0.7483 Y0.5326 I0.0707 J-0.0014
G3 X0.7607 Y0.5143 I0.0462 J0.018
G3 X0.7787 Y0.5037 I0.0335 J0.0366
G3 X0.8019 Y0.5002 I0.0224 J0.0694
G3 X0.8354 Y0.5068 I-0.0006 J0.0916
G3 X0.848 Y0.5124 I-0.0522 J0.1337
G3 X0.8596 Y0.52 I-0.0249 J0.0509
G1 X0.8611
G1 Y0.49
G2 X0.8326 Y0.4801 I-0.0882 J0.2093
G2 X0.8022 Y0.4762 I-0.03 J0.1114
G2 X0.7682 Y0.4809 I-0.0015 J0.1134
G2 X0.7386 Y0.4982 I0.0215 J0.071
G2 X0.7207 Y0.5271 I0.0493 J0.0505
G2 X0.7157 Y0.5609 I0.1024 J0.0322
G2 X0.7205 Y0.5948 I0.113 J0.0014
G2 X0.7376 Y0.6246 I0.0741 J-0.0227
G2 X0.7639 Y0.6426 I0.0524 J-0.0482
G2 X0.7953 Y0.6482 I0.0303 J-0.0798
G2 X0.8228 Y0.644 I0.0013 J-0.0842
G2 X0.8463 Y0.6288 I-0.018 J-0.0536
G2 X0.8577 Y0.6111 I-0.0467 J-0.0426
G0 Z0.125
G0 X0.8338 Y0.6017
G0 Z0.0425
G1 F4.0 Z-0.021
G3 F8.0 X0.8265 Y0.6136 I-0.0367 J-0.0144
G3 X0.8114 Y0.623 I-0.0247 J-0.0227
G3 X0.7938 Y0.6255 I-0.0167 J-0.0559
G3 X0.7748 Y0.6225 I-0.0008 J-0.058
G3 X0.7585 Y0.6124 I0.0138 J-0.0405
G3 X0.7437 Y0.58 I0.0359 J-0.036
G1 X0.8375
G3 X0.8351 Y0.5978 I-0.0651 J0.0004
G3 X0.8338 Y0.6017 I-0.038 J-0.0105
G0 Z0.125
G0 X0.6709
G0 Z0.0425
G1 F4.0 Z-0.021
G1 F8.0 Y0.48
G1 X0.6419
G1 Y0.5868
G1 X0.5331
G1 Y0.48
G1 X0.5041
G1 Y0.6981
G1 X0.5331
G1 Y0.6126
G1 X0.6419
G1 Y0.6981
G1 X0.6709
G1 Y0.6017
G0 Z0.125
G0 X0.791 Y0.3596
G0 Z0.0425
G1 F4.0 Z-0.021
G1 F8.0 X0.7996
G1 Y0.2475
G1 X0.8176
G1 Y0.2287
G1 X0.7996
G1 Y0.18
G1 X0.7764
G1 Y0.2287
G1 X0.6949
G1 Y0.2426
G1 X0.791 Y0.3596
G0 Z0.125
G0 X0.7764 Y0.3109
G0 Z0.0425
G1 F4.0 Z-0.021
G1 F8.0 X0.7239 Y0.2475
G1 X0.7764
G1 Y0.3109
G0 Z0.125
G0 X0.8551 Y0.2105
G0 Z0.0425
G1 F4.0 Z-0.021
G2 F8.0 X0.8662 Y0.2143 I0.0109 J-0.0139
G2 X0.8792 Y0.2089 I0.0003 J-0.0176
G2 X0.8845 Y0.196 I-0.0123 J-0.0127
G2 X0.8792 Y0.1829 I-0.018 J-0.0002
G2 X0.8662 Y0.1776 I-0.0127 J0.0123
G2 X0.8533 Y0.1829 I-0.0003 J0.0176
G2 X0.8479 Y0.196 I0.0127 J0.0128
G2 X0.8533 Y0.2089 I0.0176 J0.0003
G2 X0.8551 Y0.2105 I0.0127 J-0.0123
G0 Z0.125
G0 X0.9266 Y0.2254
G0 Z0.0425
G1 F4.0 Z-0.021
G2 F8.0 X0.9238 Y0.2451 I0.1534 J0.0319
G2 X0.9226 Y0.2748 I0.3315 J0.0284
G2 X0.9259 Y0.3074 I0.1487 J0.0013
G2 X0.9382 Y0.3377 I0.0917 J-0.0195
G2 X0.9569 Y0.3559 I0.0452 J-0.0279
G2 X0.9822 Y0.362 I0.0243 J-0.045
G2 X1.0059 Y0.3574 I0.0011 J-0.0569
G2 X1.0243 Y0.3417 I-0.0186 J-0.0406
G2 X1.0321 Y0.3252 I-0.0508 J-0.0339
G2 X1.0372 Y0.2983 I-0.1316 J-0.0391
G2 X1.0385 Y0.2709 I-0.2732 J-0.0262
G2 X1.0355 Y0.2357 I-0.1925 J-0.0016
G2 X1.0237 Y0.2025 I-0.1013 J0.0172
G2 X1.0056 Y0.1839 I-0.0444 J0.0251
G2 X0.9805 Y0.1776 I-0.0241 J0.043
G2 X0.9563 Y0.1822 I-0.0011 J0.0595
G2 X0.9373 Y0.1977 I0.019 J0.0428
G2 X0.9289 Y0.2158 I0.0495 J0.0337
G2 X0.9266 Y0.2254 I0.1511 J0.0415
G0 Z0.125
G0 X0.9507 Y0.2308
G0 Z0.0425
G1 F4.0 Z-0.021
G3 F8.0 X0.9527 Y0.223 I0.0975 J0.0216
G3 X0.9615 Y0.2062 I0.0448 J0.0126
G3 X0.9788 Y0.1983 I0.0169 J0.0143
G3 X0.9946 Y0.2025 I0.0007 J0.0295
G3 X1.0055 Y0.2148 I-0.0168 J0.0258
G3 X1.0103 Y0.2287 I-0.0536 J0.0262
G3 X1.0133 Y0.2505 I-0.1463 J0.0314
G3 X1.014 Y0.2725 I-0.3032 J0.0211
G3 X1.0135 Y0.2935 I-0.3481 J0.0011
G3 X1.0107 Y0.3143 I-0.124 J-0.0057
G3 X1.0069 Y0.3251 I-0.0516 J-0.0123
G3 X1.0001 Y0.3344 I-0.029 J-0.014
G3 X0.9816 Y0.3413 I-0.0177 J-0.0193
G3 X0.9615 Y0.3327 I-0.0007 J-0.0261
G3 X0.9535 Y0.3191 I0.0316 J-0.0278
G3 X0.9483 Y0.2962 I0.0914 J-0.0328
G3 X0.947 Y0.2727 I0.2025 J-0.0225
G3 X0.9478 Y0.2514 I0.2747 J-0.0008
G3 X0.9498 Y0.2352 I0.1655 J0.0123
G3 X0.9507 Y0.2308 I0.0984 J0.0171
G0 Z0.125
G0 X1.0553 Y0.2414
G0 Z0.0425
G1 F4.0 Z-0.021
G2 F8.0 X1.0549 Y0.2451 I0.1559 J0.0159
G2 X1.0537 Y0.2748 I0.3315 J0.0284
G2 X1.057 Y0.3074 I0.1487 J0.0013
G2 X1.0693 Y0.3377 I0.0917 J-0.0195
G2 X1.088 Y0.3559 I0.0452 J-0.0279
G2 X1.1133 Y0.362 I0.0243 J-0.045
G2 X1.137 Y0.3574 I0.0011 J-0.0569
G2 X1.1554 Y0.3417 I-0.0186 J-0.0406
G2 X1.1632 Y0.3252 I-0.0508 J-0.0339
G2 X1.1683 Y0.2983 I-0.1316 J-0.0391
G2 X1.1696 Y0.2709 I-0.2732 J-0.0262
G2 X1.1666 Y0.2357 I-0.1925 J-0.0016
G2 X1.1548 Y0.2025 I-0.1013 J0.0172
G2 X1.1367 Y0.1839 I-0.0444 J0.0251
G2 X1.1116 Y0.1776 I-0.0241 J0.043
G2 X1.0874 Y0.1822 I-0.0011 J0.0595
G2 X1.0684 Y0.1977 I0.019 J0.0428
G2 X1.06 Y0.2158 I0.0495 J0.0337
G2 X1.0553 Y0.2414 I0.1511 J0.0415
G0 Z0.125
G0 X1.0796 Y0.2443
G0 Z0.0425
G1 F4.0 Z-0.021
G3 F8.0 X1.0809 Y0.2352 I0.1648 J0.0194
G3 X1.0838 Y0.223 I0.0984 J0.0171
G3 X1.0926 Y0.2062 I0.0448 J0.0126
G3 X1.1099 Y0.1983 I0.0169 J0.0143
G3 X1.1257 Y0.2025 I0.0007 J0.0295
G3 X1.1366 Y0.2148 I-0.0168 J0.0258
G3 X1.1414 Y0.2287 I-0.0536 J0.0262
G3 X1.1444 Y0.2505 I-0.1463 J0.0314
G3 X1.1451 Y0.2725 I-0.3032 J0.0211
G3 X1.1446 Y0.2935 I-0.3481 J0.0011
G3 X1.1418 Y0.3143 I-0.124 J-0.0057
G3 X1.138 Y0.3251 I-0.0516 J-0.0123
G3 X1.1312 Y0.3344 I-0.029 J-0.014
G3 X1.1127 Y0.3413 I-0.0177 J-0.0193
G3 X1.0926 Y0.3327 I-0.0007 J-0.0261
G3 X1.0846 Y0.3191 I0.0316 J-0.0278
G3 X1.0794 Y0.2962 I0.0914 J-0.0328
G3 X1.0781 Y0.2727 I0.2025 J-0.0225
G3 X1.0789 Y0.2514 I0.2747 J-0.0008
G3 X1.0796 Y0.2443 I0.1655 J0.0123
G0 Z0.125
G0 X1.1854 Y0.1849
G0 Z0.0425
G1 F4.0 Z-0.021
G1 F8.0 X1.2415 Y0.2707
G3 X1.2533 Y0.2924 I-0.1204 J0.08
G3 X1.2574 Y0.3042 I-0.0739 J0.032
G3 X1.259 Y0.3165 I-0.0488 J0.0128
G3 X1.2574 Y0.3271 I-0.0312 J0.0006
G3 X1.2466 Y0.3385 I-0.0182 J-0.0063
G3 X1.2311 Y0.3413 I-0.0144 J-0.0362
G3 X1.2125 Y0.336 I-0.0001 J-0.0352
G3 X1.2 Y0.3229 I0.0153 J-0.0273
G1 X1.1842 Y0.3359
G2 X1.2004 Y0.3549 I0.0331 J-0.0118
G2 X1.2147 Y0.3604 I0.025 J-0.0436
G2 X1.2299 Y0.362 I0.0147 J-0.0673
G2 X1.251 Y0.3595 I0.0009 J-0.0832
G2 X1.2701 Y0.35 I-0.012 J-0.0482
G2 X1.2814 Y0.335 I-0.0235 J-0.0292
G2 X1.2847 Y0.3165 I-0.0455 J-0.0177
G2 X1.2828 Y0.3028 I-0.0551 J0.0007
G2 X1.2755 Y0.2836 I-0.1005 J0.0273
G2 X1.2654 Y0.2657 I-0.1708 J0.0842
G1 X1.2252 Y0.202
G1 X1.2953
G1 Y0.18
G1 X1.1854
G1 Y0.1849
G0 Z0.125
G0 X1.2605 Y0.48
G0 Z0.0425
G1 F4.0 Z-0.021
G1 F8.0 Y0.6436
G1 X1.2881
G1 Y0.6255
G2 X1.3137 Y0.6422 I0.0791 J-0.0933
G2 X1.3411 Y0.6482 I0.0271 J-0.0581
G2 X1.3557 Y0.6466 I0.0005 J-0.0647
G2 X1.3694 Y0.6411 I-0.0102 J-0.0452
G2 X1.3868 Y0.6217 I-0.022 J-0.0372
G2 X1.4013 Y0.6328 I0.1174 J-0.1383
G2 X1.4173 Y0.6419 I0.0594 J-0.0857
G2 X1.4467 Y0.6482 I0.029 J-0.0636
G2 X1.4685 Y0.6447 I0.0011 J-0.063
G2 X1.4864 Y0.6318 I-0.0133 J-0.0372
G2 X1.4966 Y0.6101 I-0.0449 J-0.0345
G2 X1.4993 Y0.5862 I-0.0966 J-0.0228
G1 Y0.48
G1 X1.4718
G1 Y0.5732
G3 X1.4707 Y0.5935 I-0.196 J0.0003
G3 X1.4668 Y0.6092 I-0.0429 J-0.0025
G3 X1.4571 Y0.6187 I-0.0197 J-0.0103
G3 X1.4482 Y0.6213 I-0.0126 J-0.0264
G3 X1.4389 Y0.6219 I-0.0088 J-0.0633
G3 X1.4158 Y0.6161 I0.0006 J-0.0509
G3 X1.3927 Y0.6014 I0.062 J-0.1235
G2 X1.3934 Y0.5935 I-0.1239 J-0.0155
G2 X1.3937 Y0.5847 I-0.1318 J-0.0088
G1 Y0.48
G1 X1.3661
G1 Y0.5732
G3 X1.3651 Y0.5937 I-0.195 J0.0005
G3 X1.3612 Y0.6093 I-0.0429 J-0.0025
G3 X1.3515 Y0.6187 I-0.019 J-0.0099
G3 X1.3426 Y0.6213 I-0.0126 J-0.0264
G3 X1.3333 Y0.6219 I-0.0088 J-0.0633
G3 X1.3106 Y0.6164 I0.0006 J-0.0516
G3 X1.2881 Y0.6022 I0.0614 J-0.1225
G1 Y0.48
G1 X1.2605
G0 Z0.125
G0 X1.6037 Y1.5
G0 Z0.0425
G1 F4.0 Z-0.021
G1 F8.0 Y1.5078
G1 X1.6934 Y1.6451
G3 X1.7124 Y1.6798 I-0.1926 J0.1279
G3 X1.7188 Y1.6986 I-0.1183 J0.0512
G3 X1.7215 Y1.7184 I-0.078 J0.0205
G3 X1.7188 Y1.7353 I-0.0499 J0.0009
G3 X1.7016 Y1.7536 I-0.0291 J-0.0101
G3 X1.6768 Y1.758 I-0.023 J-0.0579
G3 X1.6471 Y1.7496 I-0.0001 J-0.0563
G3 X1.627 Y1.7287 I0.0244 J-0.0437
G1 X1.6018 Y1.7494
G2 X1.6277 Y1.7799 I0.053 J-0.0189
G2 X1.6505 Y1.7887 I0.04 J-0.0698
G2 X1.6748 Y1.7912 I0.0235 J-0.1078
G2 X1.7087 Y1.7872 I0.0015 J-0.1331
G2 X1.7393 Y1.7721 I-0.0192 J-0.0771
G2 X1.7572 Y1.748 I-0.0375 J-0.0467
G2 X1.7625 Y1.7184 I-0.0728 J-0.0283
G2 X1.7595 Y1.6966 I-0.0881 J0.0011
G2 X1.7478 Y1.6658 I-0.1608 J0.0436
G2 X1.7316 Y1.6371 I-0.2732 J0.1347
G1 X1.6674 Y1.5352
G1 X1.7795
G1 Y1.5
G1 X1.6037
G0 Z0.125
M5
M30
