( Made using CamBam - http://www.cambam.co.uk )
( 005-boron-from-cambam 12/21/2014 10:25:08 PM )
( T0 : 0.0313 )
G20 G90 G91.1 G64 G40
G0 Z0.125
( T0 : 0.0313 )
T0 M6
( Pocket5 )
G17
M3 S10000
G0 X0.8156 Y0.2733
G0 Z0.0625
G1 F8.0 Z-0.02
G1 F16.0 Y0.2926
G0 Z0.125
G0 X0.8781 Y0.3164
G0 Z0.0625
G1 F8.0 Z-0.02
G1 F16.0 Y0.3256
G0 Z0.125
G0 Y0.2211
G0 Z0.0625
G1 F8.0 Z-0.02
G1 F16.0 Y0.2485
G0 Z0.125
G0 X0.8656 Y0.2253
G0 Z0.0625
G1 F8.0 Z-0.02
G1 F16.0 Y0.2358
G0 Z0.125
G0 X1.1406 Y0.2708
G0 Z0.0625
G1 F8.0 Z-0.02
G1 F16.0 Y0.2808
G0 Z0.125
G0 X1.1281 Y0.2201
G0 Z0.0625
G1 F8.0 Z-0.02
G1 F16.0 Y0.3259
G0 Z0.125
G0 X1.1156 Y0.2231
G0 Z0.0625
G1 F8.0 Z-0.02
G1 F16.0 Y0.3249
G0 Z0.125
G0 X1.1656 Y0.539
G0 Z0.0625
G1 F8.0 Z-0.02
G1 F16.0 Y0.5921
G0 Z0.125
G0 X1.1531 Y0.5297
G0 Z0.0625
G1 F8.0 Z-0.02
G1 F16.0 Y0.6015
G0 Z0.125
G0 X1.1406 Y0.5291
G0 Z0.0625
G1 F8.0 Z-0.02
G1 F16.0 Y0.602
G0 Z0.125
G0 X1.1281 Y0.5367
G0 Z0.0625
G1 F8.0 Z-0.02
G1 F16.0 Y0.5944
G0 Z0.125
G0 X1.2781 Y0.6083
G0 Z0.0625
G1 F8.0 Z-0.02
G1 F16.0 Y0.6087
G1 F8.0 X1.2656 Y0.5969
G1 F16.0 Y0.6281
G0 Z0.125
G0 X1.3906 Y0.6379
G0 Z0.0625
G1 F8.0 Z-0.02
G1 F16.0 Y0.6613
G0 Z0.125
G0 X1.3781 Y0.6379
G0 Z0.0625
G1 F8.0 Z-0.02
G1 F16.0 Y0.6613
G0 Z0.125
G0 X1.3656 Y0.638
G0 Z0.0625
G1 F8.0 Z-0.02
G1 F16.0 Y0.6612
G0 Z0.125
G0 X1.3531 Y0.6384
G0 Z0.0625
G1 F8.0 Z-0.02
G1 F16.0 Y0.6609
G0 Z0.125
G0 X1.3406 Y0.6418
G0 Z0.0625
G1 F8.0 Z-0.02
G1 F16.0 Y0.6584
G0 Z0.125
G0 X1.3906 Y0.5354
G0 Z0.0625
G1 F8.0 Z-0.02
G1 F16.0 Y0.5673
G0 Z0.125
G0 X1.3781 Y0.5354
G0 Z0.0625
G1 F8.0 Z-0.02
G1 F16.0 Y0.5673
G0 Z0.125
G0 X1.3656 Y0.5354
G0 Z0.0625
G1 F8.0 Z-0.02
G1 F16.0 Y0.5673
G0 Z0.125
G0 X1.3531 Y0.5356
G0 Z0.0625
G1 F8.0 Z-0.02
G1 F16.0 Y0.5667
G0 Z0.125
G0 X1.3406 Y0.5365
G0 Z0.0625
G1 F8.0 Z-0.02
G1 F16.0 Y0.5654
G0 Z0.125
G0 X0.9031 Y0.6256
G0 Z0.0625
G1 F8.0 Z-0.02
G1 F16.0 Y0.6282
G0 Z0.125
G0 X0.8406 Y0.5506
G0 Z0.0625
G1 F8.0 Z-0.02
G1 F16.0 Y0.5805
G0 Z0.125
G0 X0.8281 Y0.5319
G0 Z0.0625
G1 F8.0 Z-0.02
G1 F16.0 Y0.5992
G0 Z0.125
G0 X0.8156 Y0.5287
G0 Z0.0625
G1 F8.0 Z-0.02
G1 F16.0 Y0.6025
G0 Z0.125
G0 X0.8031 Y0.5323
G0 Z0.0625
G1 F8.0 Z-0.02
G1 F16.0 Y0.5989
G0 Z0.125
G0 X0.7906 Y0.5545
G0 Z0.0625
G1 F8.0 Z-0.02
G1 F16.0 Y0.5769
G0 Z0.125
G0 X1.0406 Y0.9104
G0 Z0.0625
G1 F8.0 Z-0.02
G1 F16.0 Y1.1121
G0 Z0.125
G0 Y1.1879
G0 Z0.0625
G1 F8.0 Z-0.02
G1 F16.0 Y1.3714
G0 Z0.125
G0 X1.0281 Y1.1879
G0 Z0.0625
G1 F8.0 Z-0.02
G1 F16.0 Y1.3722
G0 Z0.125
G0 X1.0156 Y1.1879
G0 Z0.0625
G1 F8.0 Z-0.02
G1 F16.0 Y1.3726
G0 Z0.125
G0 X1.0031 Y1.1879
G0 Z0.0625
G1 F8.0 Z-0.02
G1 F16.0 Y1.3727
G0 Z0.125
G0 X0.9906 Y1.1879
G0 Z0.0625
G1 F8.0 Z-0.02
G1 F16.0 Y1.3726
G0 Z0.125
G0 X0.9781 Y1.1879
G0 Z0.0625
G1 F8.0 Z-0.02
G1 F16.0 Y1.3721
G0 Z0.125
G0 X0.9656 Y1.1879
G0 Z0.0625
G1 F8.0 Z-0.02
G1 F16.0 Y1.3712
G0 Z0.125
G0 X0.9531 Y1.1886
G0 Z0.0625
G1 F8.0 Z-0.02
G1 F16.0 Y1.37
G0 Z0.125
G0 X0.9406 Y1.1908
G0 Z0.0625
G1 F8.0 Z-0.02
G1 F16.0 Y1.3683
G0 Z0.125
G0 X0.9281 Y1.1948
G0 Z0.0625
G1 F8.0 Z-0.02
G1 F16.0 Y1.3653
G0 Z0.125
G0 X0.9156 Y1.2014
G0 Z0.0625
G1 F8.0 Z-0.02
G1 F16.0 Y1.3602
G0 Z0.125
G0 X0.9031 Y1.2121
G0 Z0.0625
G1 F8.0 Z-0.02
G1 F16.0 Y1.3515
G0 Z0.125
G0 X0.8906 Y1.2326
G0 Z0.0625
G1 F8.0 Z-0.02
G1 F16.0 Y1.335
G0 Z0.125
G0 X0.8281 Y1.157
G0 Z0.0625
G1 F8.0 Z-0.02
G1 F16.0 Y1.1599
G1 F8.0 X0.8156 Y1.1522
G1 F16.0 Y1.1668
G0 Z0.125
G0 X0.8031 Y1.1464
G0 Z0.0625
G1 F8.0 Z-0.02
G1 F16.0 Y1.1752
G0 Z0.125
G0 X0.7906 Y1.1394
G0 Z0.0625
G1 F8.0 Z-0.02
G1 F16.0 Y1.1855
G0 Z0.125
G0 X0.7781 Y1.1312
G0 Z0.0625
G1 F8.0 Z-0.02
G1 F16.0 Y1.1984
G0 Z0.125
G0 X0.7656 Y1.1216
G0 Z0.0625
G1 F8.0 Z-0.02
G1 F16.0 Y1.2155
G0 Z0.125
G0 X0.7531 Y1.1099
G0 Z0.0625
G1 F8.0 Z-0.02
G1 F16.0 Y1.2416
G0 Z0.125
G0 X1.0281 Y0.9102
G0 Z0.0625
G1 F8.0 Z-0.02
G1 F16.0 Y1.1121
G0 Z0.125
G0 X1.0156 Y0.9102
G0 Z0.0625
G1 F8.0 Z-0.02
G1 F16.0 Y1.1121
G0 Z0.125
G0 X1.0031 Y0.9102
G0 Z0.0625
G1 F8.0 Z-0.02
G1 F16.0 Y1.1121
G0 Z0.125
G0 X0.9906 Y0.9102
G0 Z0.0625
G1 F8.0 Z-0.02
G1 F16.0 Y1.1121
G0 Z0.125
G0 X0.9781 Y0.9102
G0 Z0.0625
G1 F8.0 Z-0.02
G1 F16.0 Y1.1121
G0 Z0.125
G0 X0.9656 Y0.9102
G0 Z0.0625
G1 F8.0 Z-0.02
G1 F16.0 Y1.1121
G0 Z0.125
G0 X0.9531 Y0.9103
G0 Z0.0625
G1 F8.0 Z-0.02
G1 F16.0 Y1.1121
G0 Z0.125
G0 X0.9406 Y0.9113
G0 Z0.0625
G1 F8.0 Z-0.02
G1 F16.0 Y1.1112
G0 Z0.125
G0 X0.9281 Y0.913
G0 Z0.0625
G1 F8.0 Z-0.02
G1 F16.0 Y1.1091
G0 Z0.125
G0 X0.9156 Y0.9156
G0 Z0.0625
G1 F8.0 Z-0.02
G1 F16.0 Y1.1058
G0 Z0.125
G0 X0.9031 Y0.9196
G0 Z0.0625
G1 F8.0 Z-0.02
G1 F16.0 Y1.1006
G0 Z0.125
G0 X0.8906 Y0.9261
G0 Z0.0625
G1 F8.0 Z-0.02
G1 F16.0 Y1.0927
G0 Z0.125
G0 X0.8781 Y0.9357
G0 Z0.0625
G1 F8.0 Z-0.02
G1 F16.0 Y1.0812
G0 Z0.125
G0 X0.8656 Y0.9531
G0 Z0.0625
G1 F8.0 Z-0.02
G1 F16.0 Y1.0629
G0 Z0.125
G0 X0.3281 Y1.7042
G0 Z0.0625
G1 F8.0 Z-0.02
G1 F16.0 Y1.7207
G1 F8.0 X0.3156 Y1.7044
G1 F16.0 Y1.7207
G1 F8.0 X0.3031 Y1.7035
G1 F16.0 Y1.7207
G0 Z0.125
G0 X0.2906 Y1.7014
G0 Z0.0625
G1 F8.0 Z-0.02
G1 F16.0 Y1.7207
G0 Z0.125
G0 X0.2781 Y1.6979
G0 Z0.0625
G1 F8.0 Z-0.02
G1 F16.0 Y1.7207
G0 Z0.125
G0 X0.2656 Y1.6927
G0 Z0.0625
G1 F8.0 Z-0.02
G1 F16.0 Y1.7207
G0 Z0.125
G0 X0.2531 Y1.6849
G0 Z0.0625
G1 F8.0 Z-0.02
G1 F16.0 Y1.7207
G0 Z0.125
G0 X0.2406 Y1.6738
G0 Z0.0625
G1 F8.0 Z-0.02
G1 F16.0 Y1.7208
G0 Z0.125
G0 X0.2281 Y1.6569
G0 Z0.0625
G1 F8.0 Z-0.02
G1 F16.0 Y1.7292
G0 Z0.125
G0 X1.8594 Y0.1406
G0 Z0.0625
G1 F8.0 Z-0.02
G1 F16.0 Y1.8594
G0 Z0.125
G0 X1.8531 Y0.1406
G0 Z0.0625
G1 F8.0 Z-0.02
G1 F16.0 Y1.8594
G0 Z0.125
G0 X1.8406 Y0.1406
G0 Z0.0625
G1 F8.0 Z-0.02
G1 F16.0 Y1.8594
G0 Z0.125
G0 X1.8281 Y0.1406
G0 Z0.0625
G1 F8.0 Z-0.02
G1 F16.0 Y1.8594
G0 Z0.125
G0 X1.8156 Y0.1406
G0 Z0.0625
G1 F8.0 Z-0.02
G1 F16.0 Y1.8594
G0 Z0.125
G0 X1.8031 Y0.1406
G0 Z0.0625
G1 F8.0 Z-0.02
G1 F16.0 Y1.8594
G0 Z0.125
G0 X1.7906 Y0.1406
G0 Z0.0625
G1 F8.0 Z-0.02
G1 F16.0 Y1.8594
G0 Z0.125
G0 X1.7781 Y0.1406
G0 Z0.0625
G1 F8.0 Z-0.02
G1 F16.0 Y1.8594
G0 Z0.125
G0 X1.7656 Y0.1406
G0 Z0.0625
G1 F8.0 Z-0.02
G1 F16.0 Y1.8594
G0 Z0.125
G0 X1.7531 Y0.1406
G0 Z0.0625
G1 F8.0 Z-0.02
G1 F16.0 Y1.8594
G0 Z0.125
G0 X1.7406 Y0.1406
G0 Z0.0625
G1 F8.0 Z-0.02
G1 F16.0 Y1.8594
G0 Z0.125
G0 X1.7281 Y0.1406
G0 Z0.0625
G1 F8.0 Z-0.02
G1 F16.0 Y1.8594
G0 Z0.125
G0 X1.7156 Y0.1406
G0 Z0.0625
G1 F8.0 Z-0.02
G1 F16.0 Y1.8594
G0 Z0.125
G0 X1.7031 Y0.1406
G0 Z0.0625
G1 F8.0 Z-0.02
G1 F16.0 Y1.8594
G0 Z0.125
G0 X1.6906 Y0.1406
G0 Z0.0625
G1 F8.0 Z-0.02
G1 F16.0 Y1.8594
G0 Z0.125
G0 X1.6781 Y0.1406
G0 Z0.0625
G1 F8.0 Z-0.02
G1 F16.0 Y1.8594
G0 Z0.125
G0 X1.6656 Y0.1406
G0 Z0.0625
G1 F8.0 Z-0.02
G1 F16.0 Y1.8594
G0 Z0.125
G0 X1.6531 Y0.1406
G0 Z0.0625
G1 F8.0 Z-0.02
G1 F16.0 Y1.8594
G0 Z0.125
G0 X1.6406 Y0.1406
G0 Z0.0625
G1 F8.0 Z-0.02
G1 F16.0 Y1.8594
G0 Z0.125
G0 X1.6281 Y0.1406
G0 Z0.0625
G1 F8.0 Z-0.02
G1 F16.0 Y1.8594
G0 Z0.125
G0 X1.6156 Y0.1406
G0 Z0.0625
G1 F8.0 Z-0.02
G1 F16.0 Y1.8594
G0 Z0.125
G0 X1.6031 Y0.1406
G0 Z0.0625
G1 F8.0 Z-0.02
G1 F16.0 Y1.8594
G0 Z0.125
G0 X1.5906 Y0.1406
G0 Z0.0625
G1 F8.0 Z-0.02
G1 F16.0 Y1.8594
G0 Z0.125
G0 X1.5781 Y0.1406
G0 Z0.0625
G1 F8.0 Z-0.02
G1 F16.0 Y1.8594
G0 Z0.125
G0 X1.5656 Y0.1406
G0 Z0.0625
G1 F8.0 Z-0.02
G1 F16.0 Y1.8594
G0 Z0.125
G0 X1.5531 Y0.1406
G0 Z0.0625
G1 F8.0 Z-0.02
G1 F16.0 Y1.8594
G0 Z0.125
G0 X1.5406 Y0.1406
G0 Z0.0625
G1 F8.0 Z-0.02
G1 F16.0 Y1.8594
G0 Z0.125
G0 X1.5281 Y0.1406
G0 Z0.0625
G1 F8.0 Z-0.02
G1 F16.0 Y1.8594
G0 Z0.125
G0 X1.5156 Y0.1406
G0 Z0.0625
G1 F8.0 Z-0.02
G1 F16.0 Y1.8594
G0 Z0.125
G0 X1.5031 Y0.1406
G0 Z0.0625
G1 F8.0 Z-0.02
G1 F16.0 Y1.8594
G0 Z0.125
G0 X1.4906 Y0.1406
G0 Z0.0625
G1 F8.0 Z-0.02
G1 F16.0 Y1.8594
G0 Z0.125
G0 X1.4781 Y0.1406
G0 Z0.0625
G1 F8.0 Z-0.02
G1 F16.0 Y1.8594
G0 Z0.125
G0 X1.4656 Y0.7313
G0 Z0.0625
G1 F8.0 Z-0.02
G1 F16.0 Y1.8594
G0 Z0.125
G0 X1.4531 Y0.7318
G0 Z0.0625
G1 F8.0 Z-0.02
G1 F16.0 Y1.8594
G0 Z0.125
G0 X1.4406 Y0.7318
G0 Z0.0625
G1 F8.0 Z-0.02
G1 F16.0 Y1.8594
G0 Z0.125
G0 X1.4281 Y0.7318
G0 Z0.0625
G1 F8.0 Z-0.02
G1 F16.0 Y1.8594
G0 Z0.125
G0 X1.4156 Y0.7318
G0 Z0.0625
G1 F8.0 Z-0.02
G1 F16.0 Y1.8594
G0 Z0.125
G0 X1.4031 Y0.7318
G0 Z0.0625
G1 F8.0 Z-0.02
G1 F16.0 Y1.8594
G0 Z0.125
G0 X1.3906 Y0.7318
G0 Z0.0625
G1 F8.0 Z-0.02
G1 F16.0 Y1.8594
G0 Z0.125
G0 X1.3781 Y0.7318
G0 Z0.0625
G1 F8.0 Z-0.02
G1 F16.0 Y1.8594
G0 Z0.125
G0 X1.3656 Y0.7318
G0 Z0.0625
G1 F8.0 Z-0.02
G1 F16.0 Y1.8594
G0 Z0.125
G0 X1.3531 Y0.7317
G0 Z0.0625
G1 F8.0 Z-0.02
G1 F16.0 Y1.8594
G0 Z0.125
G0 X1.3406 Y0.7312
G0 Z0.0625
G1 F8.0 Z-0.02
G1 F16.0 Y1.8594
G0 Z0.125
G0 X1.3281 Y0.73
G0 Z0.0625
G1 F8.0 Z-0.02
G1 F16.0 Y1.8594
G0 Z0.125
G0 X1.3156 Y0.7277
G0 Z0.0625
G1 F8.0 Z-0.02
G1 F16.0 Y1.8594
G0 Z0.125
G0 X1.3031 Y0.7233
G0 Z0.0625
G1 F8.0 Z-0.02
G1 F16.0 Y1.8594
G0 Z0.125
G0 X1.2906 Y0.7161
G0 Z0.0625
G1 F8.0 Z-0.02
G1 F16.0 Y1.8594
G0 Z0.125
G0 X1.2781 Y0.7048
G0 Z0.0625
G1 F8.0 Z-0.02
G1 F16.0 Y1.8594
G0 Z0.125
G0 X1.2656 Y1.4396
G0 Z0.0625
G1 F8.0 Z-0.02
G1 F16.0 Y1.8594
G0 Z0.125
G0 X1.2531 Y1.4476
G0 Z0.0625
G1 F8.0 Z-0.02
G1 F16.0 Y1.8594
G0 Z0.125
G0 X1.2406 Y1.4477
G0 Z0.0625
G1 F8.0 Z-0.02
G1 F16.0 Y1.8594
G0 Z0.125
G0 X1.2281 Y1.4477
G0 Z0.0625
G1 F8.0 Z-0.02
G1 F16.0 Y1.8594
G0 Z0.125
G0 X1.2156 Y1.4477
G0 Z0.0625
G1 F8.0 Z-0.02
G1 F16.0 Y1.8594
G0 Z0.125
G0 X1.2031 Y1.4477
G0 Z0.0625
G1 F8.0 Z-0.02
G1 F16.0 Y1.8594
G0 Z0.125
G0 X1.1906 Y1.4477
G0 Z0.0625
G1 F8.0 Z-0.02
G1 F16.0 Y1.8594
G0 Z0.125
G0 X1.1781 Y1.4477
G0 Z0.0625
G1 F8.0 Z-0.02
G1 F16.0 Y1.8594
G0 Z0.125
G0 X1.1656 Y1.4477
G0 Z0.0625
G1 F8.0 Z-0.02
G1 F16.0 Y1.8594
G0 Z0.125
G0 X1.1531 Y1.4477
G0 Z0.0625
G1 F8.0 Z-0.02
G1 F16.0 Y1.8594
G0 Z0.125
G0 X1.1406 Y1.4477
G0 Z0.0625
G1 F8.0 Z-0.02
G1 F16.0 Y1.8594
G0 Z0.125
G0 X1.1281 Y1.4477
G0 Z0.0625
G1 F8.0 Z-0.02
G1 F16.0 Y1.8594
G0 Z0.125
G0 X1.1156 Y1.4477
G0 Z0.0625
G1 F8.0 Z-0.02
G1 F16.0 Y1.8594
G0 Z0.125
G0 X1.1031 Y1.4477
G0 Z0.0625
G1 F8.0 Z-0.02
G1 F16.0 Y1.8594
G0 Z0.125
G0 X1.0906 Y1.4477
G0 Z0.0625
G1 F8.0 Z-0.02
G1 F16.0 Y1.8594
G0 Z0.125
G0 X1.0781 Y1.4477
G0 Z0.0625
G1 F8.0 Z-0.02
G1 F16.0 Y1.8594
G0 Z0.125
G0 X1.0656 Y1.4477
G0 Z0.0625
G1 F8.0 Z-0.02
G1 F16.0 Y1.8594
G0 Z0.125
G0 X1.0531 Y1.4477
G0 Z0.0625
G1 F8.0 Z-0.02
G1 F16.0 Y1.8594
G0 Z0.125
G0 X1.0406 Y1.4477
G0 Z0.0625
G1 F8.0 Z-0.02
G1 F16.0 Y1.8594
G0 Z0.125
G0 X1.0281 Y1.4477
G0 Z0.0625
G1 F8.0 Z-0.02
G1 F16.0 Y1.8594
G0 Z0.125
G0 X1.0156 Y1.4477
G0 Z0.0625
G1 F8.0 Z-0.02
G1 F16.0 Y1.8594
G0 Z0.125
G0 X1.0031 Y1.4477
G0 Z0.0625
G1 F8.0 Z-0.02
G1 F16.0 Y1.8594
G0 Z0.125
G0 X0.9906 Y1.4477
G0 Z0.0625
G1 F8.0 Z-0.02
G1 F16.0 Y1.8594
G0 Z0.125
G0 X0.9781 Y1.4477
G0 Z0.0625
G1 F8.0 Z-0.02
G1 F16.0 Y1.8594
G0 Z0.125
G0 X0.9656 Y1.4477
G0 Z0.0625
G1 F8.0 Z-0.02
G1 F16.0 Y1.8594
G0 Z0.125
G0 X0.9531 Y1.4477
G0 Z0.0625
G1 F8.0 Z-0.02
G1 F16.0 Y1.8594
G0 Z0.125
G0 X0.9406 Y1.4476
G0 Z0.0625
G1 F8.0 Z-0.02
G1 F16.0 Y1.8594
G0 Z0.125
G0 X0.9281 Y1.4472
G0 Z0.0625
G1 F8.0 Z-0.02
G1 F16.0 Y1.8594
G0 Z0.125
G0 X0.9156 Y1.4462
G0 Z0.0625
G1 F8.0 Z-0.02
G1 F16.0 Y1.8594
G0 Z0.125
G0 X0.9031 Y1.4448
G0 Z0.0625
G1 F8.0 Z-0.02
G1 F16.0 Y1.8594
G0 Z0.125
G0 X0.8906 Y1.4428
G0 Z0.0625
G1 F8.0 Z-0.02
G1 F16.0 Y1.8594
G0 Z0.125
G0 X0.8781 Y1.4403
G0 Z0.0625
G1 F8.0 Z-0.02
G1 F16.0 Y1.8594
G0 Z0.125
G0 X0.8656 Y1.4372
G0 Z0.0625
G1 F8.0 Z-0.02
G1 F16.0 Y1.8594
G0 Z0.125
G0 X0.8531 Y1.4332
G0 Z0.0625
G1 F8.0 Z-0.02
G1 F16.0 Y1.8594
G0 Z0.125
G0 X0.8406 Y1.4282
G0 Z0.0625
G1 F8.0 Z-0.02
G1 F16.0 Y1.8594
G0 Z0.125
G0 X0.8281 Y1.422
G0 Z0.0625
G1 F8.0 Z-0.02
G1 F16.0 Y1.8594
G0 Z0.125
G0 X0.8156 Y1.4146
G0 Z0.0625
G1 F8.0 Z-0.02
G1 F16.0 Y1.8594
G0 Z0.125
G0 X0.8031 Y1.4058
G0 Z0.0625
G1 F8.0 Z-0.02
G1 F16.0 Y1.8594
G0 Z0.125
G0 X0.7906 Y1.3951
G0 Z0.0625
G1 F8.0 Z-0.02
G1 F16.0 Y1.8594
G0 Z0.125
G0 X0.7781 Y1.3818
G0 Z0.0625
G1 F8.0 Z-0.02
G1 F16.0 Y1.8594
G0 Z0.125
G0 X0.7656 Y1.3644
G0 Z0.0625
G1 F8.0 Z-0.02
G1 F16.0 Y1.8594
G0 Z0.125
G0 X0.7531 Y1.3379
G0 Z0.0625
G1 F8.0 Z-0.02
G1 F16.0 Y1.8594
G0 Z0.125
G0 X0.7406 Y1.0949
G0 Z0.0625
G1 F8.0 Z-0.02
G1 F16.0 Y1.8594
G0 Z0.125
G0 X0.7281 Y1.0738
G0 Z0.0625
G1 F8.0 Z-0.02
G1 F16.0 Y1.8594
G0 Z0.125
G0 X0.7156 Y1.0318
G0 Z0.0625
G1 F8.0 Z-0.02
G1 F16.0 Y1.8594
G0 Z0.125
G0 X1.2656 Y0.9021
G0 Z0.0625
G1 F8.0 Z-0.02
G1 F16.0 Y1.3799
G0 Z0.125
G0 X1.2531 Y0.9101
G0 Z0.0625
G1 F8.0 Z-0.02
G1 F16.0 Y1.3719
G0 Z0.125
G0 X1.2406 Y0.9102
G0 Z0.0625
G1 F8.0 Z-0.02
G1 F16.0 Y1.3719
G0 Z0.125
G0 X1.2281 Y0.9102
G0 Z0.0625
G1 F8.0 Z-0.02
G1 F16.0 Y1.3719
G0 Z0.125
G0 X1.2156 Y0.9102
G0 Z0.0625
G1 F8.0 Z-0.02
G1 F16.0 Y1.3719
G0 Z0.125
G0 X1.2031 Y0.9102
G0 Z0.0625
G1 F8.0 Z-0.02
G1 F16.0 Y1.3719
G0 Z0.125
G0 X1.1906 Y0.9104
G0 Z0.0625
G1 F8.0 Z-0.02
G1 F16.0 Y1.3717
G0 Z0.125
G0 X1.2656 Y0.6855
G0 Z0.0625
G1 F8.0 Z-0.02
G1 F16.0 Y0.8424
G0 Z0.125
G0 X1.2531 Y0.5763
G0 Z0.0625
G1 F8.0 Z-0.02
G1 F16.0 Y0.8344
G0 Z0.125
G0 X1.2406 Y0.6113
G0 Z0.0625
G1 F8.0 Z-0.02
G1 F16.0 Y0.8344
G0 Z0.125
G0 X1.2281 Y0.6328
G0 Z0.0625
G1 F8.0 Z-0.02
G1 F16.0 Y0.8344
G0 Z0.125
G0 X1.2156 Y0.6461
G0 Z0.0625
G1 F8.0 Z-0.02
G1 F16.0 Y0.8344
G0 Z0.125
G0 X1.2031 Y0.6553
G0 Z0.0625
G1 F8.0 Z-0.02
G1 F16.0 Y0.8344
G0 Z0.125
G0 X1.1906 Y0.6617
G0 Z0.0625
G1 F8.0 Z-0.02
G1 F16.0 Y0.8344
G0 Z0.125
G0 X1.1781 Y0.6662
G0 Z0.0625
G1 F8.0 Z-0.02
G1 F16.0 Y0.8344
G0 Z0.125
G0 X1.1656 Y0.6691
G0 Z0.0625
G1 F8.0 Z-0.02
G1 F16.0 Y0.8344
G0 Z0.125
G0 X1.1531 Y0.6705
G0 Z0.0625
G1 F8.0 Z-0.02
G1 F16.0 Y0.8344
G0 Z0.125
G0 X1.1406 Y0.6705
G0 Z0.0625
G1 F8.0 Z-0.02
G1 F16.0 Y0.8344
G0 Z0.125
G0 X1.1281 Y0.6693
G0 Z0.0625
G1 F8.0 Z-0.02
G1 F16.0 Y0.8344
G0 Z0.125
G0 X1.1156 Y0.6667
G0 Z0.0625
G1 F8.0 Z-0.02
G1 F16.0 Y0.8344
G0 Z0.125
G0 X1.1031 Y0.6624
G0 Z0.0625
G1 F8.0 Z-0.02
G1 F16.0 Y0.8344
G0 Z0.125
G0 X1.0906 Y0.656
G0 Z0.0625
G1 F8.0 Z-0.02
G1 F16.0 Y0.8344
G0 Z0.125
G0 X1.0781 Y0.647
G0 Z0.0625
G1 F8.0 Z-0.02
G1 F16.0 Y0.8344
G0 Z0.125
G0 X1.0656 Y0.6345
G0 Z0.0625
G1 F8.0 Z-0.02
G1 F16.0 Y0.8344
G0 Z0.125
G0 X1.0531 Y0.6155
G0 Z0.0625
G1 F8.0 Z-0.02
G1 F16.0 Y0.8344
G0 Z0.125
G0 X1.4656 Y0.1406
G0 Z0.0625
G1 F8.0 Z-0.02
G1 F16.0 Y0.4649
G0 Z0.125
G0 X1.4531 Y0.1406
G0 Z0.0625
G1 F8.0 Z-0.02
G1 F16.0 Y0.4644
G0 Z0.125
G0 X1.4406 Y0.1406
G0 Z0.0625
G1 F8.0 Z-0.02
G1 F16.0 Y0.4644
G0 Z0.125
G0 X1.4281 Y0.1406
G0 Z0.0625
G1 F8.0 Z-0.02
G1 F16.0 Y0.4644
G0 Z0.125
G0 X1.4156 Y0.1406
G0 Z0.0625
G1 F8.0 Z-0.02
G1 F16.0 Y0.4644
G0 Z0.125
G0 X1.4031 Y0.1406
G0 Z0.0625
G1 F8.0 Z-0.02
G1 F16.0 Y0.4644
G0 Z0.125
G0 X1.3906 Y0.1406
G0 Z0.0625
G1 F8.0 Z-0.02
G1 F16.0 Y0.4644
G0 Z0.125
G0 X1.3781 Y0.1406
G0 Z0.0625
G1 F8.0 Z-0.02
G1 F16.0 Y0.4644
G0 Z0.125
G0 X1.3656 Y0.1406
G0 Z0.0625
G1 F8.0 Z-0.02
G1 F16.0 Y0.4645
G0 Z0.125
G0 X1.3531 Y0.1406
G0 Z0.0625
G1 F8.0 Z-0.02
G1 F16.0 Y0.4647
G0 Z0.125
G0 X1.3406 Y0.1406
G0 Z0.0625
G1 F8.0 Z-0.02
G1 F16.0 Y0.465
G0 Z0.125
G0 X1.3281 Y0.335
G0 Z0.0625
G1 F8.0 Z-0.02
G1 F16.0 Y0.4656
G0 Z0.125
G0 X1.3156 Y0.3419
G0 Z0.0625
G1 F8.0 Z-0.02
G1 F16.0 Y0.4669
G0 Z0.125
G0 X1.3031 Y0.3494
G0 Z0.0625
G1 F8.0 Z-0.02
G1 F16.0 Y0.47
G0 Z0.125
G0 X1.2906 Y0.3586
G0 Z0.0625
G1 F8.0 Z-0.02
G1 F16.0 Y0.4753
G0 Z0.125
G0 X1.2781 Y0.3702
G0 Z0.0625
G1 F8.0 Z-0.02
G1 F16.0 Y0.4835
G0 Z0.125
G0 X1.2656 Y0.3815
G0 Z0.0625
G1 F8.0 Z-0.02
G1 F16.0 Y0.4965
G0 Z0.125
G0 X1.2531 Y0.3824
G0 Z0.0625
G1 F8.0 Z-0.02
G1 F16.0 Y0.5197
G0 Z0.125
G0 X1.2406 Y0.3809
G0 Z0.0625
G1 F8.0 Z-0.02
G1 F16.0 Y0.5183
G0 Z0.125
G0 X1.3281 Y0.1406
G0 Z0.0625
G1 F8.0 Z-0.02
G1 F16.0 Y0.2794
G0 Z0.125
G0 X1.3156 Y0.1406
G0 Z0.0625
G1 F8.0 Z-0.02
G1 F16.0 Y0.2759
G0 Z0.125
G0 X1.3031 Y0.1406
G0 Z0.0625
G1 F8.0 Z-0.02
G1 F16.0 Y0.2821
G0 Z0.125
G0 X1.2906 Y0.1406
G0 Z0.0625
G1 F8.0 Z-0.02
G1 F16.0 Y0.1684
G0 Z0.125
G0 X1.2781 Y0.1406
G0 Z0.0625
G1 F8.0 Z-0.02
G1 F16.0 Y0.1644
G0 Z0.125
G0 X1.2656 Y0.1406
G0 Z0.0625
G1 F8.0 Z-0.02
G1 F16.0 Y0.1644
G0 Z0.125
G0 X1.2531 Y0.1406
G0 Z0.0625
G1 F8.0 Z-0.02
G1 F16.0 Y0.1644
G0 Z0.125
G0 X1.2406 Y0.1406
G0 Z0.0625
G1 F8.0 Z-0.02
G1 F16.0 Y0.1658
G0 Z0.125
G0 X1.2281 Y0.1406
G0 Z0.0625
G1 F8.0 Z-0.02
G1 F16.0 Y0.4972
G0 Z0.125
G0 X1.2156 Y0.1406
G0 Z0.0625
G1 F8.0 Z-0.02
G1 F16.0 Y0.4844
G0 Z0.125
G0 X1.2031 Y0.3092
G0 Z0.0625
G1 F8.0 Z-0.02
G1 F16.0 Y0.4757
G0 Z0.125
G0 X1.1906 Y0.3428
G0 Z0.0625
G1 F8.0 Z-0.02
G1 F16.0 Y0.4695
G0 Z0.125
G0 X1.1781 Y0.3604
G0 Z0.0625
G1 F8.0 Z-0.02
G1 F16.0 Y0.4651
G0 Z0.125
G0 X1.1656 Y0.3715
G0 Z0.0625
G1 F8.0 Z-0.02
G1 F16.0 Y0.4622
G0 Z0.125
G0 X1.1531 Y0.3786
G0 Z0.0625
G1 F8.0 Z-0.02
G1 F16.0 Y0.4607
G0 Z0.125
G0 X1.1406 Y0.3828
G0 Z0.0625
G1 F8.0 Z-0.02
G1 F16.0 Y0.4606
G0 Z0.125
G0 X1.1281 Y0.3848
G0 Z0.0625
G1 F8.0 Z-0.02
G1 F16.0 Y0.4618
G0 Z0.125
G0 X1.1156 Y0.3847
G0 Z0.0625
G1 F8.0 Z-0.02
G1 F16.0 Y0.4645
G0 Z0.125
G0 X1.1031 Y0.3829
G0 Z0.0625
G1 F8.0 Z-0.02
G1 F16.0 Y0.4689
G0 Z0.125
G0 X1.0906 Y0.3791
G0 Z0.0625
G1 F8.0 Z-0.02
G1 F16.0 Y0.4754
G0 Z0.125
G0 X1.0781 Y0.3722
G0 Z0.0625
G1 F8.0 Z-0.02
G1 F16.0 Y0.4845
G0 Z0.125
G0 X1.0656 Y0.3608
G0 Z0.0625
G1 F8.0 Z-0.02
G1 F16.0 Y0.4972
G0 Z0.125
G0 X1.0531 Y0.3407
G0 Z0.0625
G1 F8.0 Z-0.02
G1 F16.0 Y0.5163
G0 Z0.125
G0 X1.2031 Y0.1406
G0 Z0.0625
G1 F8.0 Z-0.02
G1 F16.0 Y0.237
G0 Z0.125
G0 X1.1906 Y0.1406
G0 Z0.0625
G1 F8.0 Z-0.02
G1 F16.0 Y0.1987
G0 Z0.125
G0 X1.1781 Y0.1406
G0 Z0.0625
G1 F8.0 Z-0.02
G1 F16.0 Y0.182
G0 Z0.125
G0 X1.1656 Y0.1406
G0 Z0.0625
G1 F8.0 Z-0.02
G1 F16.0 Y0.1723
G0 Z0.125
G0 X1.1531 Y0.1406
G0 Z0.0625
G1 F8.0 Z-0.02
G1 F16.0 Y0.1665
G0 Z0.125
G0 X1.1406 Y0.1406
G0 Z0.0625
G1 F8.0 Z-0.02
G1 F16.0 Y0.1632
G0 Z0.125
G0 X1.1281 Y0.1406
G0 Z0.0625
G1 F8.0 Z-0.02
G1 F16.0 Y0.1619
G0 Z0.125
G0 X1.1156 Y0.1406
G0 Z0.0625
G1 F8.0 Z-0.02
G1 F16.0 Y0.1622
G0 Z0.125
G0 X1.1031 Y0.1406
G0 Z0.0625
G1 F8.0 Z-0.02
G1 F16.0 Y0.1645
G0 Z0.125
G0 X1.0906 Y0.1406
G0 Z0.0625
G1 F8.0 Z-0.02
G1 F16.0 Y0.1693
G0 Z0.125
G0 X1.0781 Y0.1406
G0 Z0.0625
G1 F8.0 Z-0.02
G1 F16.0 Y0.1772
G0 Z0.125
G0 X1.0656 Y0.1406
G0 Z0.0625
G1 F8.0 Z-0.02
G1 F16.0 Y0.1899
G0 Z0.125
G0 X1.0531 Y0.1406
G0 Z0.0625
G1 F8.0 Z-0.02
G1 F16.0 Y0.2115
G1 F8.0 X1.0406 Y0.204
G1 F16.0 Y0.8344
G0 Z0.125
G0 X1.0281 Y0.6662
G0 Z0.0625
G1 F8.0 Z-0.02
G1 F16.0 Y0.8344
G0 Z0.125
G0 X1.0156 Y0.6667
G0 Z0.0625
G1 F8.0 Z-0.02
G1 F16.0 Y0.8344
G0 Z0.125
G0 X1.0031 Y0.6667
G0 Z0.0625
G1 F8.0 Z-0.02
G1 F16.0 Y0.8344
G0 Z0.125
G0 X0.9906 Y0.6667
G0 Z0.0625
G1 F8.0 Z-0.02
G1 F16.0 Y0.8344
G0 Z0.125
G0 X0.9781 Y0.6663
G0 Z0.0625
G1 F8.0 Z-0.02
G1 F16.0 Y0.8344
G0 Z0.125
G0 X0.9656 Y0.6657
G0 Z0.0625
G1 F8.0 Z-0.02
G1 F16.0 Y0.8344
G0 Z0.125
G0 X0.9531 Y0.6697
G0 Z0.0625
G1 F8.0 Z-0.02
G1 F16.0 Y0.8343
G0 Z0.125
G0 X0.9406 Y0.6706
G0 Z0.0625
G1 F8.0 Z-0.02
G1 F16.0 Y0.8345
G0 Z0.125
G0 X0.9281 Y0.669
G0 Z0.0625
G1 F8.0 Z-0.02
G1 F16.0 Y0.8352
G0 Z0.125
G0 X0.9156 Y0.6651
G0 Z0.0625
G1 F8.0 Z-0.02
G1 F16.0 Y0.8364
G0 Z0.125
G0 X0.9031 Y0.6584
G0 Z0.0625
G1 F8.0 Z-0.02
G1 F16.0 Y0.838
G0 Z0.125
G0 X0.8906 Y0.6414
G0 Z0.0625
G1 F8.0 Z-0.02
G1 F16.0 Y0.8401
G0 Z0.125
G0 X0.8781 Y0.652
G0 Z0.0625
G1 F8.0 Z-0.02
G1 F16.0 Y0.8427
G0 Z0.125
G0 X0.8656 Y0.6594
G0 Z0.0625
G1 F8.0 Z-0.02
G1 F16.0 Y0.8459
G0 Z0.125
G0 X0.8531 Y0.6646
G0 Z0.0625
G1 F8.0 Z-0.02
G1 F16.0 Y0.8495
G0 Z0.125
G0 X0.8406 Y0.6681
G0 Z0.0625
G1 F8.0 Z-0.02
G1 F16.0 Y0.8537
G0 Z0.125
G0 X0.8281 Y0.6701
G0 Z0.0625
G1 F8.0 Z-0.02
G1 F16.0 Y0.8584
G0 Z0.125
G0 X0.8156 Y0.6706
G0 Z0.0625
G1 F8.0 Z-0.02
G1 F16.0 Y0.8639
G0 Z0.125
G0 X0.8031 Y0.67
G0 Z0.0625
G1 F8.0 Z-0.02
G1 F16.0 Y0.8703
G0 Z0.125
G0 X0.7906 Y0.6679
G0 Z0.0625
G1 F8.0 Z-0.02
G1 F16.0 Y0.8775
G0 Z0.125
G0 X0.7781 Y0.6644
G0 Z0.0625
G1 F8.0 Z-0.02
G1 F16.0 Y0.8857
G0 Z0.125
G0 X0.7656 Y0.6589
G0 Z0.0625
G1 F8.0 Z-0.02
G1 F16.0 Y0.8955
G0 Z0.125
G0 X0.7531 Y0.651
G0 Z0.0625
G1 F8.0 Z-0.02
G1 F16.0 Y0.9077
G0 Z0.125
G0 X0.7406 Y0.64
G0 Z0.0625
G1 F8.0 Z-0.02
G1 F16.0 Y0.9232
G0 Z0.125
G0 X0.7281 Y0.6243
G0 Z0.0625
G1 F8.0 Z-0.02
G1 F16.0 Y0.9453
G0 Z0.125
G0 X0.7156 Y0.5956
G0 Z0.0625
G1 F8.0 Z-0.02
G1 F16.0 Y0.9893
G0 Z0.125
G0 X0.7031 Y0.6626
G0 Z0.0625
G1 F8.0 Z-0.02
G1 F16.0 Y1.8594
G0 Z0.125
G0 X0.6906 Y0.6667
G0 Z0.0625
G1 F8.0 Z-0.02
G1 F16.0 Y1.8594
G0 Z0.125
G0 X0.6781 Y0.6667
G0 Z0.0625
G1 F8.0 Z-0.02
G1 F16.0 Y1.8594
G0 Z0.125
G0 X0.6656 Y0.6667
G0 Z0.0625
G1 F8.0 Z-0.02
G1 F16.0 Y1.8594
G0 Z0.125
G0 X0.6531 Y0.6667
G0 Z0.0625
G1 F8.0 Z-0.02
G1 F16.0 Y1.8594
G0 Z0.125
G0 X0.6406 Y0.6633
G0 Z0.0625
G1 F8.0 Z-0.02
G1 F16.0 Y1.8594
G0 Z0.125
G0 X0.6281 Y0.6636
G0 Z0.0625
G1 F8.0 Z-0.02
G1 F16.0 Y1.8594
G0 Z0.125
G0 X0.6156 Y0.668
G0 Z0.0625
G1 F8.0 Z-0.02
G1 F16.0 Y1.8594
G0 Z0.125
G0 X0.6031 Y0.6702
G0 Z0.0625
G1 F8.0 Z-0.02
G1 F16.0 Y1.8594
G0 Z0.125
G0 X0.5906 Y0.6706
G0 Z0.0625
G1 F8.0 Z-0.02
G1 F16.0 Y1.8594
G0 Z0.125
G0 X0.5781 Y0.6692
G0 Z0.0625
G1 F8.0 Z-0.02
G1 F16.0 Y1.8594
G0 Z0.125
G0 X0.5656 Y0.6659
G0 Z0.0625
G1 F8.0 Z-0.02
G1 F16.0 Y1.8594
G0 Z0.125
G0 X0.5531 Y0.6603
G0 Z0.0625
G1 F8.0 Z-0.02
G1 F16.0 Y1.8594
G0 Z0.125
G0 X0.5406 Y0.651
G0 Z0.0625
G1 F8.0 Z-0.02
G1 F16.0 Y1.8594
G0 Z0.125
G0 X0.5281 Y0.633
G0 Z0.0625
G1 F8.0 Z-0.02
G1 F16.0 Y1.8594
G0 Z0.125
G0 X1.0281 Y0.2257
G0 Z0.0625
G1 F8.0 Z-0.02
G1 F16.0 Y0.4649
G0 Z0.125
G0 X1.0156 Y0.233
G0 Z0.0625
G1 F8.0 Z-0.02
G1 F16.0 Y0.4644
G0 Z0.125
G0 X1.0031 Y0.2351
G0 Z0.0625
G1 F8.0 Z-0.02
G1 F16.0 Y0.4644
G0 Z0.125
G0 X0.9906 Y0.2332
G0 Z0.0625
G1 F8.0 Z-0.02
G1 F16.0 Y0.4644
G0 Z0.125
G0 X0.9781 Y0.2262
G0 Z0.0625
G1 F8.0 Z-0.02
G1 F16.0 Y0.4644
G0 Z0.125
G0 X0.9656 Y0.2068
G0 Z0.0625
G1 F8.0 Z-0.02
G1 F16.0 Y0.4716
G0 Z0.125
G0 X1.0406 Y0.1406
G0 Z0.0625
G1 F8.0 Z-0.02
G1 F16.0 Y0.1893
G0 Z0.125
G0 X1.0281 Y0.1406
G0 Z0.0625
G1 F8.0 Z-0.02
G1 F16.0 Y0.1675
G0 Z0.125
G0 X1.0156 Y0.1406
G0 Z0.0625
G1 F8.0 Z-0.02
G1 F16.0 Y0.1601
G0 Z0.125
G0 X1.0031 Y0.1406
G0 Z0.0625
G1 F8.0 Z-0.02
G1 F16.0 Y0.158
G1 F8.0 X0.9906 Y0.1406
G1 F16.0 Y0.1599
G0 Z0.125
G0 X0.9781 Y0.1406
G0 Z0.0625
G1 F8.0 Z-0.02
G1 F16.0 Y0.167
G0 Z0.125
G0 X0.9656 Y0.1406
G0 Z0.0625
G1 F8.0 Z-0.02
G1 F16.0 Y0.1864
G0 Z0.125
G0 X0.9531 Y0.1406
G0 Z0.0625
G1 F8.0 Z-0.02
G1 F16.0 Y0.5979
G0 Z0.125
G0 X0.9406 Y0.3494
G0 Z0.0625
G1 F8.0 Z-0.02
G1 F16.0 Y0.5966
G0 Z0.125
G0 X0.9281 Y0.3664
G0 Z0.0625
G1 F8.0 Z-0.02
G1 F16.0 Y0.5914
G0 Z0.125
G0 X0.9156 Y0.3755
G0 Z0.0625
G1 F8.0 Z-0.02
G1 F16.0 Y0.5329
G0 Z0.125
G0 X0.9031 Y0.381
G0 Z0.0625
G1 F8.0 Z-0.02
G1 F16.0 Y0.5042
G0 Z0.125
G0 X0.8906 Y0.3839
G0 Z0.0625
G1 F8.0 Z-0.02
G1 F16.0 Y0.4889
G0 Z0.125
G0 X0.8781 Y0.3849
G0 Z0.0625
G1 F8.0 Z-0.02
G1 F16.0 Y0.4788
G0 Z0.125
G0 X0.8656 Y0.3844
G0 Z0.0625
G1 F8.0 Z-0.02
G1 F16.0 Y0.4718
G0 Z0.125
G0 X0.8531 Y0.3821
G0 Z0.0625
G1 F8.0 Z-0.02
G1 F16.0 Y0.4667
G0 Z0.125
G0 X0.8406 Y0.3777
G0 Z0.0625
G1 F8.0 Z-0.02
G1 F16.0 Y0.4632
G0 Z0.125
G0 X0.8281 Y0.3698
G0 Z0.0625
G1 F8.0 Z-0.02
G1 F16.0 Y0.4612
G0 Z0.125
G0 X0.8156 Y0.3557
G0 Z0.0625
G1 F8.0 Z-0.02
G1 F16.0 Y0.4605
G0 Z0.125
G0 X0.8031 Y0.2514
G0 Z0.0625
G1 F8.0 Z-0.02
G1 F16.0 Y0.4611
G0 Z0.125
G0 X0.9406 Y0.2717
G0 Z0.0625
G1 F8.0 Z-0.02
G1 F16.0 Y0.2976
G0 Z0.125
G0 Y0.1406
G0 Z0.0625
G1 F8.0 Z-0.02
G1 F16.0 Y0.1897
G0 Z0.125
G0 X0.9281 Y0.1406
G0 Z0.0625
G1 F8.0 Z-0.02
G1 F16.0 Y0.1768
G0 Z0.125
G0 X0.9156 Y0.1406
G0 Z0.0625
G1 F8.0 Z-0.02
G1 F16.0 Y0.1693
G0 Z0.125
G0 X0.9031 Y0.1406
G0 Z0.0625
G1 F8.0 Z-0.02
G1 F16.0 Y0.1649
G0 Z0.125
G0 X0.8906 Y0.1406
G0 Z0.0625
G1 F8.0 Z-0.02
G1 F16.0 Y0.1626
G0 Z0.125
G0 X0.8781 Y0.1406
G0 Z0.0625
G1 F8.0 Z-0.02
G1 F16.0 Y0.1618
G0 Z0.125
G0 X0.8656 Y0.1406
G0 Z0.0625
G1 F8.0 Z-0.02
G1 F16.0 Y0.1624
G0 Z0.125
G0 X0.8531 Y0.1406
G0 Z0.0625
G1 F8.0 Z-0.02
G1 F16.0 Y0.1645
G0 Z0.125
G0 X0.8406 Y0.1406
G0 Z0.0625
G1 F8.0 Z-0.02
G1 F16.0 Y0.1685
G0 Z0.125
G0 X0.8281 Y0.1406
G0 Z0.0625
G1 F8.0 Z-0.02
G1 F16.0 Y0.1754
G0 Z0.125
G0 X0.8156 Y0.1406
G0 Z0.0625
G1 F8.0 Z-0.02
G1 F16.0 Y0.1865
G0 Z0.125
G0 X0.8031 Y0.1406
G0 Z0.0625
G1 F8.0 Z-0.02
G1 F16.0 Y0.2095
G0 Z0.125
G0 X0.7906 Y0.1406
G0 Z0.0625
G1 F8.0 Z-0.02
G1 F16.0 Y0.4632
G0 Z0.125
G0 X0.7781 Y0.3323
G0 Z0.0625
G1 F8.0 Z-0.02
G1 F16.0 Y0.4669
G0 Z0.125
G0 X0.7656 Y0.3405
G0 Z0.0625
G1 F8.0 Z-0.02
G1 F16.0 Y0.4725
G0 Z0.125
G0 X0.7531 Y0.3478
G0 Z0.0625
G1 F8.0 Z-0.02
G1 F16.0 Y0.4805
G0 Z0.125
G0 X0.7406 Y0.3566
G0 Z0.0625
G1 F8.0 Z-0.02
G1 F16.0 Y0.4916
G0 Z0.125
G0 X0.7281 Y0.3676
G0 Z0.0625
G1 F8.0 Z-0.02
G1 F16.0 Y0.5075
G0 Z0.125
G0 X0.7156 Y0.3803
G0 Z0.0625
G1 F8.0 Z-0.02
G1 F16.0 Y0.5364
G0 Z0.125
G0 X0.7031 Y0.3824
G0 Z0.0625
G1 F8.0 Z-0.02
G1 F16.0 Y0.4686
G0 Z0.125
G0 X0.6906 Y0.3818
G0 Z0.0625
G1 F8.0 Z-0.02
G1 F16.0 Y0.4644
G0 Z0.125
G0 X0.7781 Y0.1406
G0 Z0.0625
G1 F8.0 Z-0.02
G1 F16.0 Y0.2821
G0 Z0.125
G0 X0.7656 Y0.1406
G0 Z0.0625
G1 F8.0 Z-0.02
G1 F16.0 Y0.2757
G0 Z0.125
G0 X0.7531 Y0.1406
G0 Z0.0625
G1 F8.0 Z-0.02
G1 F16.0 Y0.2806
G0 Z0.125
G0 X0.7406 Y0.1406
G0 Z0.0625
G1 F8.0 Z-0.02
G1 F16.0 Y0.1712
G0 Z0.125
G0 X0.7281 Y0.1406
G0 Z0.0625
G1 F8.0 Z-0.02
G1 F16.0 Y0.1644
G0 Z0.125
G0 X0.7156 Y0.1406
G0 Z0.0625
G1 F8.0 Z-0.02
G1 F16.0 Y0.1644
G0 Z0.125
G0 X0.7031 Y0.1406
G0 Z0.0625
G1 F8.0 Z-0.02
G1 F16.0 Y0.1644
G0 Z0.125
G0 X0.6906 Y0.1406
G0 Z0.0625
G1 F8.0 Z-0.02
G1 F16.0 Y0.1649
G0 Z0.125
G0 X0.6781 Y0.1406
G0 Z0.0625
G1 F8.0 Z-0.02
G1 F16.0 Y0.4644
G0 Z0.125
G0 X0.6656 Y0.1406
G0 Z0.0625
G1 F8.0 Z-0.02
G1 F16.0 Y0.4644
G0 Z0.125
G0 X0.6531 Y0.1406
G0 Z0.0625
G1 F8.0 Z-0.02
G1 F16.0 Y0.4644
G0 Z0.125
G0 X0.6406 Y0.1406
G0 Z0.0625
G1 F8.0 Z-0.02
G1 F16.0 Y0.4658
G0 Z0.125
G0 X0.6281 Y0.1406
G0 Z0.0625
G1 F8.0 Z-0.02
G1 F16.0 Y0.5941
G0 Z0.125
G0 X0.6156 Y0.1406
G0 Z0.0625
G1 F8.0 Z-0.02
G1 F16.0 Y0.604
G0 Z0.125
G0 X0.6031 Y0.1406
G0 Z0.0625
G1 F8.0 Z-0.02
G1 F16.0 Y0.603
G0 Z0.125
G0 X0.5906 Y0.1406
G0 Z0.0625
G1 F8.0 Z-0.02
G1 F16.0 Y0.4671
G0 Z0.125
G0 X0.5781 Y0.1406
G0 Z0.0625
G1 F8.0 Z-0.02
G1 F16.0 Y0.4644
G0 Z0.125
G0 X0.5656 Y0.1406
G0 Z0.0625
G1 F8.0 Z-0.02
G1 F16.0 Y0.4644
G0 Z0.125
G0 X0.5531 Y0.1406
G0 Z0.0625
G1 F8.0 Z-0.02
G1 F16.0 Y0.4644
G0 Z0.125
G0 X0.5406 Y0.1406
G0 Z0.0625
G1 F8.0 Z-0.02
G1 F16.0 Y0.4644
G0 Z0.125
G0 X0.5281 Y0.1406
G0 Z0.0625
G1 F8.0 Z-0.02
G1 F16.0 Y0.4668
G0 Z0.125
G0 X0.5156 Y0.1406
G0 Z0.0625
G1 F8.0 Z-0.02
G1 F16.0 Y1.8594
G0 Z0.125
G0 X0.5031 Y0.1406
G0 Z0.0625
G1 F8.0 Z-0.02
G1 F16.0 Y1.8594
G0 Z0.125
G0 X0.4906 Y0.1406
G0 Z0.0625
G1 F8.0 Z-0.02
G1 F16.0 Y1.8594
G0 Z0.125
G0 X0.4781 Y0.1406
G0 Z0.0625
G1 F8.0 Z-0.02
G1 F16.0 Y1.8594
G0 Z0.125
G0 X0.4656 Y0.1406
G0 Z0.0625
G1 F8.0 Z-0.02
G1 F16.0 Y1.8594
G0 Z0.125
G0 X0.4531 Y0.1406
G0 Z0.0625
G1 F8.0 Z-0.02
G1 F16.0 Y1.8594
G0 Z0.125
G0 X0.4406 Y0.1406
G0 Z0.0625
G1 F8.0 Z-0.02
G1 F16.0 Y1.8594
G0 Z0.125
G0 X0.4281 Y0.1406
G0 Z0.0625
G1 F8.0 Z-0.02
G1 F16.0 Y1.8594
G0 Z0.125
G0 X0.4156 Y1.7919
G0 Z0.0625
G1 F8.0 Z-0.02
G1 F16.0 Y1.8594
G0 Z0.125
G0 X0.4031 Y1.7973
G0 Z0.0625
G1 F8.0 Z-0.02
G1 F16.0 Y1.8594
G0 Z0.125
G0 X0.3906 Y1.7973
G0 Z0.0625
G1 F8.0 Z-0.02
G1 F16.0 Y1.8594
G0 Z0.125
G0 X0.3781 Y1.7973
G0 Z0.0625
G1 F8.0 Z-0.02
G1 F16.0 Y1.8594
G0 Z0.125
G0 X0.3656 Y1.7973
G0 Z0.0625
G1 F8.0 Z-0.02
G1 F16.0 Y1.8594
G0 Z0.125
G0 X0.3531 Y1.7973
G0 Z0.0625
G1 F8.0 Z-0.02
G1 F16.0 Y1.8594
G0 Z0.125
G0 X0.3406 Y1.7973
G0 Z0.0625
G1 F8.0 Z-0.02
G1 F16.0 Y1.8594
G0 Z0.125
G0 X0.3281 Y1.7973
G0 Z0.0625
G1 F8.0 Z-0.02
G1 F16.0 Y1.8594
G0 Z0.125
G0 X0.3156 Y1.7973
G0 Z0.0625
G1 F8.0 Z-0.02
G1 F16.0 Y1.8594
G0 Z0.125
G0 X0.3031 Y1.7973
G0 Z0.0625
G1 F8.0 Z-0.02
G1 F16.0 Y1.8594
G0 Z0.125
G0 X0.2906 Y1.7973
G0 Z0.0625
G1 F8.0 Z-0.02
G1 F16.0 Y1.8594
G0 Z0.125
G0 X0.2781 Y1.7973
G0 Z0.0625
G1 F8.0 Z-0.02
G1 F16.0 Y1.8594
G0 Z0.125
G0 X0.2656 Y1.7973
G0 Z0.0625
G1 F8.0 Z-0.02
G1 F16.0 Y1.8594
G0 Z0.125
G0 X0.2531 Y1.7973
G0 Z0.0625
G1 F8.0 Z-0.02
G1 F16.0 Y1.8594
G0 Z0.125
G0 X0.2406 Y1.7972
G0 Z0.0625
G1 F8.0 Z-0.02
G1 F16.0 Y1.8594
G0 Z0.125
G0 X0.2281 Y1.7888
G0 Z0.0625
G1 F8.0 Z-0.02
G1 F16.0 Y1.8594
G0 Z0.125
G0 X0.2156 Y1.6232
G0 Z0.0625
G1 F8.0 Z-0.02
G1 F16.0 Y1.8594
G0 Z0.125
G0 X0.4156 Y1.5318
G0 Z0.0625
G1 F8.0 Z-0.02
G1 F16.0 Y1.6225
G0 Z0.125
G0 X0.4031 Y1.5567
G0 Z0.0625
G1 F8.0 Z-0.02
G1 F16.0 Y1.6137
G0 Z0.125
G0 X0.3906 Y1.5623
G0 Z0.0625
G1 F8.0 Z-0.02
G1 F16.0 Y1.6056
G0 Z0.125
G0 X0.3781 Y1.5563
G0 Z0.0625
G1 F8.0 Z-0.02
G1 F16.0 Y1.6041
G0 Z0.125
G0 X0.3656 Y1.5479
G0 Z0.0625
G1 F8.0 Z-0.02
G1 F16.0 Y1.6138
G0 Z0.125
G0 X0.3531 Y1.5412
G0 Z0.0625
G1 F8.0 Z-0.02
G1 F16.0 Y1.6227
G0 Z0.125
G0 X0.3406 Y1.5373
G0 Z0.0625
G1 F8.0 Z-0.02
G1 F16.0 Y1.6272
G0 Z0.125
G0 X0.3281 Y1.5372
G0 Z0.0625
G1 F8.0 Z-0.02
G1 F16.0 Y1.6276
G0 Z0.125
G0 X0.3156 Y1.541
G0 Z0.0625
G1 F8.0 Z-0.02
G1 F16.0 Y1.6251
G0 Z0.125
G0 X0.3031 Y1.5569
G0 Z0.0625
G1 F8.0 Z-0.02
G1 F16.0 Y1.6123
G0 Z0.125
G0 X0.4156 Y0.1406
G0 Z0.0625
G1 F8.0 Z-0.02
G1 F16.0 Y1.4856
G0 Z0.125
G0 X0.4031 Y0.1406
G0 Z0.0625
G1 F8.0 Z-0.02
G1 F16.0 Y1.4776
G0 Z0.125
G0 X0.3906 Y0.1406
G0 Z0.0625
G1 F8.0 Z-0.02
G1 F16.0 Y1.4714
G0 Z0.125
G0 X0.3781 Y0.1406
G0 Z0.0625
G1 F8.0 Z-0.02
G1 F16.0 Y1.4667
G0 Z0.125
G0 X0.3656 Y0.1406
G0 Z0.0625
G1 F8.0 Z-0.02
G1 F16.0 Y1.4634
G0 Z0.125
G0 X0.3531 Y0.1406
G0 Z0.0625
G1 F8.0 Z-0.02
G1 F16.0 Y1.4613
G0 Z0.125
G0 X0.3406 Y0.1406
G0 Z0.0625
G1 F8.0 Z-0.02
G1 F16.0 Y1.4603
G0 Z0.125
G0 X0.3281 Y0.1406
G0 Z0.0625
G1 F8.0 Z-0.02
G1 F16.0 Y1.4604
G0 Z0.125
G0 X0.3156 Y0.1406
G0 Z0.0625
G1 F8.0 Z-0.02
G1 F16.0 Y1.4612
G0 Z0.125
G0 X0.3031 Y0.1406
G0 Z0.0625
G1 F8.0 Z-0.02
G1 F16.0 Y1.463
G0 Z0.125
G0 X0.2906 Y0.1406
G0 Z0.0625
G1 F8.0 Z-0.02
G1 F16.0 Y1.4659
G0 Z0.125
G0 X0.2781 Y0.1406
G0 Z0.0625
G1 F8.0 Z-0.02
G1 F16.0 Y1.4702
G0 Z0.125
G0 X0.2656 Y0.1406
G0 Z0.0625
G1 F8.0 Z-0.02
G1 F16.0 Y1.4762
G0 Z0.125
G0 X0.2531 Y0.1406
G0 Z0.0625
G1 F8.0 Z-0.02
G1 F16.0 Y1.4848
G0 Z0.125
G0 X0.2406 Y0.1406
G0 Z0.0625
G1 F8.0 Z-0.02
G1 F16.0 Y1.497
G0 Z0.125
G0 X0.2281 Y0.1406
G0 Z0.0625
G1 F8.0 Z-0.02
G1 F16.0 Y1.5156
G0 Z0.125
G0 X0.2156 Y0.1406
G0 Z0.0625
G1 F8.0 Z-0.02
G1 F16.0 Y1.5534
G0 Z0.125
G0 X0.2031 Y0.1406
G0 Z0.0625
G1 F8.0 Z-0.02
G1 F16.0 Y1.8594
G0 Z0.125
G0 X0.1906 Y0.1406
G0 Z0.0625
G1 F8.0 Z-0.02
G1 F16.0 Y1.8594
G0 Z0.125
G0 X0.1781 Y0.1406
G0 Z0.0625
G1 F8.0 Z-0.02
G1 F16.0 Y1.8594
G0 Z0.125
G0 X0.1656 Y0.1406
G0 Z0.0625
G1 F8.0 Z-0.02
G1 F16.0 Y1.8594
G0 Z0.125
G0 X0.1531 Y0.1406
G0 Z0.0625
G1 F8.0 Z-0.02
G1 F16.0 Y1.8594
G0 Z0.125
G0 X0.1406 Y0.1406
G0 Z0.0625
G1 F8.0 Z-0.02
G1 F16.0 Y1.8594
( Engrave1 )
S1000
G0 Z0.125
G0 X0.5365 Y0.48
G0 Z0.0425
G1 F10.0 Z-0.04
G1 F12.0 X0.5818
G1 Y0.5673
G2 X0.5822 Y0.5853 I0.3481 J0.0011
G2 X0.5829 Y0.5943 I0.1449 J-0.0072
G2 X0.5847 Y0.6031 I0.0436 J-0.0042
G2 X0.5942 Y0.6158 I0.0237 J-0.0078
G2 X0.6098 Y0.6203 I0.0149 J-0.0221
G2 X0.6309 Y0.6139 I0.0005 J-0.0363
G2 X0.6438 Y0.5968 I-0.0184 J-0.0273
G2 X0.6467 Y0.5773 I-0.0886 J-0.0229
G2 X0.6472 Y0.5575 I-0.3281 J-0.0186
G1 Y0.48
G1 X0.6925
G1 Y0.6511
G1 X0.6504
G1 Y0.626
G3 X0.6258 Y0.6474 I-0.0615 J-0.0459
G3 X0.594 Y0.655 I-0.031 J-0.0593
G3 X0.5666 Y0.6495 I-0.0008 J-0.0672
G3 X0.5479 Y0.6358 I0.0164 J-0.042
G3 X0.5391 Y0.6168 I0.0384 J-0.0295
G3 X0.537 Y0.6016 I0.0926 J-0.0206
G3 X0.5365 Y0.5863 I0.2236 J-0.0146
G1 Y0.48
G0 Z0.125
G0 X0.6947 Y0.3667
G0 Z0.0425
G1 F10.0 Z-0.04
G1 F12.0 Y0.18
G1 X0.7277
G1 Y0.3141
G1 X0.7655 Y0.2913
G1 Y0.3231
G2 X0.7343 Y0.3418 I0.0843 J0.1762
G2 X0.7079 Y0.3667 I0.0863 J0.1177
G1 X0.6947
G0 Z0.125
G0 X0.8238 Y0.3351
G0 Z0.0425
G1 F10.0 Z-0.04
G3 F12.0 X0.8224 Y0.3224 I0.0486 J-0.0119
G3 X0.8247 Y0.3099 I0.0373 J0.0004
G3 X0.8304 Y0.2984 I0.055 J0.0202
G3 X0.838 Y0.2885 I0.0553 J0.0346
G3 X0.8479 Y0.2808 I0.0288 J0.0268
G3 X0.8355 Y0.2722 I0.0202 J-0.0423
G3 X0.8257 Y0.2606 I0.0515 J-0.0535
G3 X0.8185 Y0.2477 I0.0533 J-0.0383
G3 X0.8154 Y0.2332 I0.0355 J-0.015
G3 X0.8191 Y0.2108 I0.0633 J-0.001
G3 X0.832 Y0.1921 I0.0437 J0.0163
G3 X0.8533 Y0.1806 I0.0363 J0.042
G3 X0.8772 Y0.1775 I0.0229 J0.0819
G3 X0.9009 Y0.1805 I0.0011 J0.086
G3 X0.9218 Y0.1918 I-0.0136 J0.05
G3 X0.934 Y0.2108 I-0.0307 J0.0333
G3 X0.9374 Y0.2332 I-0.0658 J0.0213
G3 X0.9292 Y0.2606 I-0.052 J-0.0007
G3 X0.9076 Y0.2818 I-0.0532 J-0.0325
G3 X0.9242 Y0.3 I-0.0303 J0.0444
G3 X0.9307 Y0.3226 I-0.0388 J0.0233
G3 X0.9271 Y0.3413 I-0.0473 J0.0007
G3 X0.9156 Y0.3566 I-0.0371 J-0.0161
G3 X0.8972 Y0.3664 I-0.0333 J-0.0402
G3 X0.8766 Y0.3693 I-0.0199 J-0.0676
G3 X0.8555 Y0.3666 I-0.0009 J-0.077
G3 X0.8367 Y0.3566 I0.0125 J-0.046
G3 X0.8257 Y0.3411 I0.0263 J-0.0304
G3 X0.8238 Y0.3351 I0.0467 J-0.018
G0 Z0.125
G0 X0.8192 Y0.4762
G0 Z0.0425
G1 F10.0 Z-0.04
G3 F12.0 X0.8607 Y0.4868 I-0.0033 J0.0998
G3 X0.8931 Y0.5179 I-0.032 J0.0658
G3 X0.9018 Y0.5422 I-0.0786 J0.0417
G3 X0.9042 Y0.568 I-0.1253 J0.0249
G3 X0.8931 Y0.6116 I-0.0926 J-0.0003
G3 X0.8617 Y0.6439 I-0.068 J-0.0349
G3 X0.8161 Y0.655 I-0.0444 J-0.0829
G3 X0.7816 Y0.649 I-0.0012 J-0.0955
G3 X0.7524 Y0.6297 I0.0293 J-0.076
G3 X0.7335 Y0.6004 I0.0589 J-0.0588
G3 X0.7276 Y0.566 I0.0907 J-0.0333
G3 X0.7336 Y0.5313 I0.0975 J-0.0011
G3 X0.7527 Y0.5016 I0.0796 J0.0303
G3 X0.7816 Y0.4823 I0.0594 J0.0574
G3 X0.8157 Y0.4761 I0.0331 J0.0863
G3 X0.8192 Y0.4762 I0.0001 J0.0999
G0 Z0.125
G0 X0.9788 Y0.48
G0 Z0.0425
G1 F10.0 Z-0.04
G1 F12.0 X1.0241
G1 Y0.6511
G1 X0.982
G1 Y0.6268
G3 X0.9735 Y0.6391 I-0.114 J-0.0704
G3 X0.9627 Y0.6495 I-0.0388 J-0.0293
G3 X0.943 Y0.655 I-0.0191 J-0.0307
G3 X0.9132 Y0.6465 I0.0003 J-0.0575
G1 X0.9272 Y0.607
G2 X0.9374 Y0.6122 I0.0294 J-0.0445
G2 X0.9485 Y0.6144 I0.0116 J-0.0296
G2 X0.9646 Y0.6091 I0.0007 J-0.0249
G2 X0.9713 Y0.6004 I-0.0163 J-0.0193
G2 X0.9751 Y0.5902 I-0.0521 J-0.0254
G2 X0.9773 Y0.576 I-0.0905 J-0.0215
G2 X0.9788 Y0.5329 I-0.504 J-0.0388
G1 Y0.48
G0 Z0.125
G0 X1.0669 Y0.5237
G0 Z0.0425
G1 F10.0 Z-0.04
G3 F12.0 X1.0827 Y0.5016 I0.0763 J0.0379
G3 X1.1116 Y0.4823 I0.0594 J0.0574
G3 X1.1457 Y0.4761 I0.0331 J0.0863
G3 X1.1907 Y0.4868 I0.0001 J0.0999
G3 X1.2231 Y0.5179 I-0.032 J0.0658
G3 X1.2318 Y0.5422 I-0.0786 J0.0417
G3 X1.2342 Y0.568 I-0.1253 J0.0249
G3 X1.2231 Y0.6116 I-0.0926 J-0.0003
G3 X1.1917 Y0.6439 I-0.068 J-0.0349
G3 X1.1461 Y0.655 I-0.0444 J-0.0829
G3 X1.1116 Y0.649 I-0.0012 J-0.0955
G3 X1.0824 Y0.6297 I0.0293 J-0.076
G3 X1.0635 Y0.6004 I0.0589 J-0.0588
G3 X1.0576 Y0.566 I0.0907 J-0.0333
G3 X1.0636 Y0.5313 I0.0975 J-0.0011
G3 X1.0669 Y0.5237 I0.0796 J0.0303
G0 Z0.125
G0 X1.1046 Y0.3673
G0 Z0.0425
G1 F10.0 Z-0.04
G3 F12.0 X1.0805 Y0.3539 I0.0121 J-0.0503
G3 X1.0683 Y0.3364 I0.0438 J-0.0433
G3 X1.0596 Y0.3061 I0.0995 J-0.0453
G3 X1.0574 Y0.2746 I0.2074 J-0.0302
G3 X1.061 Y0.238 I0.1711 J-0.0015
G3 X1.0749 Y0.2039 I0.0983 J0.0202
G3 X1.0959 Y0.1841 I0.0496 J0.0316
G3 X1.124 Y0.1775 I0.027 J0.0519
G3 X1.1524 Y0.183 I0.0014 J0.0684
G3 X1.1743 Y0.2018 I-0.0214 J0.047
G3 X1.1829 Y0.2198 I-0.0641 J0.0416
G3 X1.189 Y0.2489 I-0.1364 J0.0439
G3 X1.1906 Y0.2786 I-0.2614 J0.0285
G3 X1.1863 Y0.3123 I-0.1279 J0.0011
G3 X1.172 Y0.343 I-0.0938 J-0.025
G3 X1.1505 Y0.3626 I-0.052 J-0.0356
G3 X1.1223 Y0.3693 I-0.0274 J-0.0523
G3 X1.1057 Y0.3675 I-0.0005 J-0.0734
G3 X1.1046 Y0.3673 I0.011 J-0.0506
G0 Z0.125
G0 X1.2472 Y0.3667
G0 Z0.0425
G1 F10.0 Z-0.04
G1 F12.0 Y0.18
G1 X1.2802
G1 Y0.3141
G1 X1.318 Y0.2913
G1 Y0.3231
G2 X1.2868 Y0.3418 I0.0843 J0.1762
G2 X1.2604 Y0.3667 I0.0863 J0.1177
G1 X1.2472
G0 Z0.125
G0 X1.3015 Y0.4874
G0 Z0.0425
G1 F10.0 Z-0.04
G3 F12.0 X1.3236 Y0.4816 I0.0279 J0.062
G3 X1.3524 Y0.4804 I0.0337 J0.4441
G3 X1.3812 Y0.48 I0.0439 J2.3378
G1 X1.4616
G1 Y0.7162
G1 X1.3671
G3 X1.3462 Y0.7158 I-0.0011 J-0.4651
G3 X1.3254 Y0.7138 I0.0061 J-0.173
G3 X1.3008 Y0.7041 I0.009 J-0.0593
G3 X1.2825 Y0.6843 I0.034 J-0.0495
G3 X1.2753 Y0.6568 I0.0458 J-0.0268
G3 X1.2843 Y0.6263 I0.0547 J-0.0004
G3 X1.3085 Y0.6055 I0.0464 J0.0295
G3 X1.2902 Y0.5975 I0.0198 J-0.0702
G3 X1.2753 Y0.5841 I0.0293 J-0.0474
G3 X1.2637 Y0.5485 I0.0453 J-0.0345
G3 X1.2713 Y0.5171 I0.0701 J0.0003
G3 X1.2917 Y0.4927 I0.0569 J0.0271
G3 X1.3015 Y0.4874 I0.0376 J0.0566
G0 Z0.125
G0 X1.252 Y0.85
G0 Z0.0425
G1 F10.0 Z-0.04
G1 F12.0 Y0.8945
G1 X1.1977
G2 X1.1845 Y0.8953 I-0.0008 J0.1015
G2 X1.1719 Y0.8992 I0.0029 J0.0313
G2 X1.1671 Y0.9033 I0.0149 J0.0225
G2 X1.1645 Y0.909 I0.0062 J0.0063
G1 Y1.3625
G2 X1.1719 Y1.3813 I0.0233 J0.0016
G2 X1.1827 Y1.3863 I0.0153 J-0.0185
G2 X1.1945 Y1.3875 I0.0112 J-0.0535
G1 X1.252
G1 Y1.432
G1 X0.9488
G3 X0.876 Y1.4237 I-0.0034 J-0.2941
G3 X0.8102 Y1.3914 I0.0387 J-0.1619
G3 X0.7735 Y1.3465 I0.0841 J-0.106
G3 X0.7609 Y1.2898 I0.1142 J-0.0551
G3 X0.7949 Y1.2031 I0.1208 J-0.0027
G3 X0.8389 Y1.1721 I0.1039 J0.1008
G3 X0.8902 Y1.1563 I0.0881 J0.1939
G3 X0.8276 Y1.1401 I0.04 J-0.2851
G3 X0.7723 Y1.1066 I0.0635 J-0.1675
G3 X0.7301 Y1.0102 I0.0817 J-0.0932
G3 X0.7543 Y0.9309 I0.1354 J-0.002
G3 X0.79 Y0.8965 I0.1144 J0.0833
G3 X0.8336 Y0.873 I0.1384 J0.2045
G3 X0.9578 Y0.85 I0.119 J0.2952
G1 X1.252
G0 Z0.125
G0 X1.011 Y0.218
G0 Z0.0425
G1 F10.0 Z-0.04
G3 F12.0 X1.0028 Y0.2195 I-0.0079 J-0.0207
G3 X0.9867 Y0.2128 I-0.0004 J-0.0217
G3 X0.9799 Y0.1966 I0.015 J-0.0157
G3 X0.9867 Y0.1804 I0.0221 J-0.0004
G3 X1.0028 Y0.1737 I0.0157 J0.015
G3 X1.019 Y0.1804 I0.0004 J0.0221
G3 X1.0256 Y0.1966 I-0.0158 J0.0159
G3 X1.019 Y0.2128 I-0.0219 J0.0004
G3 X1.011 Y0.218 I-0.0159 J-0.0154
G0 Z0.125
G0 X0.3893 Y1.488
G0 Z0.0425
G1 F10.0 Z-0.04
G3 F12.0 X0.4123 Y1.5028 I-0.0517 J0.1057
G1 X0.3911 Y1.5467
G2 X0.3651 Y1.5296 I-0.1035 J0.1299
G2 X0.3506 Y1.5237 I-0.0407 J0.0785
G2 X0.3351 Y1.5212 I-0.0161 J0.0513
G2 X0.312 Y1.5254 I-0.0012 J0.0591
G2 X0.2887 Y1.5508 I0.0169 J0.0389
G2 X0.2835 Y1.5848 I0.0924 J0.0316
G2 X0.2856 Y1.608 I0.1122 J0.0013
G2 X0.2952 Y1.6293 I0.0481 J-0.0088
G2 X0.3132 Y1.6407 I0.0277 J-0.0238
G2 X0.3343 Y1.6434 I0.02 J-0.0708
G2 X0.361 Y1.6362 I-0.0006 J-0.0548
G2 X0.3827 Y1.619 I-0.0466 J-0.0813
G1 X0.4038 Y1.6328
G1 Y1.7817
G1 X0.242
G1 Y1.7363
G1 X0.3526
G1 Y1.6826
G3 X0.3202 Y1.6888 I-0.0305 J-0.0723
G3 X0.2834 Y1.6832 I-0.0017 J-0.1135
G3 X0.2521 Y1.6631 I0.0237 J-0.0714
G3 X0.2331 Y1.6291 I0.0616 J-0.0566
G3 X0.2281 Y1.5905 I0.1315 J-0.0368
G3 X0.2331 Y1.5464 I0.1791 J-0.0022
G3 X0.2464 Y1.5153 I0.0998 J0.0243
G3 X0.2855 Y1.4841 I0.0674 J0.0443
G3 X0.3099 Y1.4777 I0.041 J0.1072
G3 X0.3349 Y1.4759 I0.0243 J0.1638
G3 X0.376 Y1.4825 I0.0009 J0.1257
G3 X0.3893 Y1.488 I-0.0384 J0.1112
G0 Z0.125
G0 X0.125
G0 Z0.0625
G1 F10.0 Z-0.02
G1 F12.0 Y0.125
G1 X1.875
G1 Y1.875
G1 X0.125
G1 Y1.488
G0 Z0.125
G0 X0.8702 Y1.3234
G0 Z0.0425
G1 F10.0 Z-0.04
G2 F12.0 X0.8797 Y1.3477 I0.0812 J-0.0179
G2 X0.9176 Y1.3781 I0.0637 J-0.0404
G2 X0.9393 Y1.3839 I0.0383 J-0.0998
G2 X1.0063 Y1.3883 I0.0607 J-0.4163
G2 X1.0326 Y1.3877 I0.0017 J-0.4926
G2 X1.0458 Y1.3865 I-0.0094 J-0.1842
G2 X1.0586 Y1.3832 I-0.0033 J-0.039
G2 X1.0664 Y1.3656 I-0.0117 J-0.0157
G1 Y1.1723
G1 X0.9672
G2 X0.928 Y1.1782 I-0.0016 J0.1225
G2 X0.8941 Y1.1988 I0.0274 J0.0829
G2 X0.8719 Y1.2409 I0.0626 J0.0601
G2 X0.8668 Y1.2883 I0.1941 J0.0447
G2 X0.8693 Y1.3188 I0.1703 J0.0015
G2 X0.8702 Y1.3234 I0.0821 J-0.0133
G0 Z0.125
G0 X0.9201 Y1.1233
G0 Z0.0425
G1 F10.0 Z-0.04
G2 F12.0 X0.9582 Y1.1277 I0.0361 J-0.1446
G1 X1.0664
G1 Y0.9172
G2 X1.0602 Y0.8996 I-0.0226 J-0.0019
G2 X1.0472 Y0.8953 I-0.015 J0.0235
G2 X1.0336 Y0.8945 I-0.0128 J0.1061
G1 X0.9648
G2 X0.9147 Y0.8998 I-0.0027 J0.216
G2 X0.8695 Y0.9223 I0.0208 J0.0984
G2 X0.8451 Y0.963 I0.06 J0.0637
G2 X0.8391 Y1.0102 I0.1613 J0.0446
G2 X0.846 Y1.0564 I0.1434 J0.002
G2 X0.8707 Y1.0961 I0.0953 J-0.0317
G2 X0.9112 Y1.1208 I0.0718 J-0.0722
G2 X0.9201 Y1.1233 I0.0449 J-0.1421
G0 Z0.125
G0 X0.8236 Y0.6174
G0 Z0.0425
G1 F10.0 Z-0.04
G2 F12.0 X0.8457 Y0.6046 I-0.0072 J-0.0377
G2 X0.8553 Y0.5862 I-0.0339 J-0.0294
G2 X0.8578 Y0.5656 I-0.0764 J-0.0196
G2 X0.8553 Y0.545 I-0.0789 J-0.001
G2 X0.8457 Y0.5266 I-0.0435 J0.011
G2 X0.8159 Y0.513 I-0.0293 J0.0249
G2 X0.7863 Y0.5266 I-0.0006 J0.0379
G2 X0.7766 Y0.5451 I0.034 J0.0294
G2 X0.7742 Y0.5659 I0.0781 J0.0198
G2 X0.7767 Y0.5863 I0.0772 J0.001
G2 X0.7863 Y0.6046 I0.0435 J-0.0112
G2 X0.8159 Y0.6181 I0.029 J-0.0244
G2 X0.8236 Y0.6174 I0.0005 J-0.0384
G0 Z0.125
G0 X0.8717 Y0.3409
G0 Z0.0425
G1 F10.0 Z-0.04
G2 F12.0 X0.8766 Y0.3412 I0.0039 J-0.0223
G2 X0.8845 Y0.3404 I0.0004 J-0.0354
G2 X0.8946 Y0.3343 I-0.0029 J-0.0162
G2 X0.8977 Y0.3228 I-0.0163 J-0.0106
G2 X0.8953 Y0.3138 I-0.0198 J0.0003
G2 X0.8899 Y0.3062 I-0.0313 J0.0165
G2 X0.8736 Y0.2945 I-0.0332 J0.0292
G2 X0.8664 Y0.2997 I0.0107 J0.0224
G2 X0.861 Y0.3067 I0.0282 J0.0272
G2 X0.8572 Y0.3145 I0.0382 J0.0236
G2 X0.8555 Y0.3229 I0.0233 J0.0089
G2 X0.8614 Y0.3363 I0.0166 J0.0007
G2 X0.8717 Y0.3409 I0.0142 J-0.0176
G0 Z0.125
G0 X0.8802 Y0.2685
G0 Z0.0425
G1 F10.0 Z-0.04
G2 F12.0 X0.8973 Y0.2543 I-0.0262 J-0.049
G2 X0.9044 Y0.2332 I-0.0269 J-0.0208
G2 X0.8969 Y0.2134 I-0.0276 J-0.0009
G2 X0.8772 Y0.2055 I-0.0187 J0.0183
G2 X0.8663 Y0.2071 I-0.0004 J0.037
G2 X0.8565 Y0.2124 I0.0079 J0.0259
G2 X0.8484 Y0.2307 I0.0148 J0.0175
G2 X0.8518 Y0.2432 I0.026 J-0.0003
G2 X0.8644 Y0.2576 I0.0449 J-0.0263
G2 X0.8802 Y0.2685 I0.0739 J-0.0906
G0 Z0.125
G0 X1.0917 Y0.2712
G0 Z0.0425
G1 F10.0 Z-0.04
G2 F12.0 Y0.2762 I0.3274 J0.0041
G2 X1.0928 Y0.3026 I0.2619 J0.0016
G2 X1.0948 Y0.3157 I0.1216 J-0.0119
G2 X1.099 Y0.3283 I0.0517 J-0.0102
G2 X1.1229 Y0.3426 I0.0225 J-0.0104
G2 X1.1423 Y0.3344 I0.0007 J-0.0253
G2 X1.15 Y0.3213 I-0.0305 J-0.0269
G2 X1.1551 Y0.2991 I-0.0882 J-0.0317
G2 X1.1563 Y0.2764 I-0.1955 J-0.0217
G2 X1.155 Y0.2487 I-0.2709 J-0.0015
G2 X1.153 Y0.235 I-0.141 J0.0142
G2 X1.149 Y0.2216 I-0.0735 J0.0144
G2 X1.14 Y0.2089 I-0.0286 J0.0108
G2 X1.125 Y0.2041 I-0.0143 J0.0188
G2 X1.1097 Y0.208 I-0.0008 J0.0294
G2 X1.0993 Y0.2199 I0.0145 J0.0232
G2 X1.095 Y0.2335 I0.0556 J0.025
G2 X1.0923 Y0.2548 I0.1567 J0.0305
G2 X1.0917 Y0.2712 I0.3268 J0.0205
G0 Z0.125
G0 X1.1382 Y0.5137
G0 Z0.0425
G1 F10.0 Z-0.04
G2 F12.0 X1.1163 Y0.5266 I0.0071 J0.0372
G2 X1.1066 Y0.5451 I0.034 J0.0294
G2 X1.1042 Y0.5659 I0.0781 J0.0198
G2 X1.1067 Y0.5863 I0.0772 J0.001
G2 X1.1163 Y0.6046 I0.0435 J-0.0112
G2 X1.1459 Y0.6181 I0.029 J-0.0244
G2 X1.1757 Y0.6046 I0.0005 J-0.0384
G2 X1.1853 Y0.5862 I-0.0339 J-0.0294
G2 X1.1878 Y0.5656 I-0.0764 J-0.0196
G2 X1.1853 Y0.545 I-0.0789 J-0.001
G2 X1.1757 Y0.5266 I-0.0435 J0.011
G2 X1.1459 Y0.513 I-0.0293 J0.0249
G2 X1.1382 Y0.5137 I-0.0006 J0.0379
G0 Z0.125
G0 X1.3134 Y0.5443
G0 Z0.0425
G1 F10.0 Z-0.04
G2 F12.0 X1.313 Y0.5507 I0.0289 J0.005
G2 X1.3182 Y0.5688 I0.0309 J0.0009
G2 X1.3331 Y0.5796 I0.0237 J-0.0171
G2 X1.3436 Y0.5816 I0.0155 J-0.051
G2 X1.3754 Y0.583 I0.0286 J-0.3026
G1 X1.4139
G1 Y0.5198
G1 X1.3697
G2 X1.3533 Y0.52 I-0.001 J0.6044
G2 X1.337 Y0.5213 I0.0011 J0.1217
G2 X1.3198 Y0.5306 I0.0046 J0.029
G2 X1.3134 Y0.5443 I0.0225 J0.0188
G0 Z0.125
G0 X1.3399 Y0.6248
G0 Z0.0425
G1 F10.0 Z-0.04
G2 F12.0 X1.3377 Y0.6256 I0.0123 J0.0372
G2 X1.3288 Y0.6315 I0.01 J0.0249
G2 X1.3217 Y0.65 I0.018 J0.0175
G2 X1.3278 Y0.6677 I0.0255 J0.0011
G2 X1.336 Y0.6736 I0.0167 J-0.0146
G2 X1.3457 Y0.6761 I0.0135 J-0.0325
G2 X1.3661 Y0.6768 I0.0208 J-0.3058
G2 X1.3865 Y0.6769 I0.0188 J-1.7662
G1 X1.4139
G1 Y0.6223
G1 X1.3826
G2 X1.3653 Y0.6224 I-0.0016 J1.1802
G2 X1.348 Y0.6231 I0.0008 J0.2332
G2 X1.3399 Y0.6248 I0.0042 J0.039
( Profile1 )
S10000
G0 Z0.125
G0 X0.0 Y1.9844
G0 Z0.0625
G1 F4.0 Z-0.0625
G1 F8.0 X1.9844
G1 Y0.0
G0 Z0.125
G0 X0.0 Y1.9844
G0 Z0.0
G1 F4.0 Z-0.125
G1 F8.0 X1.9844
G1 Y0.0
G0 Z0.125
M5
M30
