( Made using CamBam - http://www.cambam.co.uk )
( 006-carbon-from-cambam 11/8/2013 1:42:25 PM )
( T0 : 0.0078 )
G20 G90 G91.1 G64 G40
G0 Z0.125
( T0 : 0.0078 )
T0 M6
( Engrave1 )
G17
M3 S1000
G0 X1.1589 Y1.3789
G0 Z0.0425
G1 F4.0 Z-0.021
G1 F8.0 X1.182 Y1.4305
G1 X1.2164
G1 X1.2263 Y1.2024
G1 X1.1886
G3 X1.1651 Y1.2742 I-0.546 J-0.1391
G3 X1.1274 Y1.3397 I-0.2362 J-0.0921
G3 X1.0835 Y1.3758 I-0.1102 J-0.0893
G3 X1.0282 Y1.3888 I-0.0543 J-0.1069
G3 X0.9694 Y1.3735 I-0.0014 J-0.1153
G3 X0.9253 Y1.3317 I0.0731 J-0.1212
G3 X0.9035 Y1.2856 I0.1433 J-0.096
G3 X0.8889 Y1.2108 I0.3616 J-0.1092
G3 X0.8854 Y1.1346 I0.7439 J-0.0729
G3 X0.8914 Y1.0451 I0.5996 J-0.0046
G3 X0.901 Y1.0012 I0.3259 J0.0483
G3 X0.9183 Y0.9596 I0.1893 J0.0544
G3 X0.9739 Y0.9202 I0.1298 J0.1243
G3 X1.0406 Y0.9065 I0.0655 J0.1495
G3 X1.0962 Y0.916 I0.0016 J0.1576
G3 X1.1439 Y0.946 I-0.0495 J0.1314
G3 X1.1819 Y1.0052 I-0.1149 J0.1154
G3 X1.1996 Y1.0731 I-0.3044 J0.1157
G1 X1.2395
G2 X1.2196 Y0.9879 I-0.3357 J0.0334
G2 X1.1718 Y0.9146 I-0.1869 J0.0698
G2 X1.1065 Y0.8743 I-0.1289 J0.1358
G2 X1.0308 Y0.8618 I-0.0733 J0.2094
G2 X0.9052 Y0.8962 I-0.0021 J0.2388
G2 X0.814 Y0.9948 I0.1294 J0.2112
G2 X0.7799 Y1.1357 I0.2631 J0.1382
G2 X0.8147 Y1.2877 I0.341 J0.0019
G2 X0.8527 Y1.3477 I0.2811 J-0.1361
G2 X0.9052 Y1.3954 I0.1808 J-0.1461
G2 X1.0245 Y1.4316 I0.1191 J-0.1774
G2 X1.0938 Y1.4192 I0.0004 J-0.1962
G2 X1.1589 Y1.3789 I-0.0781 J-0.1993
G0 Z0.125
G0 X1.6168 Y1.5516
G0 Z0.0425
G1 F4.0 Z-0.021
G2 F8.0 X1.6101 Y1.5768 I0.121 J0.0456
G2 X1.6066 Y1.6199 I0.2448 J0.0412
G2 X1.617 Y1.6758 I0.1616 J-0.0011
G2 X1.6434 Y1.7262 I0.22 J-0.083
G2 X1.6767 Y1.7656 I0.1829 J-0.1207
G2 X1.6975 Y1.7811 I0.0866 J-0.0944
G2 X1.7215 Y1.7912 I0.0474 J-0.0792
G1 X1.7404 Y1.7703
G3 X1.726 Y1.7611 I0.0244 J-0.0543
G3 X1.7075 Y1.7433 I0.127 J-0.1508
G3 X1.6906 Y1.724 I0.3224 J-0.2982
G3 X1.6694 Y1.6957 I0.247 J-0.2068
G3 X1.6605 Y1.6803 I0.1235 J-0.0816
G3 X1.6547 Y1.6635 I0.0561 J-0.029
G2 X1.6757 Y1.6757 I0.0363 J-0.038
G2 X1.6998 Y1.6791 I0.023 J-0.077
G2 X1.7328 Y1.6735 I0.0012 J-0.0925
G2 X1.7605 Y1.6549 I-0.0261 J-0.069
G2 X1.7784 Y1.6238 I-0.0578 J-0.054
G2 X1.7834 Y1.5883 I-0.114 J-0.034
G2 X1.7781 Y1.5522 I-0.1161 J-0.0014
G2 X1.7598 Y1.5207 I-0.0805 J0.0258
G2 X1.7008 Y1.4951 I-0.0572 J0.051
G2 X1.6782 Y1.4972 I-0.0006 J0.1183
G2 X1.6425 Y1.5134 I0.0138 J0.0778
G2 X1.624 Y1.5358 I0.0507 J0.0608
G2 X1.6168 Y1.5516 I0.1138 J0.0614
G0 Z0.125
G0 X1.6511 Y1.5617
G0 Z0.0425
G1 F4.0 Z-0.021
G3 F8.0 X1.6552 Y1.5513 I0.0597 J0.0176
G3 X1.6731 Y1.5334 I0.0355 J0.0177
G3 X1.6979 Y1.5283 I0.0233 J0.0508
G3 X1.7164 Y1.5321 I0.0007 J0.0435
G3 X1.7311 Y1.5441 I-0.0168 J0.0354
G3 X1.7407 Y1.5642 I-0.045 J0.034
G3 X1.7434 Y1.5863 I-0.0835 J0.0212
G3 X1.7406 Y1.6091 I-0.0877 J0.0009
G3 X1.7305 Y1.6297 I-0.0544 J-0.014
G3 X1.6973 Y1.6459 I-0.0324 J-0.0243
G3 X1.676 Y1.6425 I-0.0011 J-0.0619
G3 X1.6531 Y1.6206 I0.013 J-0.0365
G3 X1.6488 Y1.6053 I0.0581 J-0.0245
G3 X1.6477 Y1.5895 I0.1013 J-0.0153
G3 X1.6497 Y1.5673 I0.1103 J-0.001
G3 X1.6511 Y1.5617 I0.061 J0.0119
G0 Z0.125
G0 X1.4715 Y0.647
G0 Z0.0425
G1 F4.0 Z-0.021
G2 F8.0 X1.48 Y0.6447 I-0.0125 J-0.0637
G2 X1.4984 Y0.6322 I-0.0145 J-0.0412
G2 X1.5095 Y0.6104 I-0.0409 J-0.0345
G2 X1.5123 Y0.5862 I-0.0924 J-0.0231
G1 Y0.48
G1 X1.4848
G1 Y0.5732
G3 X1.4835 Y0.5943 I-0.1591 J0.0006
G3 X1.4786 Y0.6098 I-0.0395 J-0.0038
G3 X1.4681 Y0.6189 I-0.0188 J-0.0112
G3 X1.4502 Y0.6219 I-0.0164 J-0.0419
G3 X1.4266 Y0.6164 I0.0011 J-0.0574
G3 X1.4031 Y0.6022 I0.0498 J-0.1094
G1 Y0.48
G1 X1.3755
G1 Y0.6436
G1 X1.4031
G1 Y0.6255
G2 X1.4297 Y0.6422 I0.0723 J-0.0857
G2 X1.458 Y0.6482 I0.0284 J-0.0641
G2 X1.4715 Y0.647 I0.001 J-0.0649
G0 Z0.125
G0 X1.3274 Y0.5987
G0 Z0.0425
G1 F4.0 Z-0.021
G2 F8.0 X1.3285 Y0.5952 I-0.073 J-0.0245
G2 X1.3329 Y0.5617 I-0.114 J-0.032
G2 X1.3285 Y0.5283 I-0.1184 J-0.0014
G2 X1.3124 Y0.4986 I-0.0741 J0.021
G2 X1.2875 Y0.4809 I-0.0497 J0.0434
G2 X1.2574 Y0.4755 I-0.0289 J0.0743
G2 X1.2272 Y0.4809 I-0.0012 J0.0807
G2 X1.2022 Y0.4986 I0.0245 J0.0611
G2 X1.1862 Y0.5283 I0.0583 J0.0505
G2 X1.1819 Y0.5617 I0.1149 J0.032
G2 X1.1862 Y0.5952 I0.1192 J0.0014
G2 X1.2022 Y0.6249 I0.0743 J-0.0209
G2 X1.2272 Y0.6427 I0.0497 J-0.0431
G2 X1.2574 Y0.6482 I0.0291 J-0.0748
G2 X1.2875 Y0.6427 I0.0011 J-0.0793
G2 X1.3124 Y0.6249 I-0.025 J-0.061
G2 X1.3274 Y0.5987 I-0.058 J-0.0507
G0 Z0.125
G0 X1.301 Y0.5911
G0 Z0.0425
G1 F4.0 Z-0.021
G3 F8.0 X1.292 Y0.6089 I-0.052 J-0.0149
G3 X1.2766 Y0.6208 I-0.0312 J-0.0246
G3 X1.2574 Y0.6244 I-0.0184 J-0.0445
G3 X1.2382 Y0.6208 I-0.0008 J-0.0491
G3 X1.2226 Y0.6089 I0.0155 J-0.0364
G3 X1.2126 Y0.5863 I0.0435 J-0.0327
G3 X1.2103 Y0.5617 I0.1148 J-0.0233
G3 X1.2127 Y0.5374 I0.1107 J-0.0012
G3 X1.2227 Y0.515 I0.0553 J0.0113
G3 X1.2382 Y0.5029 I0.0315 J0.0243
G3 X1.2574 Y0.4992 I0.0185 J0.044
G3 X1.2765 Y0.5029 I0.0008 J0.0472
G3 X1.2919 Y0.5149 I-0.0161 J0.0365
G3 X1.302 Y0.5373 I-0.0443 J0.0335
G3 X1.3045 Y0.5617 I-0.1084 J0.0233
G3 X1.3021 Y0.5863 I-0.1157 J0.0013
G3 X1.301 Y0.5911 I-0.0531 J-0.0102
G0 Z0.125
G0 X1.1499 Y0.5775
G0 Z0.0425
G1 F4.0 Z-0.021
G2 F8.0 X1.1505 Y0.5631 I-0.1444 J-0.013
G2 X1.1447 Y0.5261 I-0.1096 J-0.0015
G2 X1.1291 Y0.4986 I-0.0779 J0.0257
G2 X1.1063 Y0.4812 I-0.0543 J0.0475
G2 X1.0789 Y0.4755 I-0.0266 J0.0592
G2 X1.0546 Y0.4788 I-0.0014 J0.0797
G2 X1.0341 Y0.4876 I0.0328 J0.1049
G1 X1.0323 Y0.48
G1 X1.0065
G1 Y0.7079
G1 X1.0341
G1 Y0.6265
G2 X1.0587 Y0.642 I0.0722 J-0.0872
G2 X1.088 Y0.6482 I0.0283 J-0.0618
G2 X1.1136 Y0.6427 I0.001 J-0.0587
G2 X1.1337 Y0.6259 I-0.0239 J-0.0489
G2 X1.1471 Y0.5958 I-0.0641 J-0.0467
G2 X1.1499 Y0.5775 I-0.1416 J-0.0313
G0 Z0.125
G0 X1.1216 Y0.575
G0 Z0.0425
G1 F4.0 Z-0.021
G3 F8.0 X1.1203 Y0.5852 I-0.1283 J-0.0115
G3 X1.1124 Y0.6067 I-0.0593 J-0.0094
G3 X1.0989 Y0.6186 I-0.0261 J-0.0162
G3 X1.0812 Y0.6219 I-0.0167 J-0.0395
G3 X1.0569 Y0.6167 I0.0006 J-0.0615
G3 X1.0341 Y0.6033 I0.0381 J-0.0916
G1 Y0.5096
G3 X1.0541 Y0.5023 I0.0521 J0.1117
G3 X1.0733 Y0.5002 I0.0183 J0.0804
G3 X1.0929 Y0.5036 I0.0008 J0.0531
G3 X1.1091 Y0.5152 I-0.015 J0.0381
G3 X1.1196 Y0.5376 I-0.0401 J0.0326
G3 X1.1221 Y0.5623 I-0.1092 J0.0234
G3 X1.1216 Y0.575 I-0.1288 J0.0011
G0 Z0.125
G0 X0.9806 Y0.6136
G0 Z0.0425
G1 F4.0 Z-0.021
G1 F8.0 X0.9791
G3 X0.9671 Y0.6156 I-0.0213 J-0.0885
G3 X0.9535 Y0.6164 I-0.0127 J-0.1096
G3 X0.9289 Y0.6107 I0.0001 J-0.0561
G3 X0.906 Y0.5962 I0.0476 J-0.1002
G1 Y0.48
G1 X0.8785
G1 Y0.6436
G1 X0.906
G1 Y0.6195
G2 X0.9199 Y0.6297 I0.1203 J-0.1485
G2 X0.9349 Y0.6381 I0.0561 J-0.0827
G2 X0.9605 Y0.6436 I0.0259 J-0.0573
G2 X0.9709 Y0.6432 I0.0013 J-0.0926
G2 X0.9806 Y0.6419 I-0.0179 J-0.167
G1 Y0.6136
G0 Z0.125
G0 X0.8251 Y0.5992
G0 Z0.0425
G1 F4.0 Z-0.021
G2 F8.0 X0.8255 Y0.591 I-0.0826 J-0.0077
G1 Y0.48
G1 X0.7981
G1 Y0.4974
G3 X0.7881 Y0.4904 I0.2807 J-0.4082
G2 X0.7761 Y0.4834 I-0.0417 J0.0575
G2 X0.7603 Y0.4778 I-0.034 J0.0715
G2 X0.7393 Y0.4755 I-0.0197 J0.0815
G2 X0.7018 Y0.4901 I-0.0012 J0.0524
G2 X0.6865 Y0.5275 I0.034 J0.0358
G2 X0.6881 Y0.5431 I0.0677 J0.0006
G2 X0.6944 Y0.5575 I0.0413 J-0.0093
G2 X0.7172 Y0.5757 I0.0436 J-0.0314
G2 X0.7531 Y0.5846 I0.0475 J-0.1144
G2 X0.7981 Y0.5881 I0.0788 J-0.7189
G1 Y0.5924
G3 X0.7947 Y0.6079 I-0.0324 J0.0011
G3 X0.7853 Y0.6175 I-0.0209 J-0.0109
G3 X0.7713 Y0.6221 I-0.0189 J-0.0345
G3 X0.7541 Y0.6233 I-0.0168 J-0.1201
G3 X0.73 Y0.6203 I0.0016 J-0.1143
G3 X0.7024 Y0.6121 I0.038 J-0.1779
G1 X0.701
G1 Y0.6401
G2 X0.7242 Y0.6449 I0.0687 J-0.2727
G2 X0.7543 Y0.6476 I0.0303 J-0.1733
G2 X0.7843 Y0.6446 I0.0018 J-0.1367
G2 X0.8066 Y0.635 I-0.0114 J-0.0566
G2 X0.8206 Y0.6175 I-0.0255 J-0.0349
G2 X0.8244 Y0.6045 I-0.0479 J-0.0211
G2 X0.8251 Y0.5992 I-0.0819 J-0.013
G0 Z0.125
G0 X0.7981 Y0.5658
G0 Z0.0425
G1 F4.0 Z-0.021
G3 F8.0 X0.7683 Y0.5636 I0.0677 J-1.1189
G3 X0.7414 Y0.5594 I0.011 J-0.1575
G3 X0.7222 Y0.5488 I0.011 J-0.0428
G3 X0.7165 Y0.5399 I0.0156 J-0.0162
G3 X0.7149 Y0.5294 I0.0304 J-0.0101
G3 X0.7167 Y0.5178 I0.034 J-0.0006
G3 X0.7234 Y0.5081 I0.0211 J0.0075
G3 X0.7357 Y0.5024 I0.0182 J0.0232
G3 X0.7493 Y0.5011 I0.0129 J0.0604
G3 X0.7758 Y0.5067 I0.0007 J0.0624
G3 X0.7981 Y0.5203 I-0.0524 J0.1106
G1 Y0.5658
G0 Z0.125
G0 X0.6595 Y0.5298
G0 Z0.0425
G1 F4.0 Z-0.021
G1 F8.0 Y0.4958
G3 X0.6448 Y0.4892 I0.2569 J-0.5905
G2 X0.6279 Y0.4828 I-0.0586 J0.1289
G2 X0.6084 Y0.4781 I-0.0479 J0.1562
G2 X0.5854 Y0.476 I-0.0221 J0.1176
G2 X0.5422 Y0.4826 I-0.0016 J0.1345
G2 X0.5085 Y0.5036 I0.0289 J0.084
G2 X0.4865 Y0.5389 I0.0682 J0.0669
G2 X0.4804 Y0.5635 I0.117 J0.0423
G2 X0.4786 Y0.5888 I0.1709 J0.0246
G2 X0.4862 Y0.637 I0.1428 J0.0021
G2 X0.5082 Y0.6729 I0.0922 J-0.0318
G2 X0.5417 Y0.6946 I0.0656 J-0.0647
G2 X0.5855 Y0.7021 I0.0423 J-0.1158
G2 X0.6205 Y0.6978 I-0.0001 J-0.1474
G2 X0.6595 Y0.6829 I-0.0476 J-0.1825
G1 Y0.6485
G1 X0.6573
G3 X0.6216 Y0.6704 I-0.0851 J-0.0983
G3 X0.5836 Y0.6773 I-0.0372 J-0.097
G3 X0.5537 Y0.6719 I-0.0011 J-0.0789
G3 X0.5302 Y0.6553 I0.0244 J-0.0598
G3 X0.5143 Y0.6275 I0.0578 J-0.0513
G3 X0.5088 Y0.5888 I0.1175 J-0.0366
G3 X0.5101 Y0.5688 I0.1416 J-0.0006
G3 X0.5149 Y0.5493 I0.0937 J0.0128
G3 X0.531 Y0.5223 I0.0761 J0.0272
G3 X0.5549 Y0.5062 I0.0472 J0.0442
G3 X0.5839 Y0.5011 I0.0286 J0.0773
G3 X0.6232 Y0.5083 I0.0008 J0.1067
G3 X0.6574 Y0.5298 I-0.0419 J0.1048
G1 X0.6595
G0 Z0.125
G0 X0.7698 Y0.3596
G0 Z0.0425
G1 F4.0 Z-0.021
G1 F8.0 X0.7771
G1 Y0.18
G1 X0.7527
G1 Y0.3171
G1 X0.7163 Y0.2944
G1 Y0.3172
G3 X0.7456 Y0.3364 I-0.0825 J0.1581
G3 X0.7584 Y0.3472 I-0.1135 J0.1463
G3 X0.7698 Y0.3596 I-0.0743 J0.0802
G0 Z0.125
G0 X0.8304 Y0.3365
G0 Z0.0425
G1 F4.0 Z-0.021
G2 F8.0 X0.8464 Y0.3549 I0.0329 J-0.0125
G2 X0.8607 Y0.3604 I0.025 J-0.0436
G2 X0.8759 Y0.362 I0.0147 J-0.0673
G2 X0.897 Y0.3595 I0.0009 J-0.0832
G2 X0.9161 Y0.35 I-0.012 J-0.0482
G2 X0.9274 Y0.335 I-0.0235 J-0.0292
G2 X0.9307 Y0.3165 I-0.0455 J-0.0177
G2 X0.9288 Y0.3028 I-0.0551 J0.0007
G2 X0.9215 Y0.2836 I-0.1005 J0.0273
G2 X0.9114 Y0.2657 I-0.1708 J0.0842
G1 X0.8712 Y0.202
G1 X0.9413
G1 Y0.18
G1 X0.8314
G1 Y0.1849
G1 X0.8875 Y0.2707
G3 X0.8993 Y0.2924 I-0.1204 J0.08
G3 X0.9034 Y0.3042 I-0.0739 J0.032
G3 X0.905 Y0.3165 I-0.0488 J0.0128
G3 X0.9034 Y0.3271 I-0.0312 J0.0006
G3 X0.8926 Y0.3385 I-0.0182 J-0.0063
G3 X0.8771 Y0.3413 I-0.0144 J-0.0362
G3 X0.8585 Y0.336 I-0.0001 J-0.0352
G3 X0.8459 Y0.3229 I0.0153 J-0.0273
G1 X0.8302 Y0.3359
G2 X0.8304 Y0.3365 I0.0331 J-0.0118
G0 Z0.125
G0 X0.9832 Y0.2076
G0 Z0.0425
G1 F4.0 Z-0.021
G2 F8.0 X0.9844 Y0.2089 I0.0135 J-0.0114
G2 X0.9973 Y0.2143 I0.0127 J-0.0123
G2 X1.0103 Y0.2089 I0.0003 J-0.0176
G2 X1.0156 Y0.196 I-0.0123 J-0.0127
G2 X1.0103 Y0.1829 I-0.018 J-0.0002
G2 X0.9973 Y0.1776 I-0.0127 J0.0123
G2 X0.9844 Y0.1829 I-0.0003 J0.0176
G2 X0.979 Y0.196 I0.0127 J0.0128
G2 X0.9832 Y0.2076 I0.0176 J0.0003
G0 Z0.125
G0 X1.058 Y0.224
G0 Z0.0425
G1 F4.0 Z-0.021
G2 F8.0 X1.0549 Y0.2451 I0.1531 J0.0334
G2 X1.0537 Y0.2748 I0.3315 J0.0284
G2 X1.057 Y0.3074 I0.1487 J0.0013
G2 X1.0693 Y0.3377 I0.0917 J-0.0195
G2 X1.088 Y0.3559 I0.0452 J-0.0279
G2 X1.1133 Y0.362 I0.0243 J-0.045
G2 X1.137 Y0.3574 I0.0011 J-0.0569
G2 X1.1554 Y0.3417 I-0.0186 J-0.0406
G2 X1.1632 Y0.3252 I-0.0508 J-0.0339
G2 X1.1683 Y0.2983 I-0.1316 J-0.0391
G2 X1.1696 Y0.2709 I-0.2732 J-0.0262
G2 X1.1666 Y0.2357 I-0.1925 J-0.0016
G2 X1.1548 Y0.2025 I-0.1013 J0.0172
G2 X1.1367 Y0.1839 I-0.0444 J0.0251
G2 X1.1116 Y0.1776 I-0.0241 J0.043
G2 X1.0874 Y0.1822 I-0.0011 J0.0595
G2 X1.0684 Y0.1977 I0.019 J0.0428
G2 X1.06 Y0.2158 I0.0495 J0.0337
G2 X1.058 Y0.224 I0.1511 J0.0415
G0 Z0.125
G0 X1.082 Y0.2296
G0 Z0.0425
G1 F4.0 Z-0.021
G3 F8.0 X1.0838 Y0.223 I0.0972 J0.0228
G3 X1.0926 Y0.2062 I0.0448 J0.0126
G3 X1.1099 Y0.1983 I0.0169 J0.0143
G3 X1.1257 Y0.2025 I0.0007 J0.0295
G3 X1.1366 Y0.2148 I-0.0168 J0.0258
G3 X1.1414 Y0.2287 I-0.0536 J0.0262
G3 X1.1444 Y0.2505 I-0.1463 J0.0314
G3 X1.1451 Y0.2725 I-0.3032 J0.0211
G3 X1.1446 Y0.2935 I-0.3481 J0.0011
G3 X1.1418 Y0.3143 I-0.124 J-0.0057
G3 X1.138 Y0.3251 I-0.0516 J-0.0123
G3 X1.1312 Y0.3344 I-0.029 J-0.014
G3 X1.1127 Y0.3413 I-0.0177 J-0.0193
G3 X1.0926 Y0.3327 I-0.0007 J-0.0261
G3 X1.0846 Y0.3191 I0.0316 J-0.0278
G3 X1.0794 Y0.2962 I0.0914 J-0.0328
G3 X1.0781 Y0.2727 I0.2025 J-0.0225
G3 X1.0789 Y0.2514 I0.2747 J-0.0008
G3 X1.0809 Y0.2352 I0.1655 J0.0123
G3 X1.082 Y0.2296 I0.0984 J0.0171
G0 Z0.125
G0 X1.2014 Y0.2944
G0 Z0.0425
G1 F4.0 Z-0.021
G1 F8.0 Y0.3172
G3 X1.2307 Y0.3364 I-0.0825 J0.1581
G3 X1.2435 Y0.3472 I-0.1135 J0.1463
G3 X1.2549 Y0.3596 I-0.0743 J0.0802
G1 X1.2622
G1 Y0.18
G1 X1.2378
G1 Y0.3171
G1 X1.2014 Y0.2944
G0 Z0.125
M5
M30
