( Made using CamBam - http://www.cambam.co.uk )
( 007-nitrogen-from-cambam 11/7/2013 8:42:38 PM )
( T0 : 0.0078 )
G20 G90 G91.1 G64 G40
G0 Z0.125
( T0 : 0.0078 )
T0 M6
( Engrave1 )
G17
M3 S1000
G0 X0.7242 Y1.4207
G0 Z0.0425
G1 F4.0 Z-0.021
G1 F8.0 X0.8619
G1 X1.1714 Y1.0032
G1 Y1.2976
G3 X1.1677 Y1.3307 I-0.1345 J0.0017
G3 X1.1523 Y1.3602 I-0.0646 J-0.0148
G3 X1.1248 Y1.3751 I-0.0402 J-0.0415
G3 X1.0938 Y1.3789 I-0.0317 J-0.13
G1 Y1.4207
G1 X1.2948
G1 Y1.3789
G3 X1.2712 Y1.3778 I-0.0014 J-0.2285
G3 X1.2483 Y1.3719 I0.0041 J-0.0636
G3 X1.2356 Y1.3605 I0.0232 J-0.0383
G3 X1.2267 Y1.3459 I0.0694 J-0.0528
G3 X1.2172 Y1.3038 I0.0834 J-0.041
G1 Y0.875
G1 X1.1721
G1 X0.8521 Y1.3093
G1 Y0.9962
G3 X0.8559 Y0.9643 I0.1211 J-0.0017
G3 X0.8715 Y0.9362 I0.0607 J0.0152
G3 X0.9049 Y0.9202 I0.0457 J0.0528
G3 X0.9418 Y0.9164 I0.0374 J0.1815
G1 Y0.875
G1 X0.7242
G1 Y0.916
G3 X0.7576 Y0.9216 I-0.0038 J0.1248
G3 X0.7865 Y0.9391 I-0.0205 J0.0667
G3 X0.807 Y0.9915 I-0.0528 J0.0509
G1 Y1.3478
G1 X0.8099 Y1.3507
G3 X0.7952 Y1.3632 I-0.4797 J-0.5539
G3 X0.7795 Y1.3745 I-0.0779 J-0.0908
G3 X0.7557 Y1.3789 I-0.0219 J-0.0518
G1 X0.7242
G1 Y1.4207
G0 Z0.125
G0 X0.6511 Y0.6996
G0 Z0.0425
G1 F4.0 Z-0.021
G1 F8.0 Y0.671
G1 X0.62
G1 Y0.6996
G1 X0.6511
G0 Z0.125
G0 X0.7044 Y0.6906
G0 Z0.0425
G1 F4.0 Z-0.021
G1 F8.0 X0.732
G1 Y0.6436
G1 X0.7888
G1 Y0.6205
G1 X0.732
G1 Y0.5459
G3 X0.7325 Y0.5257 I0.2788 J-0.002
G3 X0.7367 Y0.5122 I0.0327 J0.0026
G3 X0.7454 Y0.5036 I0.0179 J0.0095
G3 X0.754 Y0.5014 I0.0115 J0.0273
G3 X0.7627 Y0.5009 I0.0083 J0.0723
G3 X0.7768 Y0.5029 I-0.0004 J0.056
G3 X0.7873 Y0.5062 I-0.0298 J0.1114
G1 X0.7888
G1 Y0.4815
G2 X0.7718 Y0.4781 I-0.0376 J0.1451
G2 X0.7555 Y0.4768 I-0.0174 J0.1139
G2 X0.7351 Y0.4796 I-0.001 J0.0681
G2 X0.7175 Y0.4903 I0.0119 J0.0397
G2 X0.7069 Y0.5106 I0.0328 J0.0299
G2 X0.7044 Y0.5335 I0.0926 J0.0216
G1 Y0.6205
G1 X0.6858
G1 Y0.6436
G1 X0.7044
G1 Y0.6906
G0 Z0.125
G0 X0.6493 Y0.6436
G0 Z0.0425
G1 F4.0 Z-0.021
G1 F8.0 Y0.48
G1 X0.6218
G1 Y0.6436
G1 X0.6493
G0 Z0.125
G0 X0.5657
G0 Z0.0425
G1 F4.0 Z-0.021
G1 F8.0 Y0.48
G1 X0.5298
G1 X0.4264 Y0.6751
G1 Y0.48
G1 X0.3993
G1 Y0.6981
G1 X0.4443
G1 X0.5386 Y0.52
G1 Y0.6981
G1 X0.5657
G1 Y0.6436
G0 Z0.125
G0 X0.8221
G0 Z0.0425
G1 F4.0 Z-0.021
G1 F8.0 X0.8496
G1 Y0.6195
G2 X0.8634 Y0.6297 I0.1203 J-0.1485
G2 X0.8784 Y0.6381 I0.0561 J-0.0827
G2 X0.9041 Y0.6436 I0.0259 J-0.0573
G2 X0.9145 Y0.6432 I0.0013 J-0.0926
G2 X0.9242 Y0.6419 I-0.0179 J-0.167
G1 Y0.6136
G1 X0.9227
G3 X0.9107 Y0.6156 I-0.0213 J-0.0885
G3 X0.8971 Y0.6164 I-0.0127 J-0.1096
G3 X0.8724 Y0.6107 I0.0001 J-0.0561
G3 X0.8496 Y0.5962 I0.0476 J-0.1002
G1 Y0.48
G1 X0.8221
G1 Y0.6436
G0 Z0.125
G0 X0.9445 Y0.6001
G0 Z0.0425
G1 F4.0 Z-0.021
G2 F8.0 X0.9589 Y0.6249 I0.0727 J-0.0258
G2 X0.9839 Y0.6427 I0.0497 J-0.0431
G2 X1.0141 Y0.6482 I0.0291 J-0.0748
G2 X1.0442 Y0.6427 I0.0011 J-0.0793
G2 X1.069 Y0.6249 I-0.025 J-0.061
G2 X1.0851 Y0.5952 I-0.058 J-0.0507
G2 X1.0895 Y0.5617 I-0.114 J-0.032
G2 X1.0851 Y0.5283 I-0.1184 J-0.0014
G2 X1.069 Y0.4986 I-0.0741 J0.021
G2 X1.0441 Y0.4809 I-0.0497 J0.0434
G2 X1.0141 Y0.4755 I-0.0289 J0.0743
G2 X0.9839 Y0.4809 I-0.0012 J0.0807
G2 X0.9589 Y0.4986 I0.0245 J0.0611
G2 X0.9429 Y0.5283 I0.0583 J0.0505
G2 X0.9385 Y0.5617 I0.1149 J0.032
G2 X0.9429 Y0.5952 I0.1192 J0.0014
G2 X0.9445 Y0.6001 I0.0743 J-0.0209
G0 Z0.125
G0 X0.9707 Y0.5921
G0 Z0.0425
G1 F4.0 Z-0.021
G3 F8.0 X0.9693 Y0.5863 I0.0521 J-0.0159
G3 X0.9669 Y0.5617 I0.1148 J-0.0233
G3 X0.9694 Y0.5374 I0.1107 J-0.0012
G3 X0.9794 Y0.515 I0.0553 J0.0113
G3 X0.9948 Y0.5029 I0.0315 J0.0243
G3 X1.0141 Y0.4992 I0.0185 J0.044
G3 X1.0332 Y0.5029 I0.0008 J0.0472
G3 X1.0485 Y0.5149 I-0.0161 J0.0365
G3 X1.0587 Y0.5373 I-0.0443 J0.0335
G3 X1.0611 Y0.5617 I-0.1084 J0.0233
G3 X1.0587 Y0.5863 I-0.1157 J0.0013
G3 X1.0487 Y0.6089 I-0.0531 J-0.0102
G3 X1.0332 Y0.6208 I-0.0312 J-0.0246
G3 X1.0141 Y0.6244 I-0.0184 J-0.0445
G3 X0.9948 Y0.6208 I-0.0008 J-0.0491
G3 X0.9792 Y0.6089 I0.0155 J-0.0364
G3 X0.9707 Y0.5921 I0.0435 J-0.0327
G0 Z0.125
G0 X1.1215 Y0.5767
G0 Z0.0425
G1 F4.0 Z-0.021
G2 F8.0 X1.1222 Y0.5818 I0.1247 J-0.0128
G2 X1.1267 Y0.5997 I0.0838 J-0.0119
G2 X1.143 Y0.6262 I0.0781 J-0.0297
G2 X1.1661 Y0.6423 I0.0478 J-0.044
G2 X1.1932 Y0.6482 I0.0277 J-0.0624
G2 X1.217 Y0.6452 I0.0018 J-0.0832
G2 X1.2373 Y0.6366 I-0.0291 J-0.0969
G1 X1.2391 Y0.6436
G1 X1.2649
G1 Y0.4986
G2 X1.2612 Y0.4663 I-0.1295 J-0.0017
G2 X1.2555 Y0.4509 I-0.073 J0.0185
G2 X1.246 Y0.4375 I-0.0494 J0.025
G2 X1.2189 Y0.4219 I-0.0426 J0.0427
G2 X1.1878 Y0.418 I-0.0294 J0.1089
G2 X1.1623 Y0.4199 I-0.0002 J0.1684
G2 X1.138 Y0.4251 I0.0267 J0.1868
G1 Y0.4532
G1 X1.1395
G3 X1.1609 Y0.4467 I0.0746 J0.2088
G3 X1.1902 Y0.4428 I0.0295 J0.108
G3 X1.2135 Y0.4462 I0.0018 J0.0698
G3 X1.2278 Y0.4555 I-0.0106 J0.032
G3 X1.2351 Y0.4693 I-0.0251 J0.0222
G3 X1.2373 Y0.4873 I-0.0665 J0.0173
G1 Y0.5023
G2 X1.2135 Y0.4873 I-0.0691 J0.0839
G2 X1.1993 Y0.4835 I-0.0221 J0.0534
G2 X1.1846 Y0.4825 I-0.0141 J0.0991
G2 X1.1588 Y0.4875 I-0.001 J0.0635
G2 X1.138 Y0.5036 I0.0227 J0.051
G2 X1.1244 Y0.532 I0.0578 J0.0452
G2 X1.1209 Y0.5633 I0.1253 J0.0299
G2 X1.1215 Y0.5767 I0.1254 J0.0006
G0 Z0.125
G0 X1.1497 Y0.574
G0 Z0.0425
G1 F4.0 Z-0.021
G3 F8.0 X1.1493 Y0.5639 I0.094 J-0.0089
G3 X1.1512 Y0.5424 I0.1139 J-0.0011
G3 X1.159 Y0.5222 I0.0536 J0.0092
G3 X1.1732 Y0.511 I0.0249 J0.0169
G3 X1.191 Y0.508 I0.0169 J0.0461
G3 X1.2151 Y0.5125 I-0.0003 J0.0676
G3 X1.2373 Y0.525 I-0.0317 J0.0829
G1 Y0.6142
G3 X1.2168 Y0.6212 I-0.0435 J-0.0933
G3 X1.1981 Y0.6234 I-0.0188 J-0.0797
G3 X1.1785 Y0.6199 I-0.0008 J-0.0519
G3 X1.1623 Y0.6082 I0.0156 J-0.0385
G3 X1.1519 Y0.5872 I0.0397 J-0.0328
G3 X1.1497 Y0.574 I0.0918 J-0.0221
G0 Z0.125
G0 X1.3076 Y0.5672
G0 Z0.0425
G1 F4.0 Z-0.021
G2 F8.0 X1.3123 Y0.5948 I0.1129 J-0.0049
G2 X1.3293 Y0.6246 I0.0741 J-0.0227
G2 X1.3556 Y0.6426 I0.0524 J-0.0482
G2 X1.387 Y0.6482 I0.0303 J-0.0798
G2 X1.4146 Y0.644 I0.0013 J-0.0842
G2 X1.438 Y0.6288 I-0.018 J-0.0536
G2 X1.4523 Y0.6031 I-0.0467 J-0.0426
G2 X1.456 Y0.5739 I-0.1005 J-0.0278
G1 Y0.559
G1 X1.3355
G3 X1.34 Y0.5326 I0.0707 J-0.0014
G3 X1.3525 Y0.5143 I0.0462 J0.018
G3 X1.3705 Y0.5037 I0.0335 J0.0366
G3 X1.3936 Y0.5002 I0.0224 J0.0694
G3 X1.4272 Y0.5068 I-0.0006 J0.0916
G3 X1.4398 Y0.5124 I-0.0522 J0.1337
G3 X1.4513 Y0.52 I-0.0249 J0.0509
G1 X1.4528
G1 Y0.49
G2 X1.4244 Y0.4801 I-0.0882 J0.2093
G2 X1.3939 Y0.4762 I-0.03 J0.1114
G2 X1.36 Y0.4809 I-0.0015 J0.1134
G2 X1.3304 Y0.4982 I0.0215 J0.071
G2 X1.3124 Y0.5271 I0.0493 J0.0505
G2 X1.3075 Y0.5609 I0.1024 J0.0322
G2 X1.3076 Y0.5672 I0.113 J0.0014
G0 Z0.125
G0 X1.3355 Y0.58
G0 Z0.0425
G1 F4.0 Z-0.021
G1 F8.0 X1.4292
G3 X1.4269 Y0.5978 I-0.0651 J0.0004
G3 X1.4182 Y0.6136 I-0.038 J-0.0105
G3 X1.4032 Y0.623 I-0.0247 J-0.0227
G3 X1.3856 Y0.6255 I-0.0167 J-0.0559
G3 X1.3666 Y0.6225 I-0.0008 J-0.058
G3 X1.3503 Y0.6124 I0.0138 J-0.0405
G3 X1.3355 Y0.58 I0.0359 J-0.036
G0 Z0.125
G0 X1.4978
G0 Z0.0425
G1 F4.0 Z-0.021
G1 F8.0 Y0.6436
G1 X1.5253
G1 Y0.6255
G2 X1.552 Y0.6422 I0.0723 J-0.0857
G2 X1.5803 Y0.6482 I0.0284 J-0.0641
G2 X1.6022 Y0.6447 I0.001 J-0.0649
G2 X1.6207 Y0.6322 I-0.0145 J-0.0412
G2 X1.6318 Y0.6104 I-0.0409 J-0.0345
G2 X1.6346 Y0.5862 I-0.0924 J-0.0231
G1 Y0.48
G1 X1.6071
G1 Y0.5732
G3 X1.6057 Y0.5943 I-0.1591 J0.0006
G3 X1.6009 Y0.6098 I-0.0395 J-0.0038
G3 X1.5904 Y0.6189 I-0.0188 J-0.0112
G3 X1.5725 Y0.6219 I-0.0164 J-0.0419
G3 X1.5489 Y0.6164 I0.0011 J-0.0574
G3 X1.5253 Y0.6022 I0.0498 J-0.1094
G1 Y0.48
G1 X1.4978
G1 Y0.58
G0 Z0.125
G0 X1.2622 Y0.3596
G0 Z0.0425
G1 F4.0 Z-0.021
G1 F8.0 Y0.18
G1 X1.2378
G1 Y0.3171
G1 X1.2014 Y0.2944
G1 Y0.3172
G3 X1.2307 Y0.3364 I-0.0825 J0.1581
G3 X1.2435 Y0.3472 I-0.1135 J0.1463
G3 X1.2549 Y0.3596 I-0.0743 J0.0802
G1 X1.2622
G0 Z0.125
G0 X1.1626 Y0.3269
G0 Z0.0425
G1 F4.0 Z-0.021
G2 F8.0 X1.1632 Y0.3252 I-0.0581 J-0.0191
G2 X1.1683 Y0.2983 I-0.1316 J-0.0391
G2 X1.1696 Y0.2709 I-0.2732 J-0.0262
G2 X1.1666 Y0.2357 I-0.1925 J-0.0016
G2 X1.1548 Y0.2025 I-0.1013 J0.0172
G2 X1.1367 Y0.1839 I-0.0444 J0.0251
G2 X1.1116 Y0.1776 I-0.0241 J0.043
G2 X1.0874 Y0.1822 I-0.0011 J0.0595
G2 X1.0684 Y0.1977 I0.019 J0.0428
G2 X1.06 Y0.2158 I0.0495 J0.0337
G2 X1.0549 Y0.2451 I0.1511 J0.0415
G2 X1.0537 Y0.2748 I0.3315 J0.0284
G2 X1.057 Y0.3074 I0.1487 J0.0013
G2 X1.0693 Y0.3377 I0.0917 J-0.0195
G2 X1.088 Y0.3559 I0.0452 J-0.0279
G2 X1.1133 Y0.362 I0.0243 J-0.045
G2 X1.137 Y0.3574 I0.0011 J-0.0569
G2 X1.1554 Y0.3417 I-0.0186 J-0.0406
G2 X1.1626 Y0.3269 I-0.0508 J-0.0339
G0 Z0.125
G0 X1.1404 Y0.3192
G0 Z0.0425
G1 F4.0 Z-0.021
G3 F8.0 X1.138 Y0.3251 I-0.0502 J-0.0173
G3 X1.1312 Y0.3344 I-0.029 J-0.014
G3 X1.1127 Y0.3413 I-0.0177 J-0.0193
G3 X1.0926 Y0.3327 I-0.0007 J-0.0261
G3 X1.0846 Y0.3191 I0.0316 J-0.0278
G3 X1.0794 Y0.2962 I0.0914 J-0.0328
G3 X1.0781 Y0.2727 I0.2025 J-0.0225
G3 X1.0789 Y0.2514 I0.2747 J-0.0008
G3 X1.0809 Y0.2352 I0.1655 J0.0123
G3 X1.0838 Y0.223 I0.0984 J0.0171
G3 X1.0926 Y0.2062 I0.0448 J0.0126
G3 X1.1099 Y0.1983 I0.0169 J0.0143
G3 X1.1257 Y0.2025 I0.0007 J0.0295
G3 X1.1366 Y0.2148 I-0.0168 J0.0258
G3 X1.1414 Y0.2287 I-0.0536 J0.0262
G3 X1.1444 Y0.2505 I-0.1463 J0.0314
G3 X1.1451 Y0.2725 I-0.3032 J0.0211
G3 X1.1446 Y0.2935 I-0.3481 J0.0011
G3 X1.1418 Y0.3143 I-0.124 J-0.0057
G3 X1.1404 Y0.3192 I-0.0516 J-0.0123
G0 Z0.125
G0 X1.0113 Y0.2078
G0 Z0.0425
G1 F4.0 Z-0.021
G2 F8.0 X1.0156 Y0.196 I-0.0133 J-0.0115
G2 X1.0103 Y0.1829 I-0.018 J-0.0002
G2 X0.9973 Y0.1776 I-0.0127 J0.0123
G2 X0.9844 Y0.1829 I-0.0003 J0.0176
G2 X0.979 Y0.196 I0.0127 J0.0128
G2 X0.9844 Y0.2089 I0.0176 J0.0003
G2 X0.9973 Y0.2143 I0.0127 J-0.0123
G2 X1.0103 Y0.2089 I0.0003 J-0.0176
G2 X1.0113 Y0.2078 I-0.0123 J-0.0127
G0 Z0.125
G0 X0.9487 Y0.2287
G0 Z0.0425
G1 F4.0 Z-0.021
G1 F8.0 X0.9307
G1 Y0.18
G1 X0.9075
G1 Y0.2287
G1 X0.826
G1 Y0.2426
G1 X0.9221 Y0.3596
G1 X0.9307
G1 Y0.2475
G1 X0.9487
G1 Y0.2287
G0 Z0.125
G0 X0.9075 Y0.2475
G0 Z0.0425
G1 F4.0 Z-0.021
G1 F8.0 Y0.3109
G1 X0.855 Y0.2475
G1 X0.9075
G0 Z0.125
G0 X0.7771
G0 Z0.0425
G1 F4.0 Z-0.021
G1 F8.0 Y0.18
G1 X0.7527
G1 Y0.3171
G1 X0.7163 Y0.2944
G1 Y0.3172
G3 X0.7456 Y0.3364 I-0.0825 J0.1581
G3 X0.7584 Y0.3472 I-0.1135 J0.1463
G3 X0.7698 Y0.3596 I-0.0743 J0.0802
G1 X0.7771
G1 Y0.2475
G0 Z0.125
G0 X1.6305 Y1.5
G0 Z0.0425
G1 F4.0 Z-0.021
G2 F8.0 X1.6531 Y1.5613 I0.7727 J-0.2505
G2 X1.6791 Y1.6213 I1.6474 J-0.6783
G2 X1.7416 Y1.7502 I2.1227 J-0.9496
G1 X1.6066
G1 Y1.7873
G1 X1.7922
G1 Y1.7721
G1 X1.767 Y1.7225
G3 X1.7404 Y1.6672 I1.5874 J-0.7969
G3 X1.7133 Y1.6059 I2.0186 J-0.9303
G3 X1.69 Y1.5479 I1.2722 J-0.5434
G3 X1.6738 Y1.5 I0.7075 J-0.2664
G1 X1.6305
G0 Z0.125
M5
M30
