( Made using CamBam - http://www.cambam.co.uk )
( 007-nitrogen-reverse-engrave 11/25/2013 11:01:56 PM )
( T0 : 0.0156 )
G20 G90 G91.1 G64 G40
G0 Z0.125
( T0 : 0.0156 )
T0 M6
( Pocket5 )
G17
M3 S1000
G0 X1.0359 Y1.0272
G0 Z0.0625
G1 F6.0 Z-0.01
G1 F12.0 Y0.9641
G1 X0.9641
G1 Y1.0359
G1 X1.0295
G0 Z0.125
G0 X1.0422 Y1.0187
G0 Z0.0625
G1 F6.0 Z-0.01
G1 F12.0 Y0.9578
G1 X0.9578
G1 Y1.0422
G1 X1.0249
G0 Z0.125
G0 X1.0484 Y1.0102
G0 Z0.0625
G1 F6.0 Z-0.01
G1 F12.0 Y0.9516
G1 X0.9516
G1 Y1.0484
G1 X1.0203
G0 Z0.125
G0 X1.0547 Y1.0018
G0 Z0.0625
G1 F6.0 Z-0.01
G1 F12.0 Y0.9453
G1 X0.9453
G1 Y1.0547
G1 X1.0157
G0 Z0.125
G0 X1.0609 Y0.9933
G0 Z0.0625
G1 F6.0 Z-0.01
G1 F12.0 Y0.9391
G1 X0.9391
G1 Y1.0609
G1 X1.0111
G0 Z0.125
G0 X1.0672 Y0.9848
G0 Z0.0625
G1 F6.0 Z-0.01
G1 F12.0 Y0.9328
G1 X0.9328
G1 Y1.0672
G1 X1.0065
G0 Z0.125
G0 X1.0734 Y0.9763
G0 Z0.0625
G1 F6.0 Z-0.01
G1 F12.0 Y0.9266
G1 X0.9266
G1 Y1.0734
G1 X1.0019
G0 Z0.125
G0 X1.0797 Y0.9678
G0 Z0.0625
G1 F6.0 Z-0.01
G1 F12.0 Y0.9203
G1 X0.9203
G1 Y1.0797
G1 X0.9973
G0 Z0.125
G0 X1.0859 Y0.9593
G0 Z0.0625
G1 F6.0 Z-0.01
G1 F12.0 Y0.9141
G1 X0.9141
G1 Y1.0859
G1 X0.9927
G0 Z0.125
G0 X1.0922 Y0.9509
G0 Z0.0625
G1 F6.0 Z-0.01
G1 F12.0 Y0.9078
G1 X0.9078
G1 Y1.0922
G1 X0.988
G0 Z0.125
G0 X1.0984 Y0.9424
G0 Z0.0625
G1 F6.0 Z-0.01
G1 F12.0 Y0.9016
G1 X0.9016
G1 Y1.0984
G1 X0.9834
G0 Z0.125
G0 X1.0977 Y1.1047
G0 Z0.0625
G1 F6.0 Z-0.01
G1 F12.0 X1.1047
G1 Y1.0952
G0 Z0.125
G0 Y0.9339
G0 Z0.0625
G1 F6.0 Z-0.01
G1 F12.0 Y0.8953
G1 X0.9029
G1 F6.0 X0.8953 Y0.8969
G1 F12.0 Y1.1047
G1 X0.9788
G0 Z0.125
G0 X1.0931 Y1.1109
G0 Z0.0625
G1 F6.0 Z-0.01
G1 F12.0 X1.1109
G1 Y1.0868
G0 Z0.125
G0 Y0.9254
G0 Z0.0625
G1 F6.0 Z-0.01
G1 F12.0 Y0.8891
G1 X0.944
G0 Z0.125
G0 X0.8891 Y0.8988
G0 Z0.0625
G1 F6.0 Z-0.01
G1 F12.0 Y1.1109
G1 X0.9742
G0 Z0.125
G0 X1.0884 Y1.1172
G0 Z0.0625
G1 F6.0 Z-0.01
G1 F12.0 X1.1172
G1 Y1.0784
G0 Z0.125
G0 Y0.9169
G0 Z0.0625
G1 F6.0 Z-0.01
G1 F12.0 Y0.8828
G1 X0.9457
G0 Z0.125
G0 X0.8828 Y0.9014
G0 Z0.0625
G1 F6.0 Z-0.01
G1 F12.0 Y1.1172
G1 X0.9696
G0 Z0.125
G0 X1.0838 Y1.1234
G0 Z0.0625
G1 F6.0 Z-0.01
G1 F12.0 X1.1234
G1 Y1.0699
G0 Z0.125
G0 Y0.9085
G0 Z0.0625
G1 F6.0 Z-0.01
G1 F12.0 Y0.8766
G1 X0.9457
G0 Z0.125
G0 X0.8766 Y0.9048
G0 Z0.0625
G1 F6.0 Z-0.01
G1 F12.0 Y1.1234
G1 X0.965
G0 Z0.125
G0 X1.0792 Y1.1297
G0 Z0.0625
G1 F6.0 Z-0.01
G1 F12.0 X1.1297
G1 Y1.0615
G0 Z0.125
G0 Y0.9
G0 Z0.0625
G1 F6.0 Z-0.01
G1 F12.0 Y0.8703
G1 X0.9457
G0 Z0.125
G0 X0.8703 Y0.9092
G0 Z0.0625
G1 F6.0 Z-0.01
G1 F12.0 Y1.1297
G1 X0.9604
G0 Z0.125
G0 X1.0745 Y1.1359
G0 Z0.0625
G1 F6.0 Z-0.01
G1 F12.0 X1.1359
G1 Y1.0531
G0 Z0.125
G0 Y0.8915
G0 Z0.0625
G1 F6.0 Z-0.01
G1 F12.0 Y0.8641
G1 X0.9457
G0 Z0.125
G0 X0.8641 Y0.9159
G0 Z0.0625
G1 F6.0 Z-0.01
G1 F12.0 Y1.1359
G1 X0.9558
G0 Z0.125
G0 X1.0699 Y1.1422
G0 Z0.0625
G1 F6.0 Z-0.01
G1 F12.0 X1.1422
G1 Y1.0446
G0 Z0.125
G0 Y0.883
G0 Z0.0625
G1 F6.0 Z-0.01
G1 F12.0 Y0.8578
G1 X0.9457
G0 Z0.125
G0 X0.8578 Y0.9261
G0 Z0.0625
G1 F6.0 Z-0.01
G1 F12.0 Y1.1422
G1 X0.9512
G0 Z0.125
G0 X1.0653 Y1.1484
G0 Z0.0625
G1 F6.0 Z-0.01
G1 F12.0 X1.1484
G1 Y1.0362
G0 Z0.125
G0 Y0.8745
G0 Z0.0625
G1 F6.0 Z-0.01
G1 F12.0 Y0.8516
G1 X0.9457
G0 Z0.125
G0 X0.8516 Y0.948
G0 Z0.0625
G1 F6.0 Z-0.01
G1 F12.0 Y1.1484
G1 X0.9466
G0 Z0.125
G0 X0.85 Y1.1547
G0 Z0.0625
G1 F6.0 Z-0.01
G1 F12.0 X0.942
G0 Z0.125
G0 X1.0606
G0 Z0.0625
G1 F6.0 Z-0.01
G1 F12.0 X1.1547
G1 Y1.0278
G0 Z0.125
G0 Y0.8661
G0 Z0.0625
G1 F6.0 Z-0.01
G1 F12.0 Y0.8453
G1 X0.9457
G0 Z0.125
G0 X1.1609 Y0.8576
G0 Z0.0625
G1 F6.0 Z-0.01
G1 F12.0 Y0.8391
G1 X0.9456
G0 Z0.125
G0 X0.85 Y1.1609
G0 Z0.0625
G1 F6.0 Z-0.01
G1 F12.0 X0.9374
G0 Z0.125
G0 X1.056
G0 Z0.0625
G1 F6.0 Z-0.01
G1 F12.0 X1.1609
G1 Y1.0194
G0 Z0.125
G0 X1.1672 Y0.8491
G0 Z0.0625
G1 F6.0 Z-0.01
G1 F12.0 Y0.8328
G1 X0.941
G0 Z0.125
G0 X0.85 Y1.1672
G0 Z0.0625
G1 F6.0 Z-0.01
G1 F12.0 X0.9328
G0 Z0.125
G0 X1.0514
G0 Z0.0625
G1 F6.0 Z-0.01
G1 F12.0 X1.1672
G1 Y1.0109
G0 Z0.125
G0 X1.1734 Y0.8406
G0 Z0.0625
G1 F6.0 Z-0.01
G1 F12.0 Y0.8266
G1 X0.8266
G1 Y0.8322
G0 Z0.125
G0 X0.85 Y1.1734
G0 Z0.0625
G1 F6.0 Z-0.01
G1 F12.0 X0.9282
G0 Z0.125
G0 X1.0467
G0 Z0.0625
G1 F6.0 Z-0.01
G1 F12.0 X1.1734
G1 Y1.0025
G0 Z0.125
G0 X1.1797 Y0.8332
G0 Z0.0625
G1 F6.0 Z-0.01
G1 F12.0 Y0.8203
G1 X0.8203
G1 Y0.8322
G0 Z0.125
G0 X0.85 Y1.1797
G0 Z0.0625
G1 F6.0 Z-0.01
G1 F12.0 X0.9236
G0 Z0.125
G0 X1.0421
G0 Z0.0625
G1 F6.0 Z-0.01
G1 F12.0 X1.175
G0 Z0.125
G0 X1.0375 Y1.1859
G0 Z0.0625
G1 F6.0 Z-0.01
G1 F12.0 X1.175
G0 Z0.125
G0 X0.85
G0 Z0.0625
G1 F6.0 Z-0.01
G1 F12.0 X0.919
G0 Z0.125
G0 X1.1859 Y0.8322
G0 Z0.0625
G1 F6.0 Z-0.01
G1 F12.0 Y0.8141
G1 X0.8141
G1 Y0.8322
G0 Z0.125
G0 X0.85 Y1.1922
G0 Z0.0625
G1 F6.0 Z-0.01
G1 F12.0 X0.9144
G0 Z0.125
G0 X1.0328
G0 Z0.0625
G1 F6.0 Z-0.01
G1 F12.0 X1.175
G0 Z0.125
G0 X1.1922 Y0.8322
G0 Z0.0625
G1 F6.0 Z-0.01
G1 F12.0 Y0.8078
G1 X0.8078
G1 Y0.8322
G0 Z0.125
G0 X0.85 Y1.1984
G0 Z0.0625
G1 F6.0 Z-0.01
G1 F12.0 X0.9097
G0 Z0.125
G0 X1.0282
G0 Z0.0625
G1 F6.0 Z-0.01
G1 F12.0 X1.175
G0 Z0.125
G0 X1.1984 Y0.8322
G0 Z0.0625
G1 F6.0 Z-0.01
G1 F12.0 Y0.8016
G1 X0.8016
G1 Y0.8322
G0 Z0.125
G0 X0.85 Y1.2047
G0 Z0.0625
G1 F6.0 Z-0.01
G1 F12.0 X0.9051
G0 Z0.125
G0 X1.0236
G0 Z0.0625
G1 F6.0 Z-0.01
G1 F12.0 X1.175
G0 Z0.125
G0 X1.2047 Y0.8322
G0 Z0.0625
G1 F6.0 Z-0.01
G1 F12.0 Y0.7953
G1 X0.7953
G1 Y0.8322
G0 Z0.125
G0 X0.85 Y1.2109
G0 Z0.0625
G1 F6.0 Z-0.01
G1 F12.0 X0.9005
G0 Z0.125
G0 X1.0189
G0 Z0.0625
G1 F6.0 Z-0.01
G1 F12.0 X1.175
G0 Z0.125
G0 X1.2109 Y0.8322
G0 Z0.0625
G1 F6.0 Z-0.01
G1 F12.0 Y0.7891
G1 X0.7891
G1 Y0.8322
G0 Z0.125
G0 X0.7828 Y0.9406
G0 Z0.0625
G1 F6.0 Z-0.01
G1 F12.0 Y1.2172
G1 X0.7863
G0 Z0.125
G0 X0.85
G0 Z0.0625
G1 F6.0 Z-0.01
G1 F12.0 X0.8959
G0 Z0.125
G0 X1.0143
G0 Z0.0625
G1 F6.0 Z-0.01
G1 F12.0 X1.175
G0 Z0.125
G0 X1.2172 Y0.8322
G0 Z0.0625
G1 F6.0 Z-0.01
G1 F12.0 Y0.7828
G1 X0.7828
G1 Y0.8322
G0 Z0.125
G0 X0.7766 Y0.9268
G0 Z0.0625
G1 F6.0 Z-0.01
G1 F12.0 Y1.2234
G1 X0.7863
G0 Z0.125
G0 X0.85
G0 Z0.0625
G1 F6.0 Z-0.01
G1 F12.0 X0.8913
G0 Z0.125
G0 X1.0097
G0 Z0.0625
G1 F6.0 Z-0.01
G1 F12.0 X1.175
G0 Z0.125
G0 X1.2234 Y0.8322
G0 Z0.0625
G1 F6.0 Z-0.01
G1 F12.0 Y0.7766
G1 X0.7766
G1 Y0.8322
G0 Z0.125
G0 X0.7703 Y0.9179
G0 Z0.0625
G1 F6.0 Z-0.01
G1 F12.0 Y1.2297
G1 X0.7863
G0 Z0.125
G0 X0.85
G0 Z0.0625
G1 F6.0 Z-0.01
G1 F12.0 X0.8867
G0 Z0.125
G0 X1.005
G0 Z0.0625
G1 F6.0 Z-0.01
G1 F12.0 X1.175
G0 Z0.125
G0 X1.2297 Y0.8322
G0 Z0.0625
G1 F6.0 Z-0.01
G1 F12.0 Y0.7703
G1 X0.7703
G1 Y0.8322
G0 Z0.125
G0 X0.7641 Y0.9113
G0 Z0.0625
G1 F6.0 Z-0.01
G1 F12.0 Y1.2359
G1 X0.7863
G0 Z0.125
G0 X0.85
G0 Z0.0625
G1 F6.0 Z-0.01
G1 F12.0 X0.8821
G0 Z0.125
G0 X1.0004
G0 Z0.0625
G1 F6.0 Z-0.01
G1 F12.0 X1.175
G0 Z0.125
G0 X1.2359 Y0.8335
G0 Z0.0625
G1 F6.0 Z-0.01
G1 F12.0 Y0.7641
G1 X0.7641
G1 Y0.8322
G0 Z0.125
G0 X0.7578 Y0.9064
G0 Z0.0625
G1 F6.0 Z-0.01
G1 F12.0 Y1.2422
G1 X0.7863
G0 Z0.125
G0 X0.85
G0 Z0.0625
G1 F6.0 Z-0.01
G1 F12.0 X0.8775
G0 Z0.125
G0 X0.9958
G0 Z0.0625
G1 F6.0 Z-0.01
G1 F12.0 X1.175
G0 Z0.125
G0 X1.2395
G0 Z0.0625
G1 F6.0 Z-0.01
G1 F12.0 X1.2422
G1 Y0.7578
G1 X0.7578
G1 Y0.8322
G0 Z0.125
G0 X0.7516 Y0.9025
G0 Z0.0625
G1 F6.0 Z-0.01
G1 F12.0 Y1.2484
G1 X0.7863
G0 Z0.125
G0 X0.85
G0 Z0.0625
G1 F6.0 Z-0.01
G1 F12.0 X0.8729
G0 Z0.125
G0 X0.9911
G0 Z0.0625
G1 F6.0 Z-0.01
G1 F12.0 X1.175
G0 Z0.125
G0 X1.2395
G0 Z0.0625
G1 F6.0 Z-0.01
G1 F12.0 X1.2484
G1 Y0.7516
G1 X0.7516
G1 Y0.8322
G0 Z0.125
G0 X0.7453 Y0.8994
G0 Z0.0625
G1 F6.0 Z-0.01
G1 F12.0 Y1.2547
G1 X0.7863
G0 Z0.125
G0 X0.85
G0 Z0.0625
G1 F6.0 Z-0.01
G1 F12.0 X0.8683
G0 Z0.125
G0 X0.9865
G0 Z0.0625
G1 F6.0 Z-0.01
G1 F12.0 X1.175
G0 Z0.125
G0 X1.2395
G0 Z0.0625
G1 F6.0 Z-0.01
G1 F12.0 X1.2547
G1 Y0.7453
G1 X0.7453
G1 Y0.8322
G0 Z0.125
G0 X0.7391 Y0.8972
G0 Z0.0625
G1 F6.0 Z-0.01
G1 F12.0 Y1.2609
G1 X0.7863
G0 Z0.125
G0 X0.85
G0 Z0.0625
G1 F6.0 Z-0.01
G1 F12.0 X0.8637
G0 Z0.125
G0 X0.9819
G0 Z0.0625
G1 F6.0 Z-0.01
G1 F12.0 X1.175
G0 Z0.125
G0 X1.2395
G0 Z0.0625
G1 F6.0 Z-0.01
G1 F12.0 X1.2609
G1 Y0.7391
G1 X0.7391
G1 Y0.8322
G0 Z0.125
G0 X0.7328 Y0.8954
G0 Z0.0625
G1 F6.0 Z-0.01
G1 F12.0 Y1.2672
G1 X0.7863
G0 Z0.125
G0 X0.85
G0 Z0.0625
G1 F6.0 Z-0.01
G1 F12.0 X0.8591
G0 Z0.125
G0 X0.9772
G0 Z0.0625
G1 F6.0 Z-0.01
G1 F12.0 X1.175
G0 Z0.125
G0 X1.2395
G0 Z0.0625
G1 F6.0 Z-0.01
G1 F12.0 X1.2672
G1 Y0.7328
G1 X0.7328
G1 Y0.8322
G0 Z0.125
G0 X0.7266 Y0.894
G0 Z0.0625
G1 F6.0 Z-0.01
G1 F12.0 Y1.2734
G1 X0.7863
G0 Z0.125
G0 X0.85
G0 Z0.0625
G1 F6.0 Z-0.01
G1 F12.0 X0.8545
G0 Z0.125
G0 X0.9726
G0 Z0.0625
G1 F6.0 Z-0.01
G1 F12.0 X1.175
G0 Z0.125
G0 X1.2395
G0 Z0.0625
G1 F6.0 Z-0.01
G1 F12.0 X1.2734
G1 Y0.7266
G1 X0.7266
G1 Y0.8322
G0 Z0.125
G0 X0.7203 Y0.8929
G0 Z0.0625
G1 F6.0 Z-0.01
G1 F12.0 Y1.2797
G1 X0.7863
G0 Z0.125
G0 X0.968
G0 Z0.0625
G1 F6.0 Z-0.01
G1 F12.0 X1.175
G0 Z0.125
G0 X1.2395
G0 Z0.0625
G1 F6.0 Z-0.01
G1 F12.0 X1.2797
G1 Y0.7203
G1 X0.7203
G1 Y0.8322
G0 Z0.125
G0 X0.7141 Y0.8921
G0 Z0.0625
G1 F6.0 Z-0.01
G1 F12.0 Y1.2859
G1 X0.7863
G0 Z0.125
G0 X0.9633
G0 Z0.0625
G1 F6.0 Z-0.01
G1 F12.0 X1.175
G0 Z0.125
G0 X1.2395
G0 Z0.0625
G1 F6.0 Z-0.01
G1 F12.0 X1.2859
G1 Y0.7141
G1 X0.7141
G1 Y0.8322
G0 Z0.125
G0 X0.7078 Y0.8916
G0 Z0.0625
G1 F6.0 Z-0.01
G1 F12.0 Y1.2922
G1 X0.7863
G0 Z0.125
G0 X0.9587
G0 Z0.0625
G1 F6.0 Z-0.01
G1 F12.0 X1.175
G0 Z0.125
G0 X1.2395
G0 Z0.0625
G1 F6.0 Z-0.01
G1 F12.0 X1.2922
G1 Y0.7078
G1 X0.7276
G1 F6.0 X0.7182
G1 F12.0 X0.7078
G1 Y0.8322
G0 Z0.125
G0 X0.7016 Y0.8903
G0 Z0.0625
G1 F6.0 Z-0.01
G1 F12.0 Y1.2984
G1 X0.7863
G0 Z0.125
G0 X0.9541
G0 Z0.0625
G1 F6.0 Z-0.01
G1 F12.0 X1.1749
G0 Z0.125
G0 X1.2394
G0 Z0.0625
G1 F6.0 Z-0.01
G1 F12.0 X1.2984
G1 Y0.7016
G1 X0.7307
G0 Z0.125
G0 X0.7074
G0 Z0.0625
G1 F6.0 Z-0.01
G1 F12.0 X0.7016
G1 Y0.8335
G0 Z0.125
G0 X0.6967 Y0.6953
G0 Z0.0625
G1 F6.0 Z-0.01
G1 F12.0 X0.6953
G1 Y1.3047
G1 X0.7863
G0 Z0.125
G0 X0.9494
G0 Z0.0625
G1 F6.0 Z-0.01
G1 F12.0 X1.1745
G0 Z0.125
G0 X1.2396
G0 Z0.0625
G1 F6.0 Z-0.01
G1 F12.0 X1.3047
G1 Y0.6953
G1 X0.7307
G0 Z0.125
G0 X0.6891 Y0.6909
G0 Z0.0625
G1 F6.0 Z-0.01
G1 F12.0 Y1.3109
G1 X0.7863
G0 Z0.125
G0 X0.9448
G0 Z0.0625
G1 F6.0 Z-0.01
G1 F12.0 X1.1738
G0 Z0.125
G0 X1.2403
G0 Z0.0625
G1 F6.0 Z-0.01
G1 F12.0 X1.3109
G1 Y0.6891
G1 X0.7307
G0 Z0.125
G0 X0.6828 Y0.6873
G0 Z0.0625
G1 F6.0 Z-0.01
G1 F12.0 Y1.3172
G1 X0.7863
G0 Z0.125
G0 X0.9402
G0 Z0.0625
G1 F6.0 Z-0.01
G1 F12.0 X1.1728
G0 Z0.125
G0 X1.2414
G0 Z0.0625
G1 F6.0 Z-0.01
G1 F12.0 X1.3172
G1 Y0.6828
G1 X0.7307
G0 Z0.125
G0 X0.6766 Y0.6836
G0 Z0.0625
G1 F6.0 Z-0.01
G1 F12.0 Y1.3234
G1 X0.7863
G0 Z0.125
G0 X0.9355
G0 Z0.0625
G1 F6.0 Z-0.01
G1 F12.0 X1.1715
G0 Z0.125
G0 X1.2429
G0 Z0.0625
G1 F6.0 Z-0.01
G1 F12.0 X1.3234
G1 Y0.6766
G1 X0.7307
G0 Z0.125
G0 X0.6703 Y0.6782
G0 Z0.0625
G1 F6.0 Z-0.01
G1 F12.0 Y1.3297
G1 X0.7863
G0 Z0.125
G0 X0.9309
G0 Z0.0625
G1 F6.0 Z-0.01
G1 F12.0 X1.1698
G0 Z0.125
G0 X1.2449
G0 Z0.0625
G1 F6.0 Z-0.01
G1 F12.0 X1.3297
G1 Y0.6703
G1 X0.7307
G0 Z0.125
G0 X0.6697 Y0.6641
G0 Z0.0625
G1 F6.0 Z-0.01
G1 F12.0 X0.6641
G1 Y1.3359
G1 X0.7863
G0 Z0.125
G0 X0.9263
G0 Z0.0625
G1 F6.0 Z-0.01
G1 F12.0 X1.1674
G0 Z0.125
G0 X1.2474
G0 Z0.0625
G1 F6.0 Z-0.01
G1 F12.0 X1.3359
G1 Y0.6641
G1 X0.7307
G0 Z0.125
G0 X0.6697 Y0.6578
G0 Z0.0625
G1 F6.0 Z-0.01
G1 F12.0 X0.6578
G1 Y1.3422
G1 X0.7863
G0 Z0.125
G0 X0.9216
G0 Z0.0625
G1 F6.0 Z-0.01
G1 F12.0 X1.1641
G0 Z0.125
G0 X1.2505
G0 Z0.0625
G1 F6.0 Z-0.01
G1 F12.0 X1.3422
G1 Y0.6578
G1 X0.7307
G0 Z0.125
G0 X0.6697 Y0.6516
G0 Z0.0625
G1 F6.0 Z-0.01
G1 F12.0 X0.6516
G1 Y1.3484
G1 X0.784
G0 Z0.125
G0 X0.917
G0 Z0.0625
G1 F6.0 Z-0.01
G1 F12.0 X1.1599
G0 Z0.125
G0 X1.2543
G0 Z0.0625
G1 F6.0 Z-0.01
G1 F12.0 X1.3484
G1 Y0.6516
G1 X1.1911
G0 Z0.125
G0 X1.1625
G0 Z0.0625
G1 F6.0 Z-0.01
G1 F12.0 X1.0085
G0 Z0.125
G0 X0.9742
G0 Z0.0625
G1 F6.0 Z-0.01
G1 F12.0 X0.8767
G0 Z0.125
G0 X0.8535
G0 Z0.0625
G1 F6.0 Z-0.01
G1 F12.0 X0.7307
G0 Z0.125
G0 X0.7768 Y0.6453
G0 Z0.0625
G1 F6.0 Z-0.01
G1 F12.0 X0.7605
G0 Z0.125
G0 X0.8394
G0 Z0.0625
G1 F6.0 Z-0.01
G1 F12.0 X0.832
G0 Z0.125
G0 X0.9518
G0 Z0.0625
G1 F6.0 Z-0.01
G1 F12.0 X0.8944
G0 Z0.125
G0 X0.6501
G0 Z0.0625
G1 F6.0 Z-0.01
G1 F12.0 X0.6453
G1 Y1.3547
G1 X0.7765
G0 Z0.125
G0 X0.9124
G0 Z0.0625
G1 F6.0 Z-0.01
G1 F12.0 X1.154
G0 Z0.125
G0 X1.2588
G0 Z0.0625
G1 F6.0 Z-0.01
G1 F12.0 X1.3547
G1 Y0.6487
G1 F6.0 X1.3462 Y0.6453
G1 F12.0 X1.2787
G0 Z0.125
G0 X1.2231
G0 Z0.0625
G1 F6.0 Z-0.01
G1 F12.0 X1.2092
G0 Z0.125
G0 X1.1434
G0 Z0.0625
G1 F6.0 Z-0.01
G1 F12.0 X1.0311
G0 Z0.125
G0 X0.9391 Y0.6391
G0 Z0.0625
G1 F6.0 Z-0.01
G1 F12.0 X0.9016
G0 Z0.125
G0 X0.7755
G0 Z0.0625
G1 F6.0 Z-0.01
G1 F12.0 X0.7617
G0 Z0.125
G0 X0.6489
G0 Z0.0625
G1 F6.0 Z-0.01
G1 F12.0 X0.6391
G1 Y1.3609
G1 X0.7686
G0 Z0.125
G0 X0.9077
G0 Z0.0625
G1 F6.0 Z-0.01
G1 F12.0 X1.1447
G0 Z0.125
G0 X1.2653
G0 Z0.0625
G1 F6.0 Z-0.01
G1 F12.0 X1.3609
G1 Y0.6505
G0 Z0.125
G0 X1.3351 Y0.6391
G0 Z0.0625
G1 F6.0 Z-0.01
G1 F12.0 X1.2799
G0 Z0.125
G0 X1.2219
G0 Z0.0625
G1 F6.0 Z-0.01
G1 F12.0 X1.219
G0 Z0.125
G0 X1.1328
G0 Z0.0625
G1 F6.0 Z-0.01
G1 F12.0 X1.0433
G0 Z0.125
G0 X1.1251 Y0.6328
G0 Z0.0625
G1 F6.0 Z-0.01
G1 F12.0 X1.0522
G0 Z0.125
G0 X0.9301
G0 Z0.0625
G1 F6.0 Z-0.01
G1 F12.0 X0.9012
G0 Z0.125
G0 X0.7755
G0 Z0.0625
G1 F6.0 Z-0.01
G1 F12.0 X0.7617
G0 Z0.125
G0 X0.6489
G0 Z0.0625
G1 F6.0 Z-0.01
G1 F12.0 X0.6368
G0 Z0.125
G0 X0.6328 Y0.6479
G0 Z0.0625
G1 F6.0 Z-0.01
G1 F12.0 Y0.6575
G0 Z0.125
G0 Y0.713
G0 Z0.0625
G1 F6.0 Z-0.01
G1 F12.0 Y1.3672
G1 X0.7576
G0 Z0.125
G0 X0.9031
G0 Z0.0625
G1 F6.0 Z-0.01
G1 F12.0 X1.1252
G0 Z0.125
G0 X1.2803
G0 Z0.0625
G1 F6.0 Z-0.01
G1 F12.0 X1.3672
G1 Y0.6518
G0 Z0.125
G0 X1.3269 Y0.6328
G0 Z0.0625
G1 F6.0 Z-0.01
G1 F12.0 X1.2799
G0 Z0.125
G0 X1.3206 Y0.6266
G0 Z0.0625
G1 F6.0 Z-0.01
G1 F12.0 X1.2799
G0 Z0.125
G0 X1.1191
G0 Z0.0625
G1 F6.0 Z-0.01
G1 F12.0 X1.0592
G0 Z0.125
G0 X0.923
G0 Z0.0625
G1 F6.0 Z-0.01
G1 F12.0 X0.899
G0 Z0.125
G0 X0.7755
G0 Z0.0625
G1 F6.0 Z-0.01
G1 F12.0 X0.7617
G0 Z0.125
G0 X0.6489
G0 Z0.0625
G1 F6.0 Z-0.01
G1 F12.0 X0.6368
G0 Z0.125
G0 X0.6266 Y0.6489
G0 Z0.0625
G1 F6.0 Z-0.01
G1 F12.0 Y0.6565
G0 Z0.125
G0 Y0.714
G0 Z0.0625
G1 F6.0 Z-0.01
G1 F12.0 Y1.3734
G1 X0.6992
G0 Z0.125
G0 X0.8985
G0 Z0.0625
G1 F6.0 Z-0.01
G1 F12.0 X1.0933
G0 Z0.125
G0 X1.3211
G0 Z0.0625
G1 F6.0 Z-0.01
G1 F12.0 X1.3734
G1 Y0.6525
G0 Z0.125
G0 X1.3153 Y0.6203
G0 Z0.0625
G1 F6.0 Z-0.01
G1 F12.0 X1.2799
G0 Z0.125
G0 X1.1143
G0 Z0.0625
G1 F6.0 Z-0.01
G1 F12.0 X1.0651
G0 Z0.125
G0 X0.9173
G0 Z0.0625
G1 F6.0 Z-0.01
G1 F12.0 X0.8968
G0 Z0.125
G0 X0.7755
G0 Z0.0625
G1 F6.0 Z-0.01
G1 F12.0 X0.7617
G0 Z0.125
G0 X0.6489
G0 Z0.0625
G1 F6.0 Z-0.01
G1 F12.0 X0.6368
G0 Z0.125
G0 X0.6203 Y0.6489
G0 Z0.0625
G1 F6.0 Z-0.01
G1 F12.0 Y0.6565
G0 Z0.125
G0 Y0.714
G0 Z0.0625
G1 F6.0 Z-0.01
G1 F12.0 Y1.3797
G1 X0.698
G0 Z0.125
G0 X0.8938
G0 Z0.0625
G1 F6.0 Z-0.01
G1 F12.0 X1.0922
G0 Z0.125
G0 X1.3223
G0 Z0.0625
G1 F6.0 Z-0.01
G1 F12.0 X1.3797
G1 Y0.6528
G0 Z0.125
G0 X1.3109 Y0.6141
G0 Z0.0625
G1 F6.0 Z-0.01
G1 F12.0 X1.2799
G0 Z0.125
G0 X1.1103
G0 Z0.0625
G1 F6.0 Z-0.01
G1 F12.0 X1.07
G0 Z0.125
G0 X0.9127
G0 Z0.0625
G1 F6.0 Z-0.01
G1 F12.0 X0.8946
G0 Z0.125
G0 X0.7755
G0 Z0.0625
G1 F6.0 Z-0.01
G1 F12.0 X0.7617
G0 Z0.125
G0 X0.6489
G0 Z0.0625
G1 F6.0 Z-0.01
G1 F12.0 X0.6368
G0 Z0.125
G0 X0.6141 Y0.6489
G0 Z0.0625
G1 F6.0 Z-0.01
G1 F12.0 Y0.6565
G0 Z0.125
G0 Y0.714
G0 Z0.0625
G1 F6.0 Z-0.01
G1 F12.0 Y1.3859
G1 X0.698
G0 Z0.125
G0 X0.8892
G0 Z0.0625
G1 F6.0 Z-0.01
G1 F12.0 X1.0922
G0 Z0.125
G0 X1.3223
G0 Z0.0625
G1 F6.0 Z-0.01
G1 F12.0 X1.3859
G1 Y0.6528
G0 Z0.125
G0 X1.3073 Y0.6078
G0 Z0.0625
G1 F6.0 Z-0.01
G1 F12.0 X1.2799
G0 Z0.125
G0 X1.107
G0 Z0.0625
G1 F6.0 Z-0.01
G1 F12.0 X1.0741
G0 Z0.125
G0 X0.9088
G0 Z0.0625
G1 F6.0 Z-0.01
G1 F12.0 X0.8923
G0 Z0.125
G0 X0.7755
G0 Z0.0625
G1 F6.0 Z-0.01
G1 F12.0 X0.7617
G0 Z0.125
G0 X0.6489
G0 Z0.0625
G1 F6.0 Z-0.01
G1 F12.0 X0.6368
G0 Z0.125
G0 X0.6078 Y0.6489
G0 Z0.0625
G1 F6.0 Z-0.01
G1 F12.0 Y0.6565
G0 Z0.125
G0 Y0.714
G0 Z0.0625
G1 F6.0 Z-0.01
G1 F12.0 Y1.3922
G1 X0.698
G0 Z0.125
G0 X0.8846
G0 Z0.0625
G1 F6.0 Z-0.01
G1 F12.0 X1.0922
G0 Z0.125
G0 X1.3223
G0 Z0.0625
G1 F6.0 Z-0.01
G1 F12.0 X1.3922
G1 Y0.6524
G0 Z0.125
G0 X1.3044 Y0.6016
G0 Z0.0625
G1 F6.0 Z-0.01
G1 F12.0 X1.2799
G0 Z0.125
G0 X1.1044
G0 Z0.0625
G1 F6.0 Z-0.01
G1 F12.0 X1.0776
G0 Z0.125
G0 X0.9055
G0 Z0.0625
G1 F6.0 Z-0.01
G1 F12.0 X0.8901
G0 Z0.125
G0 X0.7755
G0 Z0.0625
G1 F6.0 Z-0.01
G1 F12.0 X0.7609
G0 Z0.125
G0 X0.6497
G0 Z0.0625
G1 F6.0 Z-0.01
G1 F12.0 X0.6368
G0 Z0.125
G0 X0.6016 Y0.6489
G0 Z0.0625
G1 F6.0 Z-0.01
G1 F12.0 Y0.6565
G0 Z0.125
G0 Y0.714
G0 Z0.0625
G1 F6.0 Z-0.01
G1 F12.0 Y1.3984
G1 X0.698
G0 Z0.125
G0 X0.8799
G0 Z0.0625
G1 F6.0 Z-0.01
G1 F12.0 X1.0922
G0 Z0.125
G0 X1.3223
G0 Z0.0625
G1 F6.0 Z-0.01
G1 F12.0 X1.3984
G1 Y0.6516
G0 Z0.125
G0 X1.302 Y0.5953
G0 Z0.0625
G1 F6.0 Z-0.01
G1 F12.0 X1.2799
G0 Z0.125
G0 X1.1024
G0 Z0.0625
G1 F6.0 Z-0.01
G1 F12.0 X1.0804
G0 Z0.125
G0 X0.9028
G0 Z0.0625
G1 F6.0 Z-0.01
G1 F12.0 X0.8879
G0 Z0.125
G0 X0.8662
G0 Z0.0625
G1 F6.0 Z-0.01
G1 F12.0 X0.8517
G0 Z0.125
G0 X0.7755
G0 Z0.0625
G1 F6.0 Z-0.01
G1 F12.0 X0.7307
G0 Z0.125
G0 X0.6697
G0 Z0.0625
G1 F6.0 Z-0.01
G1 F12.0 X0.6368
G0 Z0.125
G0 X0.5953 Y0.6489
G0 Z0.0625
G1 F6.0 Z-0.01
G1 F12.0 Y0.6565
G0 Z0.125
G0 Y0.714
G0 Z0.0625
G1 F6.0 Z-0.01
G1 F12.0 Y1.4047
G1 X0.698
G0 Z0.125
G0 X0.8753
G0 Z0.0625
G1 F6.0 Z-0.01
G1 F12.0 X1.0922
G0 Z0.125
G0 X1.3223
G0 Z0.0625
G1 F6.0 Z-0.01
G1 F12.0 X1.4047
G1 Y0.6504
G0 Z0.125
G0 X1.3001 Y0.5891
G0 Z0.0625
G1 F6.0 Z-0.01
G1 F12.0 X1.2799
G0 Z0.125
G0 X1.1008
G0 Z0.0625
G1 F6.0 Z-0.01
G1 F12.0 X1.0827
G0 Z0.125
G0 X0.9005
G0 Z0.0625
G1 F6.0 Z-0.01
G1 F12.0 X0.8443
G0 Z0.125
G0 X0.7755
G0 Z0.0625
G1 F6.0 Z-0.01
G1 F12.0 X0.7307
G0 Z0.125
G0 X0.6697
G0 Z0.0625
G1 F6.0 Z-0.01
G1 F12.0 X0.6368
G0 Z0.125
G0 X0.5891 Y0.6489
G0 Z0.0625
G1 F6.0 Z-0.01
G1 F12.0 Y0.6565
G0 Z0.125
G0 Y0.714
G0 Z0.0625
G1 F6.0 Z-0.01
G1 F12.0 Y1.4109
G1 X0.698
G0 Z0.125
G0 X0.8707
G0 Z0.0625
G1 F6.0 Z-0.01
G1 F12.0 X1.0922
G0 Z0.125
G0 X1.3223
G0 Z0.0625
G1 F6.0 Z-0.01
G1 F12.0 X1.4109
G1 Y0.6488
G0 Z0.125
G0 X1.2987 Y0.5828
G0 Z0.0625
G1 F6.0 Z-0.01
G1 F12.0 X1.2799
G0 Z0.125
G0 X1.0995
G0 Z0.0625
G1 F6.0 Z-0.01
G1 F12.0 X1.0845
G0 Z0.125
G0 X0.8986
G0 Z0.0625
G1 F6.0 Z-0.01
G1 F12.0 X0.8414
G0 Z0.125
G0 X0.7755
G0 Z0.0625
G1 F6.0 Z-0.01
G1 F12.0 X0.7307
G0 Z0.125
G0 X0.6697
G0 Z0.0625
G1 F6.0 Z-0.01
G1 F12.0 X0.6368
G0 Z0.125
G0 X0.5828 Y0.6489
G0 Z0.0625
G1 F6.0 Z-0.01
G1 F12.0 Y0.6566
G0 Z0.125
G0 Y0.714
G0 Z0.0625
G1 F6.0 Z-0.01
G1 F12.0 Y1.4172
G1 X0.698
G0 Z0.125
G0 X0.866
G0 Z0.0625
G1 F6.0 Z-0.01
G1 F12.0 X1.0922
G0 Z0.125
G0 X1.3223
G0 Z0.0625
G1 F6.0 Z-0.01
G1 F12.0 X1.4172
G1 Y0.6467
G0 Z0.125
G0 X1.2975 Y0.5766
G0 Z0.0625
G1 F6.0 Z-0.01
G1 F12.0 X1.2799
G0 Z0.125
G0 X1.0985
G0 Z0.0625
G1 F6.0 Z-0.01
G1 F12.0 X1.0858
G0 Z0.125
G0 X0.8972
G0 Z0.0625
G1 F6.0 Z-0.01
G1 F12.0 X0.8395
G0 Z0.125
G0 X0.7755
G0 Z0.0625
G1 F6.0 Z-0.01
G1 F12.0 X0.7307
G0 Z0.125
G0 X0.6697
G0 Z0.0625
G1 F6.0 Z-0.01
G1 F12.0 X0.6368
G0 Z0.125
G0 X0.5766 Y0.6443
G0 Z0.0625
G1 F6.0 Z-0.01
G1 F12.0 Y0.6612
G0 Z0.125
G0 Y0.7094
G0 Z0.0625
G1 F6.0 Z-0.01
G1 F12.0 Y1.4234
G1 X0.6982
G0 Z0.125
G0 X0.8614
G0 Z0.0625
G1 F6.0 Z-0.01
G1 F12.0 X1.0923
G0 Z0.125
G0 X1.3221
G0 Z0.0625
G1 F6.0 Z-0.01
G1 F12.0 X1.4234
G1 Y0.644
G0 Z0.125
G0 X1.2966 Y0.5703
G0 Z0.0625
G1 F6.0 Z-0.01
G1 F12.0 X1.2799
G0 Z0.125
G0 X1.0978
G0 Z0.0625
G1 F6.0 Z-0.01
G1 F12.0 X1.0868
G0 Z0.125
G0 X0.8962
G0 Z0.0625
G1 F6.0 Z-0.01
G1 F12.0 X0.8384
G0 Z0.125
G0 X0.7755
G0 Z0.0625
G1 F6.0 Z-0.01
G1 F12.0 X0.7307
G0 Z0.125
G0 X0.6697
G0 Z0.0625
G1 F6.0 Z-0.01
G1 F12.0 X0.6368
G0 Z0.125
G0 X0.5759
G0 Z0.0625
G1 F6.0 Z-0.01
G1 F12.0 X0.5703
G1 Y1.4297
G1 X0.7043
G0 Z0.125
G0 X0.8543
G0 Z0.0625
G1 F6.0 Z-0.01
G1 F12.0 X1.0984
G0 Z0.125
G0 X1.316
G0 Z0.0625
G1 F6.0 Z-0.01
G1 F12.0 X1.4297
G1 Y0.6406
G0 Z0.125
G0 X1.2961 Y0.5641
G0 Z0.0625
G1 F6.0 Z-0.01
G1 F12.0 X1.2799
G0 Z0.125
G0 X1.0974
G0 Z0.0625
G1 F6.0 Z-0.01
G1 F12.0 X1.0874
G0 Z0.125
G0 X0.8956
G0 Z0.0625
G1 F6.0 Z-0.01
G1 F12.0 X0.8378
G0 Z0.125
G0 X0.7755
G0 Z0.0625
G1 F6.0 Z-0.01
G1 F12.0 X0.7307
G0 Z0.125
G0 X0.6697
G0 Z0.0625
G1 F6.0 Z-0.01
G1 F12.0 X0.6368
G0 Z0.125
G0 X0.5759
G0 Z0.0625
G1 F6.0 Z-0.01
G1 F12.0 X0.5641
G1 Y1.4359
G1 X1.4359
G1 Y0.6363
G0 Z0.125
G0 X1.2958 Y0.5578
G0 Z0.0625
G1 F6.0 Z-0.01
G1 F12.0 X1.2799
G0 Z0.125
G0 X1.0973
G0 Z0.0625
G1 F6.0 Z-0.01
G1 F12.0 X1.0877
G0 Z0.125
G0 X0.8954
G0 Z0.0625
G1 F6.0 Z-0.01
G1 F12.0 X0.8374
G0 Z0.125
G0 X0.7755
G0 Z0.0625
G1 F6.0 Z-0.01
G1 F12.0 X0.7307
G0 Z0.125
G0 X0.6697
G0 Z0.0625
G1 F6.0 Z-0.01
G1 F12.0 X0.6368
G0 Z0.125
G0 X0.5759
G0 Z0.0625
G1 F6.0 Z-0.01
G1 F12.0 X0.5578
G1 Y1.4422
G1 X1.4422
G1 Y0.6311
G0 Z0.125
G0 X1.2958 Y0.5516
G0 Z0.0625
G1 F6.0 Z-0.01
G1 F12.0 X1.2799
G0 Z0.125
G0 X1.0974
G0 Z0.0625
G1 F6.0 Z-0.01
G1 F12.0 X1.0876
G0 Z0.125
G0 X0.8955
G0 Z0.0625
G1 F6.0 Z-0.01
G1 F12.0 X0.837
G0 Z0.125
G0 X0.7755
G0 Z0.0625
G1 F6.0 Z-0.01
G1 F12.0 X0.7307
G0 Z0.125
G0 X0.6697
G0 Z0.0625
G1 F6.0 Z-0.01
G1 F12.0 X0.6368
G0 Z0.125
G0 X0.5759
G0 Z0.0625
G1 F6.0 Z-0.01
G1 F12.0 X0.5516
G1 Y1.4484
G1 X1.4484
G1 Y0.6246
G0 Z0.125
G0 X1.2961 Y0.5453
G0 Z0.0625
G1 F6.0 Z-0.01
G1 F12.0 X1.2799
G0 Z0.125
G0 X1.0977
G0 Z0.0625
G1 F6.0 Z-0.01
G1 F12.0 X1.0872
G0 Z0.125
G0 X0.8959
G0 Z0.0625
G1 F6.0 Z-0.01
G1 F12.0 X0.8368
G0 Z0.125
G0 X0.7755
G0 Z0.0625
G1 F6.0 Z-0.01
G1 F12.0 X0.7307
G0 Z0.125
G0 X0.6697
G0 Z0.0625
G1 F6.0 Z-0.01
G1 F12.0 X0.6368
G0 Z0.125
G0 X0.5759
G0 Z0.0625
G1 F6.0 Z-0.01
G1 F12.0 X0.5453
G1 Y1.4547
G1 X1.4547
G1 Y0.6164
G0 Z0.125
G0 X1.2966 Y0.5391
G0 Z0.0625
G1 F6.0 Z-0.01
G1 F12.0 X1.2799
G0 Z0.125
G0 X1.0984
G0 Z0.0625
G1 F6.0 Z-0.01
G1 F12.0 X1.0865
G0 Z0.125
G0 X0.8966
G0 Z0.0625
G1 F6.0 Z-0.01
G1 F12.0 X0.8366
G0 Z0.125
G0 X0.7755
G0 Z0.0625
G1 F6.0 Z-0.01
G1 F12.0 X0.7307
G0 Z0.125
G0 X0.6697
G0 Z0.0625
G1 F6.0 Z-0.01
G1 F12.0 X0.6368
G0 Z0.125
G0 X0.5759
G0 Z0.0625
G1 F6.0 Z-0.01
G1 F12.0 X0.5414
G0 Z0.125
G0 X0.5391 Y0.7118
G0 Z0.0625
G1 F6.0 Z-0.01
G1 F12.0 Y1.4609
G1 X1.4609
G1 Y0.6048
G0 Z0.125
G0 X1.4672 Y0.5356
G0 Z0.0625
G1 F6.0 Z-0.01
G1 F12.0 Y0.5328
G1 X1.3589
G0 Z0.125
G0 X1.2975
G0 Z0.0625
G1 F6.0 Z-0.01
G1 F12.0 X1.2799
G0 Z0.125
G0 X1.0994
G0 Z0.0625
G1 F6.0 Z-0.01
G1 F12.0 X1.0853
G0 Z0.125
G0 X0.8976
G0 Z0.0625
G1 F6.0 Z-0.01
G1 F12.0 X0.8365
G0 Z0.125
G0 X0.7755
G0 Z0.0625
G1 F6.0 Z-0.01
G1 F12.0 X0.7307
G0 Z0.125
G0 X0.6697
G0 Z0.0625
G1 F6.0 Z-0.01
G1 F12.0 X0.6368
G0 Z0.125
G0 X0.5759
G0 Z0.0625
G1 F6.0 Z-0.01
G1 F12.0 X0.5414
G0 Z0.125
G0 X0.5328 Y0.714
G0 Z0.0625
G1 F6.0 Z-0.01
G1 F12.0 Y1.4672
G1 X1.4672
G1 Y0.5863
G0 Z0.125
G0 X1.4084 Y0.5266
G0 Z0.0625
G1 F6.0 Z-0.01
G1 F12.0 X1.3606
G0 Z0.125
G0 X1.2987
G0 Z0.0625
G1 F6.0 Z-0.01
G1 F12.0 X1.2799
G0 Z0.125
G0 X1.1006
G0 Z0.0625
G1 F6.0 Z-0.01
G1 F12.0 X1.0838
G0 Z0.125
G0 X0.8989
G0 Z0.0625
G1 F6.0 Z-0.01
G1 F12.0 X0.8364
G0 Z0.125
G0 X0.7755
G0 Z0.0625
G1 F6.0 Z-0.01
G1 F12.0 X0.7308
G0 Z0.125
G0 X0.6697
G0 Z0.0625
G1 F6.0 Z-0.01
G1 F12.0 X0.6368
G0 Z0.125
G0 X0.5759
G0 Z0.0625
G1 F6.0 Z-0.01
G1 F12.0 X0.5414
G0 Z0.125
G0 X0.5266 Y0.714
G0 Z0.0625
G1 F6.0 Z-0.01
G1 F12.0 Y1.4734
G1 X1.4734
G1 Y0.5266
G1 X1.4506
G0 Z0.125
G0 X1.4062 Y0.5203
G0 Z0.0625
G1 F6.0 Z-0.01
G1 F12.0 X1.3637
G0 Z0.125
G0 X1.3002
G0 Z0.0625
G1 F6.0 Z-0.01
G1 F12.0 X1.2799
G0 Z0.125
G0 X1.1023
G0 Z0.0625
G1 F6.0 Z-0.01
G1 F12.0 X1.0818
G0 Z0.125
G0 X0.9007
G0 Z0.0625
G1 F6.0 Z-0.01
G1 F12.0 X0.8364
G0 Z0.125
G0 X0.7755
G0 Z0.0625
G1 F6.0 Z-0.01
G1 F12.0 X0.7309
G0 Z0.125
G0 X0.6698
G0 Z0.0625
G1 F6.0 Z-0.01
G1 F12.0 X0.6368
G0 Z0.125
G0 X0.5759
G0 Z0.0625
G1 F6.0 Z-0.01
G1 F12.0 X0.5414
G0 Z0.125
G0 X0.5203 Y0.714
G0 Z0.0625
G1 F6.0 Z-0.01
G1 F12.0 Y1.4797
G1 X1.4797
G1 Y0.5203
G1 X1.4681
G0 Z0.125
G0 X1.4024 Y0.5141
G0 Z0.0625
G1 F6.0 Z-0.01
G1 F12.0 X1.3692
G0 Z0.125
G0 X1.3021
G0 Z0.0625
G1 F6.0 Z-0.01
G1 F12.0 X1.2799
G0 Z0.125
G0 X1.1044
G0 Z0.0625
G1 F6.0 Z-0.01
G1 F12.0 X1.0793
G0 Z0.125
G0 X0.9029
G0 Z0.0625
G1 F6.0 Z-0.01
G1 F12.0 X0.8364
G0 Z0.125
G0 X0.7755
G0 Z0.0625
G1 F6.0 Z-0.01
G1 F12.0 X0.7587
G0 Z0.125
G0 X0.7473
G0 Z0.0625
G1 F6.0 Z-0.01
G1 F12.0 X0.7313
G0 Z0.125
G0 X0.6699
G0 Z0.0625
G1 F6.0 Z-0.01
G1 F12.0 X0.6368
G0 Z0.125
G0 X0.5759
G0 Z0.0625
G1 F6.0 Z-0.01
G1 F12.0 X0.5414
G0 Z0.125
G0 X0.5141 Y0.714
G0 Z0.0625
G1 F6.0 Z-0.01
G1 F12.0 Y1.4859
G1 X1.4859
G1 Y0.5141
G1 X1.4684
G0 Z0.125
G0 X1.3893 Y0.5078
G0 Z0.0625
G1 F6.0 Z-0.01
G1 F12.0 X1.3849
G0 Z0.125
G0 X1.3046
G0 Z0.0625
G1 F6.0 Z-0.01
G1 F12.0 X1.2799
G0 Z0.125
G0 X1.1071
G0 Z0.0625
G1 F6.0 Z-0.01
G1 F12.0 X1.0763
G0 Z0.125
G0 X0.9056
G0 Z0.0625
G1 F6.0 Z-0.01
G1 F12.0 X0.8364
G0 Z0.125
G0 X0.7755
G0 Z0.0625
G1 F6.0 Z-0.01
G1 F12.0 X0.7616
G0 Z0.125
G0 X0.6701
G0 Z0.0625
G1 F6.0 Z-0.01
G1 F12.0 X0.6368
G0 Z0.125
G0 X0.5759
G0 Z0.0625
G1 F6.0 Z-0.01
G1 F12.0 X0.5414
G0 Z0.125
G0 X0.5078 Y0.714
G0 Z0.0625
G1 F6.0 Z-0.01
G1 F12.0 Y1.4922
G1 X1.4922
G1 Y0.5078
G1 X1.466
G0 Z0.125
G0 X1.4923 Y0.5016
G0 Z0.0625
G1 F6.0 Z-0.01
G1 F12.0 X1.463
G0 Z0.125
G0 X1.3075
G0 Z0.0625
G1 F6.0 Z-0.01
G1 F12.0 X1.2799
G0 Z0.125
G0 X1.1103
G0 Z0.0625
G1 F6.0 Z-0.01
G1 F12.0 X1.0726
G0 Z0.125
G0 X0.9089
G0 Z0.0625
G1 F6.0 Z-0.01
G1 F12.0 X0.8364
G0 Z0.125
G0 X0.7755
G0 Z0.0625
G1 F6.0 Z-0.01
G1 F12.0 X0.7623
G0 Z0.125
G0 X0.6707
G0 Z0.0625
G1 F6.0 Z-0.01
G1 F12.0 X0.6368
G0 Z0.125
G0 X0.5759
G0 Z0.0625
G1 F6.0 Z-0.01
G1 F12.0 X0.5414
G0 Z0.125
G0 X0.5016 Y0.714
G0 Z0.0625
G1 F6.0 Z-0.01
G1 F12.0 Y1.4984
G1 X1.4984
G1 Y0.6488
G0 Z0.125
G0 X1.4923 Y0.4953
G0 Z0.0625
G1 F6.0 Z-0.01
G1 F12.0 X1.4594
G0 Z0.125
G0 X1.3112
G0 Z0.0625
G1 F6.0 Z-0.01
G1 F12.0 X1.2799
G0 Z0.125
G0 X1.1141
G0 Z0.0625
G1 F6.0 Z-0.01
G1 F12.0 X1.0683
G0 Z0.125
G0 X0.913
G0 Z0.0625
G1 F6.0 Z-0.01
G1 F12.0 X0.8364
G0 Z0.125
G0 X0.7755
G0 Z0.0625
G1 F6.0 Z-0.01
G1 F12.0 X0.763
G0 Z0.125
G0 X0.6715
G0 Z0.0625
G1 F6.0 Z-0.01
G1 F12.0 X0.6368
G0 Z0.125
G0 X0.5759
G0 Z0.0625
G1 F6.0 Z-0.01
G1 F12.0 X0.5414
G0 Z0.125
G0 X0.4953 Y0.714
G0 Z0.0625
G1 F6.0 Z-0.01
G1 F12.0 Y1.5047
G1 X1.5047
G1 Y0.6489
G0 Z0.125
G0 X1.4923 Y0.4891
G0 Z0.0625
G1 F6.0 Z-0.01
G1 F12.0 X1.4552
G0 Z0.125
G0 X1.3155
G0 Z0.0625
G1 F6.0 Z-0.01
G1 F12.0 X1.2799
G0 Z0.125
G0 X1.1187
G0 Z0.0625
G1 F6.0 Z-0.01
G1 F12.0 X1.0631
G0 Z0.125
G0 X0.918
G0 Z0.0625
G1 F6.0 Z-0.01
G1 F12.0 X0.8364
G0 Z0.125
G0 X0.7755
G0 Z0.0625
G1 F6.0 Z-0.01
G1 F12.0 X0.7637
G0 Z0.125
G0 X0.673
G0 Z0.0625
G1 F6.0 Z-0.01
G1 F12.0 X0.6368
G0 Z0.125
G0 X0.5759
G0 Z0.0625
G1 F6.0 Z-0.01
G1 F12.0 X0.5414
G0 Z0.125
G0 X0.4891 Y0.714
G0 Z0.0625
G1 F6.0 Z-0.01
G1 F12.0 Y1.5109
G1 X1.5109
G1 Y0.6489
G0 Z0.125
G0 X1.4923 Y0.4828
G0 Z0.0625
G1 F6.0 Z-0.01
G1 F12.0 X1.4499
G0 Z0.125
G0 X1.3209
G0 Z0.0625
G1 F6.0 Z-0.01
G1 F12.0 X1.2799
G0 Z0.125
G0 X1.1243
G0 Z0.0625
G1 F6.0 Z-0.01
G1 F12.0 X1.0569
G0 Z0.125
G0 X0.9241
G0 Z0.0625
G1 F6.0 Z-0.01
G1 F12.0 X0.8364
G0 Z0.125
G0 X0.7755
G0 Z0.0625
G1 F6.0 Z-0.01
G1 F12.0 X0.7643
G0 Z0.125
G0 X0.6753
G0 Z0.0625
G1 F6.0 Z-0.01
G1 F12.0 X0.6368
G0 Z0.125
G0 X0.5759
G0 Z0.0625
G1 F6.0 Z-0.01
G1 F12.0 X0.5414
G0 Z0.125
G0 X0.4828 Y0.7106
G0 Z0.0625
G1 F6.0 Z-0.01
G1 F12.0 Y1.5172
G1 X1.5172
G1 Y0.6489
G0 Z0.125
G0 X1.4923 Y0.4766
G0 Z0.0625
G1 F6.0 Z-0.01
G1 F12.0 X1.4432
G0 Z0.125
G0 X1.3277
G0 Z0.0625
G1 F6.0 Z-0.01
G1 F12.0 X1.2797
G0 Z0.125
G0 X1.219
G0 Z0.0625
G1 F6.0 Z-0.01
G1 F12.0 X1.2173
G0 Z0.125
G0 X1.1315
G0 Z0.0625
G1 F6.0 Z-0.01
G1 F12.0 X1.0494
G0 Z0.125
G0 X0.9318
G0 Z0.0625
G1 F6.0 Z-0.01
G1 F12.0 X0.8364
G0 Z0.125
G0 X0.7755
G0 Z0.0625
G1 F6.0 Z-0.01
G1 F12.0 X0.765
G0 Z0.125
G0 X0.6787
G0 Z0.0625
G1 F6.0 Z-0.01
G1 F12.0 X0.6368
G0 Z0.125
G0 X0.5759
G0 Z0.0625
G1 F6.0 Z-0.01
G1 F12.0 X0.5414
G0 Z0.125
G0 X0.4766 Y0.5842
G0 Z0.0625
G1 F6.0 Z-0.01
G1 F12.0 Y1.5234
G1 X1.5234
G1 Y0.6489
G0 Z0.125
G0 X1.4923 Y0.4703
G0 Z0.0625
G1 F6.0 Z-0.01
G1 F12.0 X1.4344
G0 Z0.125
G0 X1.3367
G0 Z0.0625
G1 F6.0 Z-0.01
G1 F12.0 X1.2794
G0 Z0.125
G0 X1.219
G0 Z0.0625
G1 F6.0 Z-0.01
G1 F12.0 X1.208
G0 Z0.125
G0 X1.1411
G0 Z0.0625
G1 F6.0 Z-0.01
G1 F12.0 X1.0398
G0 Z0.125
G0 X0.9422
G0 Z0.0625
G1 F6.0 Z-0.01
G1 F12.0 X0.8364
G0 Z0.125
G0 X0.7755
G0 Z0.0625
G1 F6.0 Z-0.01
G1 F12.0 X0.7649
G0 Z0.125
G0 X0.6845
G0 Z0.0625
G1 F6.0 Z-0.01
G1 F12.0 X0.6368
G0 Z0.125
G0 X0.5759
G0 Z0.0625
G1 F6.0 Z-0.01
G1 F12.0 X0.5414
G0 Z0.125
G0 X0.4764
G0 Z0.0625
G1 F6.0 Z-0.01
G1 F12.0 X0.4703
G1 Y0.4801
G0 Z0.125
G0 Y0.5944
G0 Z0.0625
G1 F6.0 Z-0.01
G1 F12.0 Y1.5297
G1 X1.5297
G1 Y0.6489
G0 Z0.125
G0 X1.495 Y0.4641
G0 Z0.0625
G1 F6.0 Z-0.01
G1 F12.0 X1.4215
G0 Z0.125
G0 X1.3504
G0 Z0.0625
G1 F6.0 Z-0.01
G1 F12.0 X1.279
G0 Z0.125
G0 X1.2188
G0 Z0.0625
G1 F6.0 Z-0.01
G1 F12.0 X1.1919
G0 Z0.125
G0 X1.1581
G0 Z0.0625
G1 F6.0 Z-0.01
G1 F12.0 X1.1319
G0 Z0.125
G0 X1.1054
G0 Z0.0625
G1 F6.0 Z-0.01
G1 F12.0 X1.0262
G0 Z0.125
G0 X0.9569
G0 Z0.0625
G1 F6.0 Z-0.01
G1 F12.0 X0.8337
G0 Z0.125
G0 X0.7783
G0 Z0.0625
G1 F6.0 Z-0.01
G1 F12.0 X0.7564
G0 Z0.125
G0 X0.6941
G0 Z0.0625
G1 F6.0 Z-0.01
G1 F12.0 X0.6341
G0 Z0.125
G0 X0.5786
G0 Z0.0625
G1 F6.0 Z-0.01
G1 F12.0 X0.5387
G0 Z0.125
G0 X0.4807
G0 Z0.0625
G1 F6.0 Z-0.01
G1 F12.0 X0.4641
G1 Y0.4902
G0 Z0.125
G0 Y0.6046
G0 Z0.0625
G1 F6.0 Z-0.01
G1 F12.0 Y1.5359
G1 X1.5359
G1 Y0.6489
G0 Z0.125
G0 X1.5422 Y0.4622
G0 Z0.0625
G1 F6.0 Z-0.01
G1 F12.0 Y0.4578
G1 X1.2783
G0 Z0.125
G0 X1.2181
G0 Z0.0625
G1 F6.0 Z-0.01
G1 F12.0 X1.1685
G0 Z0.125
G0 X1.1032
G0 Z0.0625
G1 F6.0 Z-0.01
G1 F12.0 X0.4578
G1 Y0.5003
G0 Z0.125
G0 Y0.6148
G0 Z0.0625
G1 F6.0 Z-0.01
G1 F12.0 Y1.5422
G1 X1.5422
G1 Y0.6489
G0 Z0.125
G0 X1.5484 Y0.4628
G0 Z0.0625
G1 F6.0 Z-0.01
G1 F12.0 Y0.4516
G1 X1.2774
G0 Z0.125
G0 X1.2159
G0 Z0.0625
G1 F6.0 Z-0.01
G1 F12.0 X1.1709
G0 Z0.125
G0 X1.1031
G0 Z0.0625
G1 F6.0 Z-0.01
G1 F12.0 X0.4516
G1 Y0.5104
G0 Z0.125
G0 Y0.625
G0 Z0.0625
G1 F6.0 Z-0.01
G1 F12.0 Y1.5484
G1 X1.5484
G1 Y0.6457
G0 Z0.125
G0 X1.5547 Y0.5772
G0 Z0.0625
G1 F6.0 Z-0.01
G1 F12.0 Y0.4453
G1 X1.276
G0 Z0.125
G0 X1.2074
G0 Z0.0625
G1 F6.0 Z-0.01
G1 F12.0 X1.1752
G0 Z0.125
G0 X1.1036
G0 Z0.0625
G1 F6.0 Z-0.01
G1 F12.0 X0.4453
G1 Y0.5205
G0 Z0.125
G0 Y0.6352
G0 Z0.0625
G1 F6.0 Z-0.01
G1 F12.0 Y1.5547
G1 X1.5547
G1 Y0.639
G0 Z0.125
G0 X1.5609 Y0.5929
G0 Z0.0625
G1 F6.0 Z-0.01
G1 F12.0 Y0.4391
G1 X1.2743
G0 Z0.125
G0 X1.1048
G0 Z0.0625
G1 F6.0 Z-0.01
G1 F12.0 X0.4391
G1 Y0.5307
G0 Z0.125
G0 Y0.6454
G0 Z0.0625
G1 F6.0 Z-0.01
G1 F12.0 Y1.5609
G1 X1.5609
G1 Y0.6431
G0 Z0.125
G0 X1.5672 Y0.5982
G0 Z0.0625
G1 F6.0 Z-0.01
G1 F12.0 Y0.4328
G1 X1.2719
G0 Z0.125
G0 X1.1068
G0 Z0.0625
G1 F6.0 Z-0.01
G1 F12.0 X0.4328
G1 Y0.5408
G0 Z0.125
G0 Y0.6556
G0 Z0.0625
G1 F6.0 Z-0.01
G1 F12.0 Y1.5672
G1 X1.5672
G1 Y0.6463
G0 Z0.125
G0 X1.5734 Y0.6011
G0 Z0.0625
G1 F6.0 Z-0.01
G1 F12.0 Y0.4266
G1 X1.2688
G0 Z0.125
G0 X1.1097
G0 Z0.0625
G1 F6.0 Z-0.01
G1 F12.0 X0.4266
G1 Y0.5509
G0 Z0.125
G0 Y0.6658
G0 Z0.0625
G1 F6.0 Z-0.01
G1 F12.0 Y1.5734
G1 X1.5734
G1 Y0.6487
G0 Z0.125
G0 X1.5797 Y0.6024
G0 Z0.0625
G1 F6.0 Z-0.01
G1 F12.0 Y0.4203
G1 X1.2647
G0 Z0.125
G0 X1.1137
G0 Z0.0625
G1 F6.0 Z-0.01
G1 F12.0 X0.4203
G1 Y0.561
G0 Z0.125
G0 Y0.676
G0 Z0.0625
G1 F6.0 Z-0.01
G1 F12.0 Y1.5797
G1 X1.5797
G1 Y0.6506
G0 Z0.125
G0 X1.5859 Y0.6024
G0 Z0.0625
G1 F6.0 Z-0.01
G1 F12.0 Y0.4141
G1 X1.2594
G0 Z0.125
G0 X1.1191
G0 Z0.0625
G1 F6.0 Z-0.01
G1 F12.0 X0.4141
G1 Y0.5711
G0 Z0.125
G0 Y0.6862
G0 Z0.0625
G1 F6.0 Z-0.01
G1 F12.0 Y1.5859
G1 X1.5859
G1 Y0.6519
G0 Z0.125
G0 X1.5922 Y0.6004
G0 Z0.0625
G1 F6.0 Z-0.01
G1 F12.0 Y0.4078
G1 X1.2518
G0 Z0.125
G0 X1.1264
G0 Z0.0625
G1 F6.0 Z-0.01
G1 F12.0 X0.4078
G1 Y0.5812
G0 Z0.125
G0 Y0.6964
G0 Z0.0625
G1 F6.0 Z-0.01
G1 F12.0 Y1.5922
G1 X1.5922
G1 Y0.6526
G0 Z0.125
G0 X1.5984 Y0.5948
G0 Z0.0625
G1 F6.0 Z-0.01
G1 F12.0 Y0.4016
G1 X1.2409
G0 Z0.125
G0 X1.1372
G0 Z0.0625
G1 F6.0 Z-0.01
G1 F12.0 X0.4016
G1 Y0.5913
G0 Z0.125
G0 Y0.7066
G0 Z0.0625
G1 F6.0 Z-0.01
G1 F12.0 Y1.5984
G1 X1.5984
G1 Y1.4833
G1 F6.0 Y1.4768
G1 F12.0 Y0.6528
G0 Z0.125
G0 X1.6047 Y0.4651
G0 Z0.0625
G1 F6.0 Z-0.01
G1 F12.0 Y0.3953
G1 X1.221
G0 Z0.125
G0 X1.1585
G0 Z0.0625
G1 F6.0 Z-0.01
G1 F12.0 X0.3953
G1 Y0.4638
G0 Z0.125
G0 Y0.7136
G0 Z0.0625
G1 F6.0 Z-0.01
G1 F12.0 Y1.6047
G1 X1.6047
G1 Y1.5016
G0 Z0.125
G0 Y1.4722
G0 Z0.0625
G1 F6.0 Z-0.01
G1 F12.0 Y0.6526
G0 Z0.125
G0 X1.6109 Y0.4622
G0 Z0.0625
G1 F6.0 Z-0.01
G1 F12.0 Y0.3891
G1 X0.3891
G1 Y0.4622
G0 Z0.125
G0 Y0.714
G0 Z0.0625
G1 F6.0 Z-0.01
G1 F12.0 Y1.6109
G1 X1.6109
G1 Y1.5189
G0 Z0.125
G0 Y1.4722
G0 Z0.0625
G1 F6.0 Z-0.01
G1 F12.0 Y0.6519
G0 Z0.125
G0 X1.6172 Y0.4622
G0 Z0.0625
G1 F6.0 Z-0.01
G1 F12.0 Y0.3828
G1 X0.3828
G1 Y0.4622
G0 Z0.125
G0 Y0.714
G0 Z0.0625
G1 F6.0 Z-0.01
G1 F12.0 Y1.6172
G1 X1.6172
G1 Y1.5352
G0 Z0.125
G0 Y1.4722
G0 Z0.0625
G1 F6.0 Z-0.01
G1 F12.0 Y0.6507
G0 Z0.125
G0 X1.6234 Y0.4622
G0 Z0.0625
G1 F6.0 Z-0.01
G1 F12.0 Y0.3766
G1 X1.2877
G0 Z0.125
G0 X1.2685
G0 Z0.0625
G1 F6.0 Z-0.01
G1 F12.0 X1.1354
G0 Z0.125
G0 X1.1161
G0 Z0.0625
G1 F6.0 Z-0.01
G1 F12.0 X0.3766
G1 Y0.4622
G0 Z0.125
G0 Y0.714
G0 Z0.0625
G1 F6.0 Z-0.01
G1 F12.0 Y1.6234
G1 X1.6234
G1 Y1.5506
G0 Z0.125
G0 Y1.4722
G0 Z0.0625
G1 F6.0 Z-0.01
G1 F12.0 Y0.6488
G0 Z0.125
G0 X1.6297 Y0.4622
G0 Z0.0625
G1 F6.0 Z-0.01
G1 F12.0 Y0.3703
G1 X1.3099
G0 Z0.125
G0 X1.2476
G0 Z0.0625
G1 F6.0 Z-0.01
G1 F12.0 X1.1575
G0 Z0.125
G0 X1.0953
G0 Z0.0625
G1 F6.0 Z-0.01
G1 F12.0 X0.9318
G0 Z0.125
G0 X0.9031
G0 Z0.0625
G1 F6.0 Z-0.01
G1 F12.0 X0.7598
G0 Z0.125
G0 X0.7324
G0 Z0.0625
G1 F6.0 Z-0.01
G1 F12.0 X0.3703
G1 Y0.4622
G0 Z0.125
G0 Y0.714
G0 Z0.0625
G1 F6.0 Z-0.01
G1 F12.0 Y1.6297
G1 X1.6297
G1 Y1.5655
G0 Z0.125
G0 Y1.4722
G0 Z0.0625
G1 F6.0 Z-0.01
G1 F12.0 Y0.6464
G0 Z0.125
G0 X1.6359 Y0.4622
G0 Z0.0625
G1 F6.0 Z-0.01
G1 F12.0 Y0.3641
G1 X1.3199
G0 Z0.125
G0 X1.2376
G0 Z0.0625
G1 F6.0 Z-0.01
G1 F12.0 X1.1675
G0 Z0.125
G0 X1.0853
G0 Z0.0625
G1 F6.0 Z-0.01
G1 F12.0 X0.9327
G0 Z0.125
G0 X0.8978
G0 Z0.0625
G1 F6.0 Z-0.01
G1 F12.0 X0.7606
G0 Z0.125
G0 X0.7268
G0 Z0.0625
G1 F6.0 Z-0.01
G1 F12.0 X0.3641
G1 Y0.4622
G0 Z0.125
G0 Y0.714
G0 Z0.0625
G1 F6.0 Z-0.01
G1 F12.0 Y1.6359
G1 X1.6359
G1 Y1.58
G0 Z0.125
G0 Y1.4722
G0 Z0.0625
G1 F6.0 Z-0.01
G1 F12.0 Y0.6433
G0 Z0.125
G0 X1.6422 Y0.4622
G0 Z0.0625
G1 F6.0 Z-0.01
G1 F12.0 Y0.3578
G1 X1.3267
G0 Z0.125
G0 X1.2304
G0 Z0.0625
G1 F6.0 Z-0.01
G1 F12.0 X1.1744
G0 Z0.125
G0 X1.078
G0 Z0.0625
G1 F6.0 Z-0.01
G1 F12.0 X0.9327
G0 Z0.125
G0 X0.8925
G0 Z0.0625
G1 F6.0 Z-0.01
G1 F12.0 X0.7606
G0 Z0.125
G0 X0.7204
G0 Z0.0625
G1 F6.0 Z-0.01
G1 F12.0 X0.3578
G1 Y0.4622
G0 Z0.125
G0 Y0.714
G0 Z0.0625
G1 F6.0 Z-0.01
G1 F12.0 Y1.6422
G1 X1.6422
G1 Y1.594
G0 Z0.125
G0 Y1.4722
G0 Z0.0625
G1 F6.0 Z-0.01
G1 F12.0 Y0.6391
G0 Z0.125
G0 X1.6484 Y0.4622
G0 Z0.0625
G1 F6.0 Z-0.01
G1 F12.0 Y0.3516
G1 X1.3319
G0 Z0.125
G0 X1.2247
G0 Z0.0625
G1 F6.0 Z-0.01
G1 F12.0 X1.1796
G0 Z0.125
G0 X1.0724
G0 Z0.0625
G1 F6.0 Z-0.01
G1 F12.0 X0.9327
G0 Z0.125
G0 X0.8871
G0 Z0.0625
G1 F6.0 Z-0.01
G1 F12.0 X0.7606
G0 Z0.125
G0 X0.7132
G0 Z0.0625
G1 F6.0 Z-0.01
G1 F12.0 X0.3516
G1 Y0.4622
G0 Z0.125
G0 Y0.714
G0 Z0.0625
G1 F6.0 Z-0.01
G1 F12.0 Y1.6484
G1 X1.6484
G1 Y1.6077
G0 Z0.125
G0 Y1.4722
G0 Z0.0625
G1 F6.0 Z-0.01
G1 F12.0 Y0.6333
G0 Z0.125
G0 X1.6547 Y0.4622
G0 Z0.0625
G1 F6.0 Z-0.01
G1 F12.0 Y0.3453
G1 X1.336
G0 Z0.125
G0 X1.2202
G0 Z0.0625
G1 F6.0 Z-0.01
G1 F12.0 X1.1836
G0 Z0.125
G0 X1.0679
G0 Z0.0625
G1 F6.0 Z-0.01
G1 F12.0 X0.9327
G0 Z0.125
G0 X0.8818
G0 Z0.0625
G1 F6.0 Z-0.01
G1 F12.0 X0.7606
G0 Z0.125
G0 X0.7047
G0 Z0.0625
G1 F6.0 Z-0.01
G1 F12.0 X0.3453
G1 Y0.4622
G0 Z0.125
G0 Y0.714
G0 Z0.0625
G1 F6.0 Z-0.01
G1 F12.0 Y1.6547
G1 X1.6547
G1 Y1.6211
G0 Z0.125
G0 Y1.4722
G0 Z0.0625
G1 F6.0 Z-0.01
G1 F12.0 Y0.6248
G0 Z0.125
G0 X1.6609 Y0.4639
G0 Z0.0625
G1 F6.0 Z-0.01
G1 F12.0 Y0.3391
G1 X1.3392
G0 Z0.125
G0 X1.2164
G0 Z0.0625
G1 F6.0 Z-0.01
G1 F12.0 X1.1869
G0 Z0.125
G0 X1.0641
G0 Z0.0625
G1 F6.0 Z-0.01
G1 F12.0 X0.9327
G0 Z0.125
G0 X0.8764
G0 Z0.0625
G1 F6.0 Z-0.01
G1 F12.0 X0.7606
G0 Z0.125
G0 X0.6951
G0 Z0.0625
G1 F6.0 Z-0.01
G1 F12.0 X0.3391
G1 Y0.4668
G0 Z0.125
G0 Y0.7094
G0 Z0.0625
G1 F6.0 Z-0.01
G1 F12.0 Y1.6609
G1 X1.6609
G1 Y1.6342
G0 Z0.125
G0 Y1.4722
G0 Z0.0625
G1 F6.0 Z-0.01
G1 F12.0 Y0.6092
G0 Z0.125
G0 X1.2131 Y0.3328
G0 Z0.0625
G1 F6.0 Z-0.01
G1 F12.0 X1.1894
G0 Z0.125
G0 X1.0608
G0 Z0.0625
G1 F6.0 Z-0.01
G1 F12.0 X0.9327
G0 Z0.125
G0 X0.8711
G0 Z0.0625
G1 F6.0 Z-0.01
G1 F12.0 X0.7606
G0 Z0.125
G0 X0.684
G0 Z0.0625
G1 F6.0 Z-0.01
G1 F12.0 X0.3328
G1 Y1.6672
G1 X1.6672
G1 Y1.6469
G0 Z0.125
G0 Y1.4729
G0 Z0.0625
G1 F6.0 Z-0.01
G1 F12.0 Y0.3328
G1 X1.3418
G0 Z0.125
G0 X1.2104 Y0.3266
G0 Z0.0625
G1 F6.0 Z-0.01
G1 F12.0 X1.1916
G0 Z0.125
G0 X1.058
G0 Z0.0625
G1 F6.0 Z-0.01
G1 F12.0 X0.9327
G0 Z0.125
G0 X0.8657
G0 Z0.0625
G1 F6.0 Z-0.01
G1 F12.0 X0.7606
G0 Z0.125
G0 X0.675
G0 Z0.0625
G1 F6.0 Z-0.01
G1 F12.0 X0.3266
G1 Y1.6734
G1 X1.6734
G1 Y1.6595
G0 Z0.125
G0 Y1.4838
G0 Z0.0625
G1 F6.0 Z-0.01
G1 F12.0 Y0.3266
G1 X1.344
G0 Z0.125
G0 X1.2081 Y0.3203
G0 Z0.0625
G1 F6.0 Z-0.01
G1 F12.0 X1.1934
G0 Z0.125
G0 X1.0557
G0 Z0.0625
G1 F6.0 Z-0.01
G1 F12.0 X0.9327
G0 Z0.125
G0 X0.8604
G0 Z0.0625
G1 F6.0 Z-0.01
G1 F12.0 X0.7606
G0 Z0.125
G0 X0.6742
G0 Z0.0625
G1 F6.0 Z-0.01
G1 F12.0 X0.3203
G1 Y1.6797
G1 X1.6797
G1 Y1.6719
G0 Z0.125
G0 Y1.5024
G0 Z0.0625
G1 F6.0 Z-0.01
G1 F12.0 Y0.3203
G1 X1.3458
G0 Z0.125
G0 X1.2062 Y0.3141
G0 Z0.0625
G1 F6.0 Z-0.01
G1 F12.0 X1.1948
G0 Z0.125
G0 X1.0539
G0 Z0.0625
G1 F6.0 Z-0.01
G1 F12.0 X0.9327
G0 Z0.125
G0 X0.855
G0 Z0.0625
G1 F6.0 Z-0.01
G1 F12.0 X0.7606
G0 Z0.125
G0 X0.6742
G0 Z0.0625
G1 F6.0 Z-0.01
G1 F12.0 X0.3141
G1 Y1.6859
G1 X1.6859
G1 Y1.6841
G0 Z0.125
G0 Y1.5195
G0 Z0.0625
G1 F6.0 Z-0.01
G1 F12.0 Y0.3141
G1 X1.3472
G0 Z0.125
G0 X1.2047 Y0.3078
G0 Z0.0625
G1 F6.0 Z-0.01
G1 F12.0 X1.1959
G0 Z0.125
G0 X1.0524
G0 Z0.0625
G1 F6.0 Z-0.01
G1 F12.0 X0.9327
G0 Z0.125
G0 X0.8497
G0 Z0.0625
G1 F6.0 Z-0.01
G1 F12.0 X0.7606
G0 Z0.125
G0 X0.6742
G0 Z0.0625
G1 F6.0 Z-0.01
G1 F12.0 X0.3078
G1 Y1.6922
G1 X1.6901
G0 Z0.125
G0 X1.6922 Y1.5356
G0 Z0.0625
G1 F6.0 Z-0.01
G1 F12.0 Y0.3078
G1 X1.3482
G0 Z0.125
G0 X1.2036 Y0.3016
G0 Z0.0625
G1 F6.0 Z-0.01
G1 F12.0 X1.1967
G0 Z0.125
G0 X1.0512
G0 Z0.0625
G1 F6.0 Z-0.01
G1 F12.0 X0.9327
G0 Z0.125
G0 X0.8443
G0 Z0.0625
G1 F6.0 Z-0.01
G1 F12.0 X0.7606
G0 Z0.125
G0 X0.6742
G0 Z0.0625
G1 F6.0 Z-0.01
G1 F12.0 X0.3016
G1 Y1.6984
G1 X1.6934
G0 Z0.125
G0 X1.6984 Y1.5511
G0 Z0.0625
G1 F6.0 Z-0.01
G1 F12.0 Y0.3016
G1 X1.3491
G0 Z0.125
G0 X1.2027 Y0.2953
G0 Z0.0625
G1 F6.0 Z-0.01
G1 F12.0 X1.1974
G0 Z0.125
G0 X1.0503
G0 Z0.0625
G1 F6.0 Z-0.01
G1 F12.0 X0.9327
G0 Z0.125
G0 X0.839
G0 Z0.0625
G1 F6.0 Z-0.01
G1 F12.0 X0.7606
G0 Z0.125
G0 X0.712
G0 Z0.0625
G1 F6.0 Z-0.01
G1 F12.0 X0.7038
G0 Z0.125
G0 X0.6742
G0 Z0.0625
G1 F6.0 Z-0.01
G1 F12.0 X0.2953
G1 Y1.7047
G1 X1.6967
G0 Z0.125
G0 X1.7047 Y1.5661
G0 Z0.0625
G1 F6.0 Z-0.01
G1 F12.0 Y0.2953
G1 X1.3497
G0 Z0.125
G0 X1.2021 Y0.2891
G0 Z0.0625
G1 F6.0 Z-0.01
G1 F12.0 X1.1979
G0 Z0.125
G0 X1.0498
G0 Z0.0625
G1 F6.0 Z-0.01
G1 F12.0 X0.9327
G0 Z0.125
G0 X0.8337
G0 Z0.0625
G1 F6.0 Z-0.01
G1 F12.0 X0.7606
G0 Z0.125
G0 X0.712
G0 Z0.0625
G1 F6.0 Z-0.01
G1 F12.0 X0.6934
G0 Z0.125
G0 X0.6745
G0 Z0.0625
G1 F6.0 Z-0.01
G1 F12.0 X0.2891
G1 Y1.7109
G1 X1.7
G0 Z0.125
G0 X1.7109 Y1.5806
G0 Z0.0625
G1 F6.0 Z-0.01
G1 F12.0 Y0.2891
G1 X1.3502
G0 Z0.125
G0 X1.2018 Y0.2828
G0 Z0.0625
G1 F6.0 Z-0.01
G1 F12.0 X1.1981
G0 Z0.125
G0 X1.0495
G0 Z0.0625
G1 F6.0 Z-0.01
G1 F12.0 X0.9327
G0 Z0.125
G0 X0.8283
G0 Z0.0625
G1 F6.0 Z-0.01
G1 F12.0 X0.7606
G0 Z0.125
G0 X0.712
G0 Z0.0625
G1 F6.0 Z-0.01
G1 F12.0 X0.2828
G1 Y1.7172
G1 X1.7033
G0 Z0.125
G0 X1.7172 Y1.5947
G0 Z0.0625
G1 F6.0 Z-0.01
G1 F12.0 Y0.2828
G1 X1.3505
G0 Z0.125
G0 X1.2018 Y0.2766
G0 Z0.0625
G1 F6.0 Z-0.01
G1 F12.0 X1.1982
G0 Z0.125
G0 X1.0494
G0 Z0.0625
G1 F6.0 Z-0.01
G1 F12.0 X0.9327
G0 Z0.125
G0 X0.823
G0 Z0.0625
G1 F6.0 Z-0.01
G1 F12.0 X0.7606
G0 Z0.125
G0 X0.712
G0 Z0.0625
G1 F6.0 Z-0.01
G1 F12.0 X0.2766
G1 Y1.7234
G1 X1.7067
G0 Z0.125
G0 X1.7234 Y1.6086
G0 Z0.0625
G1 F6.0 Z-0.01
G1 F12.0 Y0.2766
G1 X1.3506
G0 Z0.125
G0 X1.2019 Y0.2703
G0 Z0.0625
G1 F6.0 Z-0.01
G1 F12.0 X1.1982
G0 Z0.125
G0 X1.0495
G0 Z0.0625
G1 F6.0 Z-0.01
G1 F12.0 X0.9327
G0 Z0.125
G0 X0.8176
G0 Z0.0625
G1 F6.0 Z-0.01
G1 F12.0 X0.7606
G0 Z0.125
G0 X0.712
G0 Z0.0625
G1 F6.0 Z-0.01
G1 F12.0 X0.2703
G1 Y1.7297
G1 X1.5755
G0 Z0.125
G0 X1.7297 Y1.6222
G0 Z0.0625
G1 F6.0 Z-0.01
G1 F12.0 Y0.2703
G1 X1.3506
G0 Z0.125
G0 X1.2021 Y0.2641
G0 Z0.0625
G1 F6.0 Z-0.01
G1 F12.0 X1.198
G0 Z0.125
G0 X1.0498
G0 Z0.0625
G1 F6.0 Z-0.01
G1 F12.0 X0.9327
G0 Z0.125
G0 X0.8123
G0 Z0.0625
G1 F6.0 Z-0.01
G1 F12.0 X0.7606
G0 Z0.125
G0 X0.712
G0 Z0.0625
G1 F6.0 Z-0.01
G1 F12.0 X0.2641
G1 Y1.7359
G1 X1.575
G0 Z0.125
G0 X1.7359 Y1.6355
G0 Z0.0625
G1 F6.0 Z-0.01
G1 F12.0 Y0.2641
G1 X1.3504
G0 Z0.125
G0 X1.2025 Y0.2578
G0 Z0.0625
G1 F6.0 Z-0.01
G1 F12.0 X1.1976
G0 Z0.125
G0 X1.0502
G0 Z0.0625
G1 F6.0 Z-0.01
G1 F12.0 X0.9508
G0 Z0.125
G0 X0.8069
G0 Z0.0625
G1 F6.0 Z-0.01
G1 F12.0 X0.7606
G0 Z0.125
G0 X0.712
G0 Z0.0625
G1 F6.0 Z-0.01
G1 F12.0 X0.2578
G1 Y1.7422
G1 X1.575
G0 Z0.125
G0 X1.7422 Y1.6486
G0 Z0.0625
G1 F6.0 Z-0.01
G1 F12.0 Y0.2578
G1 X1.3499
G0 Z0.125
G0 X1.203 Y0.2516
G0 Z0.0625
G1 F6.0 Z-0.01
G1 F12.0 X1.197
G0 Z0.125
G0 X1.0507
G0 Z0.0625
G1 F6.0 Z-0.01
G1 F12.0 X0.9514
G0 Z0.125
G0 X0.8017
G0 Z0.0625
G1 F6.0 Z-0.01
G1 F12.0 X0.7606
G0 Z0.125
G0 X0.712
G0 Z0.0625
G1 F6.0 Z-0.01
G1 F12.0 X0.2516
G1 Y1.7484
G1 X1.575
G0 Z0.125
G0 X1.7484 Y1.6615
G0 Z0.0625
G1 F6.0 Z-0.01
G1 F12.0 Y0.2516
G1 X1.3493
G0 Z0.125
G0 X1.2037 Y0.2453
G0 Z0.0625
G1 F6.0 Z-0.01
G1 F12.0 X1.1961
G0 Z0.125
G0 X1.0514
G0 Z0.0625
G1 F6.0 Z-0.01
G1 F12.0 X0.9514
G0 Z0.125
G0 X0.8006
G0 Z0.0625
G1 F6.0 Z-0.01
G1 F12.0 X0.7606
G0 Z0.125
G0 X0.712
G0 Z0.0625
G1 F6.0 Z-0.01
G1 F12.0 X0.2453
G1 Y1.7547
G1 X1.575
G0 Z0.125
G0 X1.7547 Y1.6743
G0 Z0.0625
G1 F6.0 Z-0.01
G1 F12.0 Y0.2453
G1 X1.3484
G0 Z0.125
G0 X1.2046 Y0.2391
G0 Z0.0625
G1 F6.0 Z-0.01
G1 F12.0 X1.195
G0 Z0.125
G0 X1.0523
G0 Z0.0625
G1 F6.0 Z-0.01
G1 F12.0 X0.9514
G0 Z0.125
G0 X0.8006
G0 Z0.0625
G1 F6.0 Z-0.01
G1 F12.0 X0.7606
G0 Z0.125
G0 X0.712
G0 Z0.0625
G1 F6.0 Z-0.01
G1 F12.0 X0.2391
G1 Y1.7609
G1 X1.575
G0 Z0.125
G0 X1.7609 Y1.6868
G0 Z0.0625
G1 F6.0 Z-0.01
G1 F12.0 Y0.2391
G1 X1.3473
G0 Z0.125
G0 X1.2058 Y0.2328
G0 Z0.0625
G1 F6.0 Z-0.01
G1 F12.0 X1.1937
G0 Z0.125
G0 X1.0534
G0 Z0.0625
G1 F6.0 Z-0.01
G1 F12.0 X0.9514
G0 Z0.125
G0 X0.8006
G0 Z0.0625
G1 F6.0 Z-0.01
G1 F12.0 X0.7606
G0 Z0.125
G0 X0.712
G0 Z0.0625
G1 F6.0 Z-0.01
G1 F12.0 X0.2328
G1 Y1.7672
G1 X1.575
G0 Z0.125
G0 X1.7672 Y1.6991
G0 Z0.0625
G1 F6.0 Z-0.01
G1 F12.0 Y0.2328
G1 X1.346
G0 Z0.125
G0 X1.2072 Y0.2266
G0 Z0.0625
G1 F6.0 Z-0.01
G1 F12.0 X1.192
G0 Z0.125
G0 X1.0549
G0 Z0.0625
G1 F6.0 Z-0.01
G1 F12.0 X1.0042
G0 Z0.125
G0 X0.9903
G0 Z0.0625
G1 F6.0 Z-0.01
G1 F12.0 X0.9512
G0 Z0.125
G0 X0.8009
G0 Z0.0625
G1 F6.0 Z-0.01
G1 F12.0 X0.7606
G0 Z0.125
G0 X0.712
G0 Z0.0625
G1 F6.0 Z-0.01
G1 F12.0 X0.2266
G1 Y1.7734
G1 X1.575
G0 Z0.125
G0 X1.7734 Y1.7111
G0 Z0.0625
G1 F6.0 Z-0.01
G1 F12.0 Y0.2266
G1 X1.3443
G0 Z0.125
G0 X1.2089 Y0.2203
G0 Z0.0625
G1 F6.0 Z-0.01
G1 F12.0 X1.1898
G0 Z0.125
G0 X1.0566
G0 Z0.0625
G1 F6.0 Z-0.01
G1 F12.0 X1.0167
G0 Z0.125
G0 X0.9776
G0 Z0.0625
G1 F6.0 Z-0.01
G1 F12.0 X0.9327
G0 Z0.125
G0 X0.8853
G0 Z0.0625
G1 F6.0 Z-0.01
G1 F12.0 X0.7606
G0 Z0.125
G0 X0.712
G0 Z0.0625
G1 F6.0 Z-0.01
G1 F12.0 X0.2203
G1 Y1.7797
G1 X1.575
G0 Z0.125
G0 X1.7797 Y1.7229
G0 Z0.0625
G1 F6.0 Z-0.01
G1 F12.0 Y0.2203
G1 X1.3422
G0 Z0.125
G0 X1.211 Y0.2141
G0 Z0.0625
G1 F6.0 Z-0.01
G1 F12.0 X1.1873
G0 Z0.125
G0 X1.0587
G0 Z0.0625
G1 F6.0 Z-0.01
G1 F12.0 X1.0225
G0 Z0.125
G0 X0.9719
G0 Z0.0625
G1 F6.0 Z-0.01
G1 F12.0 X0.9327
G0 Z0.125
G0 X0.8853
G0 Z0.0625
G1 F6.0 Z-0.01
G1 F12.0 X0.7606
G0 Z0.125
G0 X0.712
G0 Z0.0625
G1 F6.0 Z-0.01
G1 F12.0 X0.2141
G1 Y1.7859
G1 X1.5763
G0 Z0.125
G0 X1.7859 Y1.7347
G0 Z0.0625
G1 F6.0 Z-0.01
G1 F12.0 Y0.2141
G1 X1.3396
G0 Z0.125
G0 X1.2136 Y0.2078
G0 Z0.0625
G1 F6.0 Z-0.01
G1 F12.0 X1.1842
G0 Z0.125
G0 X1.0613
G0 Z0.0625
G1 F6.0 Z-0.01
G1 F12.0 X1.0258
G0 Z0.125
G0 X0.9685
G0 Z0.0625
G1 F6.0 Z-0.01
G1 F12.0 X0.9327
G0 Z0.125
G0 X0.8853
G0 Z0.0625
G1 F6.0 Z-0.01
G1 F12.0 X0.7606
G0 Z0.125
G0 X0.712
G0 Z0.0625
G1 F6.0 Z-0.01
G1 F12.0 X0.2078
G1 Y1.7922
G1 X1.7922
G1 Y1.7892
G0 Z0.125
G0 Y1.7464
G0 Z0.0625
G1 F6.0 Z-0.01
G1 F12.0 Y0.2078
G1 X1.3366
G0 Z0.125
G0 X1.2169 Y0.2016
G0 Z0.0625
G1 F6.0 Z-0.01
G1 F12.0 X1.1807
G0 Z0.125
G0 X1.0645
G0 Z0.0625
G1 F6.0 Z-0.01
G1 F12.0 X1.0275
G0 Z0.125
G0 X0.9669
G0 Z0.0625
G1 F6.0 Z-0.01
G1 F12.0 X0.9327
G0 Z0.125
G0 X0.8853
G0 Z0.0625
G1 F6.0 Z-0.01
G1 F12.0 X0.7606
G0 Z0.125
G0 X0.712
G0 Z0.0625
G1 F6.0 Z-0.01
G1 F12.0 X0.2016
G1 Y1.7984
G1 X1.7984
G1 Y0.2016
G1 X1.333
G0 Z0.125
G0 X1.2208 Y0.1953
G0 Z0.0625
G1 F6.0 Z-0.01
G1 F12.0 X1.1765
G0 Z0.125
G0 X1.0685
G0 Z0.0625
G1 F6.0 Z-0.01
G1 F12.0 X1.0279
G0 Z0.125
G0 X0.9666
G0 Z0.0625
G1 F6.0 Z-0.01
G1 F12.0 X0.9327
G0 Z0.125
G0 X0.8853
G0 Z0.0625
G1 F6.0 Z-0.01
G1 F12.0 X0.7606
G0 Z0.125
G0 X0.712
G0 Z0.0625
G1 F6.0 Z-0.01
G1 F12.0 X0.1953
G1 Y1.8047
G1 X1.8047
G1 Y0.1953
G1 X1.3288
G0 Z0.125
G0 X1.226 Y0.1891
G0 Z0.0625
G1 F6.0 Z-0.01
G1 F12.0 X1.1711
G0 Z0.125
G0 X1.0737
G0 Z0.0625
G1 F6.0 Z-0.01
G1 F12.0 X1.027
G0 Z0.125
G0 X0.9674
G0 Z0.0625
G1 F6.0 Z-0.01
G1 F12.0 X0.9327
G0 Z0.125
G0 X0.8853
G0 Z0.0625
G1 F6.0 Z-0.01
G1 F12.0 X0.7606
G0 Z0.125
G0 X0.712
G0 Z0.0625
G1 F6.0 Z-0.01
G1 F12.0 X0.1891
G1 Y1.8109
G1 X1.8109
G1 Y0.1891
G1 X1.3235
G0 Z0.125
G0 X1.233 Y0.1828
G0 Z0.0625
G1 F6.0 Z-0.01
G1 F12.0 X1.1641
G0 Z0.125
G0 X1.0806
G0 Z0.0625
G1 F6.0 Z-0.01
G1 F12.0 X1.0247
G0 Z0.125
G0 X0.9697
G0 Z0.0625
G1 F6.0 Z-0.01
G1 F12.0 X0.9327
G0 Z0.125
G0 X0.8853
G0 Z0.0625
G1 F6.0 Z-0.01
G1 F12.0 X0.7606
G0 Z0.125
G0 X0.712
G0 Z0.0625
G1 F6.0 Z-0.01
G1 F12.0 X0.1828
G1 Y1.8172
G1 X1.8172
G1 Y0.1828
G1 X1.3165
G0 Z0.125
G0 X1.2431 Y0.1766
G0 Z0.0625
G1 F6.0 Z-0.01
G1 F12.0 X1.1544
G0 Z0.125
G0 X1.0907
G0 Z0.0625
G1 F6.0 Z-0.01
G1 F12.0 X1.0205
G0 Z0.125
G0 X0.9738
G0 Z0.0625
G1 F6.0 Z-0.01
G1 F12.0 X0.9319
G0 Z0.125
G0 X0.8861
G0 Z0.0625
G1 F6.0 Z-0.01
G1 F12.0 X0.7598
G0 Z0.125
G0 X0.7128
G0 Z0.0625
G1 F6.0 Z-0.01
G1 F12.0 X0.1766
G1 Y1.8234
G1 X1.8234
G1 Y0.1766
G1 X1.3067
G0 Z0.125
G0 X1.2646 Y0.1703
G0 Z0.0625
G1 F6.0 Z-0.01
G1 F12.0 X1.1343
G0 Z0.125
G0 X1.1122
G0 Z0.0625
G1 F6.0 Z-0.01
G1 F12.0 X1.0132
G0 Z0.125
G0 X0.9811
G0 Z0.0625
G1 F6.0 Z-0.01
G1 F12.0 X0.1703
G1 Y1.8297
G1 X1.8297
G1 Y0.1703
G1 X1.2866
G0 Z0.125
G0 X1.2763 Y0.2407
G0 Z0.0625
G1 F6.0 Z-0.01
G1 F12.0 Y0.2408
G2 X1.2747 Y0.2516 I0.1099 J0.022
G2 X1.2736 Y0.2762 I0.2401 J0.0233
G3 Y0.2765 I-0.0297 J0.0002
G2 X1.2746 Y0.2958 I0.167 J0.0009
G3 Y0.2961 I-0.0295 J0.0033
G2 X1.2767 Y0.3071 I0.0637 J-0.0065
G2 X1.2778 Y0.2998 I-0.091 J-0.0165
G2 X1.2788 Y0.2764 I-0.2312 J-0.022
G3 Y0.2761 I0.0297 J-0.0002
G2 X1.2782 Y0.2567 I-0.2978 J-0.0008
G3 Y0.2565 I0.0296 J-0.0019
G2 X1.2763 Y0.2407 I-0.1297 J0.0075
G1 F6.0 X1.2733 Y0.2401
G1 F12.0 X1.2732 Y0.2402
G2 X1.2716 Y0.2513 I0.1129 J0.0227
G2 X1.2704 Y0.2762 I0.2432 J0.0236
G3 Y0.2765 I-0.0266 J0.0001
G2 X1.2715 Y0.2962 I0.1702 J0.0009
G3 Y0.2964 I-0.0264 J0.0029
G2 X1.2751 Y0.3123 I0.0668 J-0.0068
G2 X1.2772 Y0.3161 I0.0133 J-0.0048
G3 X1.2775 I0.0001 J0.0266
G2 X1.2793 Y0.3106 I-0.0239 J-0.0106
G3 Y0.3103 I0.0261 J0.0051
G2 X1.2809 Y0.3001 I-0.0936 J-0.0196
G2 X1.2819 Y0.2764 I-0.2343 J-0.0223
G3 Y0.2762 I0.0266 J-0.0002
G2 X1.2813 Y0.2565 I-0.3009 J-0.0008
G3 Y0.2563 I0.0265 J-0.0017
G2 X1.2791 Y0.2386 I-0.1328 J0.0077
G3 Y0.2385 I0.0261 J-0.0051
G2 X1.2767 Y0.2308 I-0.0338 J0.0064
G2 X1.2761 Y0.2307 I-0.0007 J0.0028
G2 X1.276 Y0.231 I0.0036 J0.0017
G3 X1.2758 Y0.2314 I-0.0249 J-0.0094
G2 X1.2733 Y0.24 I0.0449 J0.0179
G1 Y0.2401
G1 F6.0 X1.2671 Y0.2389
G1 F12.0 Y0.239
G2 X1.2654 Y0.2507 I0.119 J0.0239
G2 X1.2642 Y0.2762 I0.2494 J0.0242
G3 Y0.2765 I-0.0203 J0.0001
G2 X1.2653 Y0.2968 I0.1764 J0.0009
G3 Y0.297 I-0.0202 J0.0022
G2 X1.2692 Y0.3144 I0.073 J-0.0075
G2 X1.273 Y0.3208 I0.0191 J-0.0069
G2 X1.2767 Y0.3223 I0.0036 J-0.0034
G3 X1.2784 I0.0006 J0.0203
G2 X1.2827 Y0.3198 I0.0002 J-0.0045
G3 X1.2828 Y0.3195 I0.0184 J0.0085
G2 X1.2854 Y0.3118 I-0.0292 J-0.014
G3 Y0.3115 I0.0199 J0.0039
G2 X1.2871 Y0.3007 I-0.0997 J-0.0209
G2 X1.2882 Y0.2764 I-0.2405 J-0.0229
G3 Y0.2762 I0.0203 J-0.0001
G2 X1.2876 Y0.2561 I-0.3072 J-0.0009
G3 Y0.256 I0.0203 J-0.0013
G2 X1.2852 Y0.2374 I-0.1391 J0.008
G1 Y0.2373
G2 X1.2824 Y0.2282 I-0.04 J0.0076
G2 X1.28 Y0.2254 I-0.0064 J0.0029
G2 X1.2757 Y0.2244 I-0.0041 J0.0082
G3 X1.2745 I-0.0006 J-0.0203
G2 X1.2728 Y0.2249 I-0.0001 J0.0033
G2 X1.2701 Y0.2288 I0.007 J0.0075
G3 X1.27 Y0.2291 I-0.019 J-0.0072
G2 X1.2671 Y0.2389 I0.0508 J0.0202
G1 F6.0 X1.261 Y0.2377
G2 F12.0 X1.2591 Y0.2501 I0.1252 J0.0251
G2 X1.2579 Y0.2763 I0.2556 J0.0248
G3 Y0.2764 I-0.0141 J0.0001
G2 X1.2591 Y0.2975 I0.1827 J0.001
G3 Y0.2977 I-0.014 J0.0016
G2 X1.2633 Y0.3165 I0.0792 J-0.0081
G2 X1.2683 Y0.325 I0.025 J-0.009
G2 X1.2769 Y0.3286 I0.0082 J-0.0076
G3 X1.278 I0.0004 J0.0141
G2 X1.2884 Y0.3224 I0.0006 J-0.0107
G3 X1.2885 Y0.3222 I0.0128 J0.0059
G2 X1.2915 Y0.313 I-0.0348 J-0.0167
G3 X1.2916 Y0.3128 I0.0138 J0.0027
G2 X1.2933 Y0.3013 I-0.1058 J-0.0222
G2 X1.2944 Y0.2763 I-0.2467 J-0.0235
G3 Y0.2762 I0.0141 J-0.0001
G2 X1.2938 Y0.2557 I-0.3134 J-0.0009
G1 Y0.2556
G2 X1.2914 Y0.2362 I-0.1453 J0.0084
G1 Y0.2361
G2 X1.2881 Y0.2256 I-0.0461 J0.0087
G2 X1.2833 Y0.22 I-0.0121 J0.0055
G2 X1.2755 Y0.2182 I-0.0073 J0.0135
G3 X1.2747 I-0.0004 J-0.0141
G2 X1.2689 Y0.2199 I-0.0003 J0.0096
G2 X1.2643 Y0.2266 I0.0108 J0.0125
G3 X1.2642 Y0.2268 I-0.0132 J-0.005
G2 X1.261 Y0.2377 I0.0566 J0.0225
G1 F6.0 X1.2549 Y0.2365
G2 F12.0 X1.2529 Y0.2495 I0.1313 J0.0264
G2 X1.2517 Y0.2763 I0.2618 J0.0254
G1 Y0.2764
G2 X1.2528 Y0.2982 I0.1889 J0.001
G1 Y0.2983
G2 X1.2575 Y0.3186 I0.0855 J-0.0087
G2 X1.2637 Y0.3292 I0.0309 J-0.0111
G2 X1.277 Y0.3348 I0.0128 J-0.0118
G3 X1.2777 I0.0002 J0.0078
G2 X1.294 Y0.325 I0.0009 J-0.0169
G3 X1.2941 Y0.3249 I0.0071 J0.0033
G2 X1.2976 Y0.3142 I-0.0405 J-0.0194
G1 X1.2977 Y0.3141
G2 X1.2995 Y0.3019 I-0.1119 J-0.0234
G2 X1.3007 Y0.2763 I-0.2529 J-0.0241
G1 Y0.2762
G2 X1.3001 Y0.2553 I-0.3197 J-0.0009
G2 X1.2975 Y0.235 I-0.1516 J0.0088
G2 X1.2938 Y0.2231 I-0.0523 J0.0099
G2 X1.2865 Y0.2147 I-0.0178 J0.008
G2 X1.2753 Y0.2119 I-0.0105 J0.0189
G3 X1.2749 I-0.0002 J-0.0078
G2 X1.2651 Y0.215 I-0.0004 J0.0158
G2 X1.2584 Y0.2244 I0.0147 J0.0174
G3 Y0.2245 I-0.0073 J-0.0028
G2 X1.2549 Y0.2365 I0.0624 J0.0248
G0 Z0.125
G0 X1.1254 Y0.2503
G0 Z0.0625
G1 F6.0 Z-0.01
G2 F12.0 X1.124 Y0.2407 I-0.1292 J0.0137
G1 Y0.2408
G2 X1.1223 Y0.2516 I0.1099 J0.022
G2 X1.1212 Y0.2762 I0.2401 J0.0233
G3 Y0.2765 I-0.0297 J0.0002
G2 X1.1222 Y0.2958 I0.167 J0.0009
G3 X1.1223 Y0.2961 I-0.0295 J0.0033
G2 X1.1244 Y0.3071 I0.0637 J-0.0065
G2 X1.1254 Y0.2998 I-0.091 J-0.0165
G2 X1.1265 Y0.2764 I-0.2312 J-0.022
G3 Y0.2761 I0.0297 J-0.0002
G2 X1.1259 Y0.2567 I-0.2978 J-0.0008
G3 Y0.2565 I0.0296 J-0.0019
G2 X1.1254 Y0.2503 I-0.1297 J0.0075
G1 F6.0 X1.1285 Y0.2499
G2 F12.0 X1.1268 Y0.2386 I-0.1323 J0.0141
G3 X1.1267 Y0.2385 I0.0261 J-0.0051
G2 X1.1243 Y0.2308 I-0.0338 J0.0064
G2 X1.1238 Y0.2307 I-0.0007 J0.0028
G2 X1.1236 Y0.231 I0.0036 J0.0017
G3 X1.1235 Y0.2314 I-0.0249 J-0.0094
G2 X1.1209 Y0.24 I0.0449 J0.0179
G3 Y0.2402 I-0.0261 J-0.0051
G2 X1.1192 Y0.2513 I0.1129 J0.0227
G2 X1.1181 Y0.2762 I0.2432 J0.0236
G3 Y0.2765 I-0.0266 J0.0001
G2 X1.1191 Y0.2962 I0.1702 J0.0009
G3 X1.1192 Y0.2964 I-0.0264 J0.0029
G2 X1.1228 Y0.3123 I0.0668 J-0.0068
G2 X1.1248 Y0.3161 I0.0133 J-0.0048
G3 X1.1252 I0.0001 J0.0266
G2 X1.1269 Y0.3106 I-0.0239 J-0.0106
G3 X1.127 Y0.3103 I0.0261 J0.0051
G2 X1.1285 Y0.3001 I-0.0936 J-0.0196
G2 X1.1296 Y0.2764 I-0.2343 J-0.0223
G3 Y0.2762 I0.0266 J-0.0002
G2 X1.129 Y0.2565 I-0.3009 J-0.0008
G3 Y0.2563 I0.0265 J-0.0017
G2 X1.1285 Y0.2499 I-0.1328 J0.0077
G1 F6.0 X1.1347 Y0.2493
G2 F12.0 X1.1329 Y0.2374 I-0.1385 J0.0147
G1 Y0.2373
G2 X1.13 Y0.2282 I-0.04 J0.0076
G2 X1.1277 Y0.2254 I-0.0064 J0.0029
G2 X1.1233 Y0.2244 I-0.0041 J0.0082
G3 X1.1222 I-0.0006 J-0.0203
G2 X1.1204 Y0.2249 I-0.0001 J0.0033
G2 X1.1178 Y0.2288 I0.007 J0.0075
G3 X1.1176 Y0.2291 I-0.019 J-0.0072
G2 X1.1148 Y0.2389 I0.0508 J0.0202
G3 Y0.239 I-0.0199 J-0.0039
G2 X1.113 Y0.2507 I0.119 J0.0239
G2 X1.1118 Y0.2762 I0.2494 J0.0242
G3 Y0.2765 I-0.0203 J0.0001
G2 X1.1129 Y0.2968 I0.1764 J0.0009
G3 Y0.297 I-0.0202 J0.0022
G2 X1.1169 Y0.3144 I0.073 J-0.0075
G2 X1.1206 Y0.3208 I0.0191 J-0.0069
G2 X1.1243 Y0.3223 I0.0036 J-0.0034
G3 X1.1261 I0.0006 J0.0203
G2 X1.1303 Y0.3198 I0.0002 J-0.0045
G3 X1.1305 Y0.3195 I0.0184 J0.0085
G2 X1.133 Y0.3118 I-0.0292 J-0.014
G3 X1.1331 Y0.3115 I0.0199 J0.0039
G2 X1.1348 Y0.3007 I-0.0997 J-0.0209
G2 X1.1358 Y0.2764 I-0.2405 J-0.0229
G3 Y0.2762 I0.0203 J-0.0001
G2 X1.1352 Y0.2561 I-0.3072 J-0.0009
G3 Y0.256 I0.0203 J-0.0013
G2 X1.1347 Y0.2493 I-0.1391 J0.008
G1 F6.0 X1.1409 Y0.2486
G2 F12.0 X1.139 Y0.2362 I-0.1447 J0.0154
G1 Y0.2361
G2 X1.1357 Y0.2256 I-0.0461 J0.0087
G2 X1.1309 Y0.22 I-0.0121 J0.0055
G2 X1.1231 Y0.2182 I-0.0073 J0.0135
G3 X1.1224 I-0.0004 J-0.0141
G2 X1.1166 Y0.2199 I-0.0003 J0.0096
G2 X1.1119 Y0.2266 I0.0108 J0.0125
G3 X1.1118 Y0.2268 I-0.0132 J-0.005
G2 X1.1087 Y0.2377 I0.0566 J0.0225
G1 X1.1086
G2 X1.1068 Y0.2501 I0.1252 J0.0251
G2 X1.1056 Y0.2763 I0.2556 J0.0248
G3 Y0.2764 I-0.0141 J0.0001
G2 X1.1067 Y0.2975 I0.1827 J0.001
G3 Y0.2977 I-0.014 J0.0016
G2 X1.111 Y0.3165 I0.0792 J-0.0081
G2 X1.116 Y0.325 I0.025 J-0.009
G2 X1.1245 Y0.3286 I0.0082 J-0.0076
G3 X1.1257 I0.0004 J0.0141
G2 X1.136 Y0.3224 I0.0006 J-0.0107
G3 X1.1361 Y0.3222 I0.0128 J0.0059
G2 X1.1392 Y0.313 I-0.0348 J-0.0167
G3 Y0.3128 I0.0138 J0.0027
G2 X1.141 Y0.3013 I-0.1058 J-0.0222
G2 X1.1421 Y0.2763 I-0.2467 J-0.0235
G3 Y0.2762 I0.0141 J-0.0001
G2 X1.1415 Y0.2557 I-0.3134 J-0.0009
G1 Y0.2556
G2 X1.1409 Y0.2486 I-0.1453 J0.0084
G1 F6.0 X1.1471 Y0.2479
G2 F12.0 X1.1452 Y0.235 I-0.151 J0.0161
G2 X1.1414 Y0.2231 I-0.0523 J0.0099
G2 X1.1341 Y0.2147 I-0.0178 J0.008
G2 X1.123 Y0.2119 I-0.0105 J0.0189
G3 X1.1225 I-0.0002 J-0.0078
G2 X1.1127 Y0.215 I-0.0004 J0.0158
G2 X1.1061 Y0.2244 I0.0147 J0.0174
G3 X1.106 Y0.2245 I-0.0073 J-0.0028
G2 X1.1025 Y0.2365 I0.0624 J0.0248
G2 X1.1006 Y0.2495 I0.1313 J0.0264
G2 X1.0993 Y0.2763 I0.2618 J0.0254
G1 Y0.2764
G2 X1.1005 Y0.2982 I0.1889 J0.001
G1 Y0.2983
G2 X1.1051 Y0.3186 I0.0855 J-0.0087
G2 X1.1114 Y0.3292 I0.0309 J-0.0111
G2 X1.1247 Y0.3348 I0.0128 J-0.0118
G3 X1.1254 I0.0002 J0.0078
G2 X1.1417 Y0.325 I0.0009 J-0.0169
G3 Y0.3249 I0.0071 J0.0033
G2 X1.1453 Y0.3142 I-0.0405 J-0.0194
G1 Y0.3141
G2 X1.1472 Y0.3019 I-0.1119 J-0.0234
G2 X1.1483 Y0.2763 I-0.2529 J-0.0241
G1 Y0.2762
G2 X1.1477 Y0.2553 I-0.3197 J-0.0009
G2 X1.1471 Y0.2479 I-0.1516 J0.0088
G0 Z0.125
G0 X0.879 Y0.2688
G0 Z0.0625
G1 F6.0 Z-0.01
G1 F12.0 X0.8759
G1 X0.879 Y0.2725
G1 Y0.2688
G1 F6.0 X0.8853
G1 F12.0 Y0.2626
G1 X0.8623
G1 X0.8853 Y0.2895
G1 Y0.2688
G0 Z0.125
G0 X0.9913 Y0.5421
G0 Z0.0625
G1 F6.0 Z-0.01
G1 F12.0 X0.9912 Y0.5422
G2 X0.99 Y0.5446 I0.0044 J0.0038
G3 Y0.5447 I-0.0379 J-0.0096
G2 X0.9887 Y0.5551 I0.0385 J0.0099
G3 Y0.556 I-0.0391 J0.0005
G2 X0.99 Y0.5664 I0.0398 J0.0005
G3 Y0.5666 I-0.0378 J0.0097
G2 X0.9912 Y0.569 I0.0057 J-0.0014
G1 X0.9913
G3 X0.9916 I0.0002 J0.0391
G3 X0.9917 Y0.5689 I0.0296 J0.0255
G2 X0.993 Y0.5666 I-0.0044 J-0.0038
G1 Y0.5665
G2 X0.9942 Y0.5564 I-0.0369 J-0.0096
G3 Y0.5554 I0.0391 J-0.0005
G2 X0.9929 Y0.5447 I-0.0415 J-0.0005
G3 Y0.5446 I0.0379 J-0.0096
G2 X0.9916 Y0.5421 I-0.0057 J0.0014
G3 X0.9913 I-0.0001 J-0.0391
G1 F6.0 Y0.5358
G3 F12.0 X0.9911 I0.0002 J-0.0328
G2 X0.9867 Y0.5378 I-0.0001 J0.0056
G3 X0.9865 Y0.5381 I-0.025 J-0.0212
G2 X0.9839 Y0.543 I0.0092 J0.0079
G3 Y0.5431 I-0.0318 J-0.0081
G2 X0.9825 Y0.5552 I0.0446 J0.0115
G3 Y0.556 I-0.0328 J0.0004
G2 X0.9839 Y0.568 I0.046 J0.0006
G3 Y0.5681 I-0.0318 J0.0082
G2 X0.9865 Y0.5731 I0.0117 J-0.003
G3 X0.9867 Y0.5733 I-0.0248 J0.0215
G2 X0.9911 Y0.5753 I0.0043 J-0.0036
G3 X0.9921 I0.0005 J0.0328
G2 X0.9961 Y0.5735 I0.0001 J-0.0051
G3 X0.9964 Y0.573 I0.0251 J0.0211
G2 X0.999 Y0.5681 I-0.0091 J-0.0079
G1 Y0.568
G2 X1.0005 Y0.5563 I-0.043 J-0.0112
G3 Y0.5555 I0.0328 J-0.0004
G2 X0.999 Y0.5432 I-0.0477 J-0.0006
G3 Y0.5431 I0.0318 J-0.0081
G2 X0.9964 Y0.538 I-0.0118 J0.0029
G3 X0.9961 Y0.5377 I0.0248 J-0.0215
G2 X0.9921 Y0.5358 I-0.0039 J0.0033
G3 X0.9913 I-0.0005 J-0.0328
G1 F6.0 X0.9914 Y0.5296
G3 F12.0 X0.9912 I0.0002 J-0.0266
G2 X0.982 Y0.5338 I-0.0002 J0.0118
G3 X0.9818 Y0.534 I-0.0202 J-0.0172
G2 X0.9779 Y0.5415 I0.0139 J0.012
G1 X0.9778 Y0.5416
G2 X0.9762 Y0.5552 I0.0507 J0.013
G3 Y0.5559 I-0.0266 J0.0003
G2 X0.9778 Y0.5696 I0.0523 J0.0006
G1 X0.9779
G2 X0.9818 Y0.5772 I0.0178 J-0.0045
G3 X0.982 Y0.5774 I-0.0201 J0.0174
G2 X0.9912 Y0.5815 I0.009 J-0.0077
G3 X0.992 I0.0004 J0.0266
G2 X1.0008 Y0.5775 I0.0002 J-0.0114
G3 X1.0011 Y0.5771 I0.0203 J0.0171
G2 X1.0051 Y0.5697 I-0.0138 J-0.012
G1 Y0.5696
G2 X1.0067 Y0.5562 I-0.049 J-0.0128
G3 Y0.5556 I0.0266 J-0.0003
G2 X1.0051 Y0.5416 I-0.054 J-0.0007
G3 X1.005 Y0.5415 I0.0257 J-0.0065
G2 X1.0011 Y0.5339 I-0.0179 J0.0044
G3 X1.0008 Y0.5336 I0.0201 J-0.0174
G2 X0.992 Y0.5296 I-0.0087 J0.0073
G3 X0.9914 I-0.0004 J-0.0266
G1 F6.0 Y0.5233
G3 F12.0 X0.9913 I0.0001 J-0.0203
G2 X0.9772 Y0.5297 I-0.0003 J0.0181
G3 X0.9771 Y0.5299 I-0.0155 J-0.0132
G2 X0.9718 Y0.54 I0.0186 J0.0161
G2 X0.97 Y0.5553 I0.0567 J0.0146
G3 Y0.5558 I-0.0203 J0.0003
G2 X0.9718 Y0.5711 I0.0585 J0.0007
G1 Y0.5712
G2 X0.9771 Y0.5812 I0.0239 J-0.0061
G3 X0.9772 Y0.5814 I-0.0153 J0.0133
G2 X0.9913 Y0.5878 I0.0138 J-0.0117
G3 X0.9919 I0.0003 J0.0203
G2 X1.0056 Y0.5815 I0.0003 J-0.0176
G3 X1.0059 Y0.5812 I0.0156 J0.0131
G2 X1.0111 Y0.5712 I-0.0185 J-0.0161
G2 X1.013 Y0.5561 I-0.0551 J-0.0144
G3 Y0.5556 I0.0203 J-0.0003
G2 X1.0111 Y0.5401 I-0.0602 J-0.0007
G1 Y0.54
G2 X1.0058 Y0.5299 I-0.0239 J0.006
G3 X1.0056 Y0.5296 I0.0154 J-0.0133
G2 X0.9919 Y0.5233 I-0.0135 J0.0113
G3 X0.9914 I-0.0003 J-0.0203
G1 F6.0 X0.9915 Y0.5171
G3 F12.0 X0.9913 I0.0001 J-0.0141
G2 X0.9724 Y0.5257 I-0.0003 J0.0243
G3 Y0.5258 I-0.0107 J-0.0091
G2 X0.9658 Y0.5384 I0.0233 J0.0202
G1 X0.9657 Y0.5385
G2 X0.9637 Y0.5554 I0.0628 J0.0161
G3 Y0.5557 I-0.0141 J0.0002
G2 X0.9657 Y0.5727 I0.0648 J0.0008
G1 X0.9658
G2 X0.9724 Y0.5853 I0.0299 J-0.0076
G3 Y0.5855 I-0.0106 J0.0092
G2 X0.9913 Y0.594 I0.0185 J-0.0158
G3 X0.9918 I0.0002 J0.0141
G2 X1.0104 Y0.5855 I0.0004 J-0.0239
G3 X1.0106 Y0.5853 I0.0108 J0.009
G2 X1.0172 Y0.5728 I-0.0233 J-0.0202
G2 X1.0192 Y0.5561 I-0.0611 J-0.0159
G3 Y0.5557 I0.0141 J-0.0002
G2 X1.0172 Y0.5386 I-0.0665 J-0.0008
G1 Y0.5385
G2 X1.0106 Y0.5258 I-0.03 J0.0075
G3 X1.0104 Y0.5256 I0.0106 J-0.0092
G2 X0.9918 Y0.5171 I-0.0183 J0.0153
G3 X0.9915 I-0.0002 J-0.0141
G1 F6.0 Y0.5108
G1 F12.0 X0.9914
G2 X0.9677 Y0.5216 I-0.0004 J0.0306
G1 X0.9676 Y0.5217
G2 X0.9597 Y0.5369 I0.028 J0.0243
G2 X0.9575 Y0.5555 I0.0688 J0.0177
G3 Y0.5557 I-0.0078 J0.0001
G2 X0.9597 Y0.5742 I0.071 J0.0009
G2 X0.9676 Y0.5894 I0.036 J-0.0091
G1 X0.9677 Y0.5895
G2 X0.9914 Y0.6003 I0.0233 J-0.0198
G3 X0.9917 I0.0001 J0.0078
G2 X1.0152 Y0.5895 I0.0005 J-0.0301
G3 X1.0153 Y0.5894 I0.006 J0.005
G2 X1.0232 Y0.5744 I-0.028 J-0.0243
G2 X1.0255 Y0.556 I-0.0672 J-0.0175
G3 Y0.5558 I0.0078 J-0.0001
G2 X1.0232 Y0.537 I-0.0727 J-0.0009
G2 X1.0153 Y0.5217 I-0.036 J0.009
G3 X1.0152 Y0.5216 I0.0059 J-0.0051
G2 X0.9917 Y0.5108 I-0.0231 J0.0194
G3 X0.9915 I-0.0001 J-0.0078
G0 Z0.125
G0 X1.1885 Y0.5466
G0 Z0.0625
G1 F6.0 Z-0.01
G2 F12.0 X1.1875 Y0.5587 I0.0631 J0.0114
G3 Y0.5595 I-0.0359 J0.0004
G2 X1.1887 Y0.5718 I0.0557 J0.0006
G3 X1.1888 Y0.5722 I-0.0351 J0.0075
G2 X1.1893 Y0.5739 I0.0075 J-0.0015
G2 X1.1903 Y0.5714 I-0.0072 J-0.0042
G3 X1.1904 Y0.571 I0.0352 J0.0072
G2 X1.1917 Y0.5584 I-0.0548 J-0.012
G3 Y0.5575 I0.0359 J-0.0004
G2 X1.1904 Y0.5461 I-0.0463 J-0.0006
G3 X1.1903 Y0.5459 I0.0349 J-0.0084
G2 X1.1892 Y0.5434 I-0.0076 J0.0018
G2 X1.1888 Y0.5448 I0.0083 J0.0031
G3 X1.1887 Y0.5454 I-0.0353 J-0.0065
G2 X1.1885 Y0.5466 I0.0628 J0.0126
G1 F6.0 X1.1854 Y0.546
G2 F12.0 X1.1844 Y0.5587 I0.0661 J0.012
G3 Y0.5595 I-0.0328 J0.0004
G2 X1.1856 Y0.5724 I0.0589 J0.0007
G3 X1.1857 Y0.5728 I-0.0321 J0.0068
G2 X1.1878 Y0.5773 I0.0105 J-0.0021
G2 X1.1884 Y0.5775 I0.0006 J-0.0005
G3 X1.1896 I0.0006 J0.0328
G2 X1.1911 Y0.5768 I0.0 J-0.002
G2 X1.1934 Y0.572 I-0.009 J-0.0071
G3 Y0.5717 I0.0321 J0.0066
G2 X1.1948 Y0.5584 I-0.0579 J-0.0126
G3 Y0.5576 I0.0328 J-0.0004
G2 X1.1934 Y0.5454 I-0.0495 J-0.0006
G3 Y0.5452 I0.0319 J-0.0077
G2 X1.1911 Y0.5406 I-0.0107 J0.0025
G1 X1.191
G2 X1.1885 Y0.5394 I-0.0025 J0.0021
G3 X1.188 I-0.0004 J-0.0328
G2 X1.1876 Y0.5397 I0.002 J0.0028
G2 X1.1858 Y0.5442 I0.0099 J0.0067
G3 X1.1857 Y0.5447 I-0.0323 J-0.006
G2 X1.1854 Y0.546 I0.0659 J0.0133
G1 F6.0 X1.1793 Y0.5449
G2 F12.0 X1.1781 Y0.5588 I0.0723 J0.0131
G3 Y0.5594 I-0.0266 J0.0003
G2 X1.1795 Y0.5737 I0.0651 J0.0007
G3 X1.1796 Y0.574 I-0.026 J0.0055
G2 X1.1829 Y0.5812 I0.0167 J-0.0033
G2 X1.1885 Y0.5838 I0.0055 J-0.0044
G3 X1.1894 I0.0005 J0.0266
G2 X1.196 Y0.5808 I0.0002 J-0.0083
G2 X1.1995 Y0.5733 I-0.0138 J-0.011
G3 Y0.573 I0.026 J0.0054
G2 X1.201 Y0.5583 I-0.064 J-0.0139
G3 Y0.5577 I0.0266 J-0.0003
G2 X1.1995 Y0.5439 I-0.0557 J-0.0007
G3 Y0.5438 I0.0258 J-0.0062
G2 X1.1959 Y0.5366 I-0.0168 J0.0039
G1 X1.1958 Y0.5365
G2 X1.1884 Y0.5331 I-0.0073 J0.0061
G3 X1.1878 I-0.0003 J-0.0266
G2 X1.1854 Y0.5336 I-0.0001 J0.0058
G2 X1.1828 Y0.5357 I0.0046 J0.0085
G2 X1.1796 Y0.5431 I0.0148 J0.0107
G3 X1.1795 Y0.5435 I-0.0261 J-0.0048
G2 X1.1793 Y0.5449 I0.072 J0.0145
G1 F6.0 X1.1731 Y0.5438
G2 F12.0 X1.1719 Y0.5589 I0.0784 J0.0142
G3 Y0.5593 I-0.0203 J0.0002
G2 X1.1734 Y0.575 I0.0714 J0.0008
G3 X1.1735 Y0.5753 I-0.0199 J0.0042
G2 X1.178 Y0.585 I0.0228 J-0.0046
G2 X1.1886 Y0.59 I0.0104 J-0.0083
G3 X1.1893 I0.0004 J0.0203
G2 X1.2008 Y0.5847 I0.0003 J-0.0145
G2 X1.2056 Y0.5746 I-0.0187 J-0.015
G3 Y0.5743 I0.0199 J0.0041
G2 X1.2073 Y0.5582 I-0.0701 J-0.0153
G3 Y0.5577 I0.0203 J-0.0002
G2 X1.2056 Y0.5425 I-0.062 J-0.0008
G3 X1.2055 Y0.5423 I0.0197 J-0.0048
G2 X1.2006 Y0.5326 I-0.0228 J0.0054
G1 Y0.5325
G2 X1.1883 Y0.5269 I-0.0121 J0.0101
G3 X1.1879 I-0.0002 J-0.0203
G2 X1.1826 Y0.528 I-0.0001 J0.0121
G2 X1.1779 Y0.5318 I0.0074 J0.0141
G2 X1.1735 Y0.542 I0.0196 J0.0146
G3 X1.1734 Y0.5423 I-0.02 J-0.0037
G2 X1.1731 Y0.5438 I0.0782 J0.0157
G1 F6.0 X1.167 Y0.5427
G2 F12.0 X1.1656 Y0.559 I0.0846 J0.0153
G3 Y0.5593 I-0.0141 J0.0002
G2 X1.1673 Y0.5763 I0.0776 J0.0009
G3 Y0.5765 I-0.0138 J0.0029
G2 X1.1731 Y0.5889 I0.0289 J-0.0058
G2 X1.1887 Y0.5963 I0.0153 J-0.0121
G3 X1.1892 I0.0002 J0.0141
G2 X1.2057 Y0.5886 I0.0004 J-0.0207
G2 X1.2117 Y0.5758 I-0.0235 J-0.0189
G3 X1.2118 Y0.5757 I0.0138 J0.0028
G2 X1.2135 Y0.5581 I-0.0762 J-0.0166
G3 Y0.5578 I0.0141 J-0.0002
G2 X1.2116 Y0.541 I-0.0682 J-0.0008
G1 Y0.5409
G2 X1.2054 Y0.5285 I-0.0289 J0.0068
G2 X1.1883 Y0.5206 I-0.0169 J0.0141
G3 X1.188 I-0.0002 J-0.0141
G2 X1.1799 Y0.5224 I-0.0002 J0.0183
G2 X1.173 Y0.5279 I0.0101 J0.0197
G2 X1.1673 Y0.5408 I0.0245 J0.0185
G3 Y0.541 I-0.0138 J-0.0026
G2 X1.167 Y0.5427 I0.0843 J0.017
G1 F6.0 X1.1608 Y0.5415
G2 F12.0 X1.1594 Y0.559 I0.0907 J0.0165
G3 Y0.5592 I-0.0078 J0.0001
G2 X1.1612 Y0.5776 I0.0839 J0.001
G1 Y0.5777
G2 X1.1682 Y0.5928 I0.035 J-0.007
G2 X1.1888 Y0.6025 I0.0202 J-0.016
G3 X1.1891 I0.0001 J0.0078
G2 X1.2106 Y0.5925 I0.0005 J-0.027
G2 X1.2178 Y0.5771 I-0.0284 J-0.0228
G1 X1.2179 Y0.577
G2 X1.2198 Y0.5581 I-0.0823 J-0.0179
G3 Y0.5579 I0.0078 J-0.0001
G2 X1.2177 Y0.5395 I-0.0745 J-0.0009
G2 X1.2102 Y0.5245 I-0.035 J0.0082
G2 X1.1882 Y0.5144 I-0.0217 J0.0182
G3 X1.188 I-0.0001 J-0.0078
G2 X1.1771 Y0.5168 I-0.0003 J0.0246
G2 X1.1681 Y0.524 I0.0129 J0.0253
G2 X1.1612 Y0.5397 I0.0294 J0.0224
G3 Y0.5398 I-0.0077 J-0.0014
G2 X1.1608 Y0.5415 I0.0904 J0.0182
G0 Z0.125
G0 X1.3726 Y0.5874
G0 Z0.0625
G1 F6.0 Z-0.01
G2 F12.0 X1.3732 Y0.5882 I0.0142 J-0.0113
G3 X1.3733 Y0.5883 I-0.0129 J0.0114
G2 X1.3844 Y0.5932 I0.0108 J-0.0094
G3 X1.3851 I0.0004 J0.0172
G2 X1.3956 Y0.5886 I0.0002 J-0.0139
G3 X1.3958 Y0.5884 I0.0128 J0.0115
G2 X1.3966 Y0.5874 I-0.0126 J-0.0116
G1 X1.3726
G1 F6.0 Y0.5843
G1 F12.0 X1.3672
G2 X1.3709 Y0.5902 I0.0196 J-0.0081
G3 X1.371 Y0.5903 I-0.0105 J0.0093
G2 X1.3845 Y0.5963 I0.0131 J-0.0114
G3 X1.3851 I0.0003 J0.0141
G2 X1.3979 Y0.5906 I0.0002 J-0.017
G3 X1.3981 Y0.5905 I0.0105 J0.0094
G2 X1.402 Y0.5843 I-0.0148 J-0.0137
G1 X1.3726
G1 F6.0 Y0.578
G1 F12.0 X1.3592
G2 X1.3604 Y0.5837 I0.0451 J-0.0067
G2 X1.3662 Y0.5944 I0.0265 J-0.0075
G1 X1.3663
G2 X1.3847 Y0.6025 I0.0178 J-0.0155
G3 X1.385 I0.0002 J0.0078
G2 X1.4026 Y0.5948 I0.0003 J-0.0232
G3 X1.4027 Y0.5947 I0.0058 J0.0052
G2 X1.4087 Y0.5839 I-0.0194 J-0.018
G2 X1.41 Y0.578 I-0.0504 J-0.0144
G1 X1.3726
G0 Z0.125
G0 X1.0016 Y0.9984
G0 Z0.0625
G1 F6.0 Z-0.01
G1 F12.0 X0.9984
G1 Y1.0016
G1 X1.0016
G1 Y0.9984
G1 F6.0 X1.0047
G1 F12.0 Y0.9953
G1 X0.9953
G1 Y1.0047
G1 X1.0047
G1 Y0.9984
G1 F6.0 X1.0109
G1 F12.0 Y0.9891
G1 X0.9891
G1 Y1.0109
G1 X1.0109
G1 Y0.9984
G1 F6.0 X1.0172
G1 F12.0 Y0.9828
G1 X0.9828
G1 Y1.0172
G1 X1.0172
G1 Y0.9984
G1 F6.0 X1.0234
G1 F12.0 Y0.9766
G1 X0.9766
G1 Y1.0234
G1 X1.0234
G1 Y0.9984
G1 F6.0 X1.0297
G1 F12.0 Y0.9703
G1 X0.9703
G1 Y1.0297
G1 X1.0297
G1 Y0.9984
G0 Z0.125
G0 X1.8359
G0 Z0.0625
G1 F6.0 Z-0.01
G1 F12.0 Y0.1641
G1 X0.1641
G1 Y1.8359
G1 X1.8359
G1 Y0.9984
G1 F6.0 X1.8422
G1 F12.0 Y0.1578
G1 X0.1578
G1 Y1.8422
G1 X1.8422
G1 Y0.9984
G1 F6.0 X1.8484
G1 F12.0 Y0.1516
G1 X0.1516
G1 Y1.8484
G1 X1.8484
G1 Y0.9984
G1 F6.0 X1.8547
G1 F12.0 Y0.1453
G1 X0.1453
G1 Y1.8547
G1 X1.8547
G1 Y0.9984
G1 F6.0 X1.8609
G1 F12.0 Y0.1391
G1 X0.1391
G1 Y1.8609
G1 X1.8609
G1 Y0.9984
G1 F6.0 X1.8672
G1 F12.0 Y0.1328
G1 X0.1328
G1 Y1.8672
G1 X1.8672
G1 Y0.9984
G0 Z0.125
M5
M30
