( Made using CamBam - http://www.cambam.co.uk )
( 008-oxygen 11/8/2013 12:36:54 AM )
( T0 : 0.0078 )
G20 G90 G91.1 G64 G40
G0 Z0.125
( T0 : 0.0078 )
T0 M6
( Engrave1 )
G17
M3 S1000
G0 X0.9967 Y1.4316
G0 Z0.0425
G1 F4.0 Z-0.021
G2 F8.0 X1.1263 Y1.395 I0.0005 J-0.2458
G2 X1.2212 Y1.2932 I-0.1305 J-0.2167
G2 X1.2556 Y1.1475 I-0.2718 J-0.1411
G2 X1.2212 Y1.0006 I-0.3127 J-0.0042
G2 X1.1267 Y0.8984 I-0.2286 J0.1166
G2 X0.9989 Y0.8618 I-0.1279 J0.2049
G2 X0.8751 Y0.8977 I-0.0002 J0.2308
G2 X0.7828 Y1.0002 I0.1394 J0.2182
G2 X0.748 Y1.1486 I0.2825 J0.1445
G2 X0.7561 Y1.2228 I0.3344 J0.0014
G2 X0.7817 Y1.2928 I0.2815 J-0.0634
G2 X0.874 Y1.3947 I0.2311 J-0.1167
G2 X0.9327 Y1.4219 I0.1333 J-0.2098
G2 X0.9967 Y1.4316 I0.0639 J-0.2059
G0 Z0.125
G0 X0.9977 Y1.3891
G0 Z0.0425
G1 F4.0 Z-0.021
G3 F8.0 X0.9418 Y1.3748 I0.0031 J-0.1283
G3 X0.8949 Y1.3335 I0.0679 J-0.1244
G3 X0.8728 Y1.2907 I0.1333 J-0.096
G3 X0.8573 Y1.2204 I0.3074 J-0.1043
G3 X0.8535 Y1.1486 I0.6161 J-0.0689
G3 X0.8605 Y1.0495 I0.6206 J-0.006
G3 X0.8725 Y1.0009 I0.2905 J0.0457
G3 X0.896 Y0.9567 I0.1388 J0.0455
G3 X0.942 Y0.9183 I0.1144 J0.0905
G3 X1.0004 Y0.9047 I0.0571 J0.1123
G3 X1.0769 Y0.9281 I0.0024 J0.1288
G3 X1.1089 Y0.962 I-0.0759 J0.1038
G3 X1.13 Y1.0035 I-0.1797 J0.1173
G3 X1.1462 Y1.0719 I-0.2749 J0.1011
G3 X1.1501 Y1.142 I-0.5619 J0.0671
G3 X1.1465 Y1.2156 I-0.6848 J0.0034
G3 X1.1311 Y1.2877 I-0.3129 J-0.0293
G3 X1.1106 Y1.3302 I-0.1905 J-0.066
G3 X1.0784 Y1.3646 I-0.1082 J-0.0688
G3 X1.0026 Y1.3892 I-0.0749 J-0.1021
G3 X0.9977 Y1.3891 I-0.0017 J-0.1283
G0 Z0.125
G0 X1.6112 Y1.5494
G0 Z0.0425
G1 F4.0 Z-0.021
G2 F8.0 X1.6076 Y1.5793 I0.1063 J0.0278
G2 X1.6225 Y1.6266 I0.0872 J-0.0014
G2 X1.6383 Y1.6457 I0.0799 J-0.0502
G2 X1.6592 Y1.6592 I0.0502 J-0.0547
G2 X1.6295 Y1.6863 I0.0384 J0.0718
G2 X1.618 Y1.7223 I0.0528 J0.0367
G2 X1.623 Y1.7499 I0.0728 J0.0011
G2 X1.6395 Y1.7727 I0.055 J-0.0225
G2 X1.6657 Y1.787 I0.0477 J-0.0559
G2 X1.6953 Y1.7912 I0.0285 J-0.0953
G2 X1.7257 Y1.7873 I0.0014 J-0.1094
G2 X1.7525 Y1.7727 I-0.0177 J-0.0644
G2 X1.7682 Y1.7496 I-0.0398 J-0.0439
G2 X1.7729 Y1.7221 I-0.0728 J-0.0264
G2 X1.7694 Y1.7021 I-0.0621 J0.0003
G2 X1.7605 Y1.6838 I-0.0819 J0.0285
G2 X1.748 Y1.6678 I-0.0841 J0.0528
G2 X1.732 Y1.6553 I-0.0517 J0.0497
G2 X1.752 Y1.6419 I-0.068 J-0.1228
G2 X1.7752 Y1.6143 I-0.0552 J-0.0701
G2 X1.7836 Y1.5793 I-0.066 J-0.0344
G2 X1.7783 Y1.546 I-0.099 J-0.0015
G2 X1.7598 Y1.5178 I-0.0655 J0.0229
G2 X1.7291 Y1.5008 I-0.0525 J0.0585
G2 X1.6943 Y1.4961 I-0.0333 J0.1161
G2 X1.6604 Y1.5001 I-0.0017 J0.1311
G2 X1.6368 Y1.5108 I0.0189 J0.0733
G2 X1.6136 Y1.5414 I0.036 J0.0514
G2 X1.6112 Y1.5494 I0.1039 J0.0358
G0 Z0.125
G0 X1.6492 Y1.5619
G0 Z0.0425
G1 F4.0 Z-0.021
G3 F8.0 X1.66 Y1.5436 I0.0483 J0.0159
G3 X1.6943 Y1.5293 I0.0328 J0.0306
G3 X1.7138 Y1.5326 I0.0006 J0.0546
G3 X1.7303 Y1.5434 I-0.0164 J0.0433
G3 X1.7445 Y1.5793 I-0.0341 J0.0343
G3 X1.7348 Y1.609 I-0.0506 J-0.0002
G3 X1.7251 Y1.6192 I-0.0458 J-0.0337
G3 X1.7079 Y1.6316 I-0.0976 J-0.1176
G3 X1.6896 Y1.6422 I-0.1686 J-0.269
G3 X1.659 Y1.617 I0.042 J-0.0825
G3 X1.6467 Y1.5793 I0.0492 J-0.0369
G3 X1.6492 Y1.5619 I0.0509 J-0.0014
G0 Z0.125
G0 X1.7052 Y1.6722
G0 Z0.0425
G1 F4.0 Z-0.021
G3 F8.0 X1.707 Y1.6713 I0.0865 J0.1704
G3 X1.7257 Y1.6944 I-0.0667 J0.0729
G3 X1.7336 Y1.723 I-0.0501 J0.0292
G3 X1.7311 Y1.737 I-0.0369 J0.0005
G3 X1.7229 Y1.7484 I-0.0278 J-0.0113
G3 X1.6953 Y1.758 I-0.0259 J-0.03
G3 X1.6806 Y1.7564 I-0.0007 J-0.0604
G3 X1.6623 Y1.7441 I0.006 J-0.0286
G3 X1.657 Y1.7227 I0.0342 J-0.0198
G3 X1.663 Y1.7047 I0.0322 J0.0007
G3 X1.683 Y1.6854 I0.0636 J0.046
G3 X1.7052 Y1.6722 I0.1087 J0.1572
G0 Z0.125
G0 X1.5064 Y0.647
G0 Z0.0425
G1 F4.0 Z-0.021
G2 F8.0 X1.5151 Y0.6447 I-0.0123 J-0.0637
G2 X1.5335 Y0.6322 I-0.0145 J-0.0412
G2 X1.5446 Y0.6104 I-0.0409 J-0.0345
G2 X1.5474 Y0.5862 I-0.0924 J-0.0231
G1 Y0.48
G1 X1.5199
G1 Y0.5732
G3 X1.5186 Y0.5943 I-0.1591 J0.0006
G3 X1.5137 Y0.6098 I-0.0395 J-0.0038
G3 X1.5032 Y0.6189 I-0.0188 J-0.0112
G3 X1.4853 Y0.6219 I-0.0164 J-0.0419
G3 X1.4617 Y0.6164 I0.0011 J-0.0574
G3 X1.4381 Y0.6022 I0.0498 J-0.1094
G1 Y0.48
G1 X1.4106
G1 Y0.6436
G1 X1.4381
G1 Y0.6255
G2 X1.4648 Y0.6422 I0.0723 J-0.0857
G2 X1.4931 Y0.6482 I0.0284 J-0.0641
G2 X1.5064 Y0.647 I0.001 J-0.0649
G0 Z0.125
G0 X1.3647 Y0.6044
G0 Z0.0425
G1 F4.0 Z-0.021
G2 F8.0 X1.3651 Y0.6031 I-0.0605 J-0.0182
G2 X1.3688 Y0.5739 I-0.1005 J-0.0278
G1 Y0.559
G1 X1.2483
G3 X1.2528 Y0.5326 I0.0707 J-0.0014
G3 X1.2653 Y0.5143 I0.0462 J0.018
G3 X1.2833 Y0.5037 I0.0335 J0.0366
G3 X1.3064 Y0.5002 I0.0224 J0.0694
G3 X1.34 Y0.5068 I-0.0006 J0.0916
G3 X1.3526 Y0.5124 I-0.0522 J0.1337
G3 X1.3642 Y0.52 I-0.0249 J0.0509
G1 X1.3656
G1 Y0.49
G2 X1.3372 Y0.4801 I-0.0882 J0.2093
G2 X1.3067 Y0.4762 I-0.03 J0.1114
G2 X1.2728 Y0.4809 I-0.0015 J0.1134
G2 X1.2432 Y0.4982 I0.0215 J0.071
G2 X1.2252 Y0.5271 I0.0493 J0.0505
G2 X1.2203 Y0.5609 I0.1024 J0.0322
G2 X1.2251 Y0.5948 I0.113 J0.0014
G2 X1.2421 Y0.6246 I0.0741 J-0.0227
G2 X1.2684 Y0.6426 I0.0524 J-0.0482
G2 X1.2999 Y0.6482 I0.0303 J-0.0798
G2 X1.3274 Y0.644 I0.0013 J-0.0842
G2 X1.3508 Y0.6288 I-0.018 J-0.0536
G2 X1.3647 Y0.6044 I-0.0467 J-0.0426
G0 Z0.125
G0 X1.3397 Y0.5976
G0 Z0.0425
G1 F4.0 Z-0.021
G3 F8.0 Y0.5978 I-0.0628 J-0.0172
G3 X1.3311 Y0.6136 I-0.038 J-0.0105
G3 X1.316 Y0.623 I-0.0247 J-0.0227
G3 X1.2984 Y0.6255 I-0.0167 J-0.0559
G3 X1.2794 Y0.6225 I-0.0008 J-0.058
G3 X1.2631 Y0.6124 I0.0138 J-0.0405
G3 X1.2483 Y0.58 I0.0359 J-0.036
G1 X1.342
G3 X1.3397 Y0.5976 I-0.0651 J0.0004
G0 Z0.125
G0 X1.1777
G0 Z0.0425
G1 F4.0 Z-0.021
G1 F8.0 Y0.4986
G2 X1.174 Y0.4663 I-0.1295 J-0.0017
G2 X1.1683 Y0.4509 I-0.073 J0.0185
G2 X1.1588 Y0.4375 I-0.0494 J0.025
G2 X1.1317 Y0.4219 I-0.0426 J0.0427
G2 X1.1006 Y0.418 I-0.0294 J0.1089
G2 X1.0751 Y0.4199 I-0.0002 J0.1684
G2 X1.0508 Y0.4251 I0.0267 J0.1868
G1 Y0.4532
G1 X1.0523
G3 X1.0737 Y0.4467 I0.0746 J0.2088
G3 X1.103 Y0.4428 I0.0295 J0.108
G3 X1.1263 Y0.4462 I0.0018 J0.0698
G3 X1.1406 Y0.4555 I-0.0106 J0.032
G3 X1.1479 Y0.4693 I-0.0251 J0.0222
G3 X1.1501 Y0.4873 I-0.0665 J0.0173
G1 Y0.5023
G2 X1.1263 Y0.4873 I-0.0691 J0.0839
G2 X1.1121 Y0.4835 I-0.0221 J0.0534
G2 X1.0974 Y0.4825 I-0.0141 J0.0991
G2 X1.0716 Y0.4875 I-0.001 J0.0635
G2 X1.0508 Y0.5036 I0.0227 J0.051
G2 X1.0372 Y0.532 I0.0578 J0.0452
G2 X1.0337 Y0.5633 I0.1253 J0.0299
G2 X1.035 Y0.5818 I0.1254 J0.0006
G2 X1.0396 Y0.5997 I0.0838 J-0.0119
G2 X1.0558 Y0.6262 I0.0781 J-0.0297
G2 X1.079 Y0.6423 I0.0478 J-0.044
G2 X1.1061 Y0.6482 I0.0277 J-0.0624
G2 X1.1298 Y0.6452 I0.0018 J-0.0832
G2 X1.1501 Y0.6366 I-0.0291 J-0.0969
G1 X1.1519 Y0.6436
G1 X1.1777
G1 Y0.5976
G0 Z0.125
G0 X1.1501
G0 Z0.0425
G1 F4.0 Z-0.021
G1 F8.0 Y0.6142
G3 X1.1296 Y0.6212 I-0.0435 J-0.0933
G3 X1.1109 Y0.6234 I-0.0188 J-0.0797
G3 X1.0913 Y0.6199 I-0.0008 J-0.0519
G3 X1.0751 Y0.6082 I0.0156 J-0.0385
G3 X1.0647 Y0.5872 I0.0397 J-0.0328
G3 X1.0621 Y0.5639 I0.0918 J-0.0221
G3 X1.064 Y0.5424 I0.1139 J-0.0011
G3 X1.0718 Y0.5222 I0.0536 J0.0092
G3 X1.086 Y0.511 I0.0249 J0.0169
G3 X1.1039 Y0.508 I0.0169 J0.0461
G3 X1.1279 Y0.5125 I-0.0003 J0.0676
G3 X1.1501 Y0.525 I-0.0317 J0.0829
G1 Y0.5976
G0 Z0.125
G0 X1.0089 Y0.6436
G0 Z0.0425
G1 F4.0 Z-0.021
G1 F8.0 X0.9134 Y0.4196
G1 X0.884
G1 X0.9145 Y0.4879
G1 X0.8493 Y0.6436
G1 X0.8792
G1 X0.9294 Y0.5223
G1 X0.9801 Y0.6436
G1 X1.0089
G0 Z0.125
G0 X0.8315
G0 Z0.0425
G1 F4.0 Z-0.021
G1 F8.0 X0.7672 Y0.5631
G1 X0.8315 Y0.48
G1 X0.7968
G1 X0.7504 Y0.5428
G1 X0.7037 Y0.48
G1 X0.6716
G1 X0.7354 Y0.5616
G1 X0.6722 Y0.6436
G1 X0.7069
G1 X0.753 Y0.5818
G1 X0.7993 Y0.6436
G1 X0.8315
G0 Z0.125
G0 X0.6443 Y0.6144
G0 Z0.0425
G1 F4.0 Z-0.021
G2 F8.0 X0.6461 Y0.589 I-0.149 J-0.0233
G2 X0.6388 Y0.5406 I-0.1493 J-0.0021
G2 X0.6186 Y0.5052 I-0.0937 J0.0299
G2 X0.5866 Y0.4829 I-0.0643 J0.0581
G2 X0.5447 Y0.4755 I-0.04 J0.1031
G2 X0.5028 Y0.4831 I-0.0014 J0.1113
G2 X0.4709 Y0.5052 I0.0321 J0.0804
G2 X0.4505 Y0.5408 I0.075 J0.0665
G2 X0.4451 Y0.5646 I0.1258 J0.0413
G2 X0.4435 Y0.589 I0.1774 J0.0238
G2 X0.4505 Y0.6367 I0.1513 J0.0021
G2 X0.471 Y0.6731 I0.0971 J-0.0309
G2 X0.503 Y0.695 I0.0625 J-0.0566
G2 X0.5447 Y0.7027 I0.0407 J-0.1046
G2 X0.5868 Y0.6949 I0.0017 J-0.1086
G2 X0.6186 Y0.6731 I-0.032 J-0.0807
G2 X0.6389 Y0.6372 I-0.0738 J-0.0656
G2 X0.6443 Y0.6144 I-0.1436 J-0.046
G0 Z0.125
G0 X0.6145 Y0.6102
G0 Z0.0425
G1 F4.0 Z-0.021
G3 F8.0 X0.612 Y0.6234 I-0.1387 J-0.0196
G3 X0.5969 Y0.6545 I-0.0765 J-0.0181
G3 X0.5736 Y0.6722 I-0.0475 J-0.0383
G3 X0.5449 Y0.6776 I-0.0276 J-0.067
G3 X0.516 Y0.6722 I-0.0012 J-0.0734
G3 X0.4926 Y0.6545 I0.0239 J-0.056
G3 X0.4775 Y0.6233 I0.0617 J-0.0491
G3 X0.4737 Y0.589 I0.1373 J-0.0328
G3 X0.4776 Y0.5544 I0.14 J-0.0016
G3 X0.493 Y0.5232 I0.0754 J0.0179
G3 X0.5163 Y0.5059 I0.0478 J0.04
G3 X0.5449 Y0.5005 I0.0275 J0.0673
G3 X0.5734 Y0.5059 I0.0011 J0.0725
G3 X0.5966 Y0.5232 I-0.0243 J0.0567
G3 X0.612 Y0.5544 I-0.06 J0.049
G3 X0.6159 Y0.589 I-0.1361 J0.0329
G3 X0.6145 Y0.6102 I-0.1401 J0.0016
G0 Z0.125
G0 X0.7698 Y0.3596
G0 Z0.0425
G1 F4.0 Z-0.021
G1 F8.0 X0.7771
G1 Y0.18
G1 X0.7527
G1 Y0.3171
G1 X0.7163 Y0.2944
G1 Y0.3172
G3 X0.7456 Y0.3364 I-0.0825 J0.1581
G3 X0.7584 Y0.3472 I-0.1135 J0.1463
G3 X0.7698 Y0.3596 I-0.0743 J0.0802
G0 Z0.125
G0 X0.843
G0 Z0.0425
G1 F4.0 Z-0.021
G1 F8.0 X0.932
G1 Y0.3388
G1 X0.8662
G1 Y0.2954
G2 X0.8771 Y0.3006 I0.0192 J-0.0261
G2 X0.8892 Y0.3021 I0.0116 J-0.0443
G2 X0.9098 Y0.2988 I0.001 J-0.0613
G2 X0.9271 Y0.2872 I-0.0135 J-0.0387
G2 X0.9376 Y0.2672 I-0.0375 J-0.0324
G2 X0.9403 Y0.2448 I-0.082 J-0.0213
G2 X0.9377 Y0.2195 I-0.1106 J-0.0012
G2 X0.9305 Y0.2014 I-0.0613 J0.0138
G2 X0.9087 Y0.1826 I-0.0392 J0.0234
G2 X0.8948 Y0.1787 I-0.0235 J0.0566
G2 X0.8804 Y0.1776 I-0.014 J0.0874
G2 X0.8584 Y0.1808 I-0.0007 J0.0724
G2 X0.8389 Y0.1915 I0.0169 J0.0538
G1 X0.8483 Y0.2119
G3 X0.8631 Y0.2023 I0.0452 J0.0541
G3 X0.8802 Y0.1983 I0.0177 J0.0369
G3 X0.8958 Y0.2012 I0.0008 J0.0388
G3 X0.9112 Y0.2184 I-0.0117 J0.026
G3 X0.9139 Y0.2297 I-0.0503 J0.018
G3 X0.9147 Y0.2413 I-0.0856 J0.0112
G3 X0.9133 Y0.256 I-0.0697 J0.0007
G3 X0.9094 Y0.2666 I-0.0386 J-0.008
G3 X0.8972 Y0.2781 I-0.0232 J-0.0124
G3 X0.8807 Y0.2813 I-0.0155 J-0.0359
G3 X0.8645 Y0.2775 I-0.0001 J-0.0357
G3 X0.8513 Y0.2673 I0.0217 J-0.0418
G1 X0.843 Y0.273
G1 Y0.3596
G0 Z0.125
G0 X0.9849 Y0.2095
G0 Z0.0425
G1 F4.0 Z-0.021
G2 F8.0 X0.9973 Y0.2143 I0.0121 J-0.0128
G2 X1.0103 Y0.2089 I0.0003 J-0.0176
G2 X1.0156 Y0.196 I-0.0123 J-0.0127
G2 X1.0103 Y0.1829 I-0.018 J-0.0002
G2 X0.9973 Y0.1776 I-0.0127 J0.0123
G2 X0.9844 Y0.1829 I-0.0003 J0.0176
G2 X0.979 Y0.196 I0.0127 J0.0128
G2 X0.9844 Y0.2089 I0.0176 J0.0003
G2 X0.9849 Y0.2095 I0.0127 J-0.0123
G0 Z0.125
G0 X1.0652 Y0.2671
G0 Z0.0425
G1 F4.0 Z-0.021
G2 F8.0 X1.058 Y0.2816 I0.0401 J0.0288
G2 X1.0549 Y0.3038 I0.0713 J0.0213
G2 X1.0582 Y0.3263 I0.0731 J0.0009
G2 X1.0696 Y0.346 I0.0505 J-0.016
G2 X1.1066 Y0.362 I0.0359 J-0.0322
G2 X1.1207 Y0.3607 I0.0004 J-0.0739
G2 X1.143 Y0.3506 I-0.0086 J-0.0486
G2 X1.1546 Y0.3366 I-0.0317 J-0.038
G2 X1.1633 Y0.311 I-0.0711 J-0.0384
G2 X1.1654 Y0.284 I-0.153 J-0.0258
G2 X1.1589 Y0.249 I-0.1009 J0.0007
G2 X1.1423 Y0.2175 I-0.1381 J0.0524
G2 X1.1216 Y0.1929 I-0.1134 J0.0747
G2 X1.1086 Y0.1832 I-0.0538 J0.0587
G2 X1.0936 Y0.1769 I-0.0296 J0.0496
G1 X1.0818 Y0.19
G3 X1.0908 Y0.1958 I-0.0155 J0.0341
G3 X1.1023 Y0.2068 I-0.0805 J0.0955
G3 X1.1128 Y0.2188 I-0.2053 J0.1904
G3 X1.1262 Y0.2365 I-0.1511 J0.128
G3 X1.1317 Y0.2461 I-0.0754 J0.0502
G3 X1.1354 Y0.2567 I-0.034 J0.0176
G2 X1.1222 Y0.2491 I-0.0223 J0.0235
G2 X1.1072 Y0.247 I-0.0144 J0.0491
G2 X1.0866 Y0.2505 I-0.0008 J0.0578
G2 X1.0692 Y0.2622 I0.0163 J0.0431
G2 X1.0652 Y0.2671 I0.0361 J0.0337
G0 Z0.125
G0 X1.0861 Y0.2805
G0 Z0.0425
G1 F4.0 Z-0.021
G3 F8.0 X1.088 Y0.2779 I0.0296 J0.019
G3 X1.1088 Y0.2678 I0.0203 J0.0152
G3 X1.1221 Y0.2699 I0.0007 J0.0387
G3 X1.1364 Y0.2835 I-0.0081 J0.0228
G3 X1.1391 Y0.2931 I-0.0363 J0.0153
G3 X1.1398 Y0.303 I-0.0633 J0.0096
G3 X1.1385 Y0.3169 I-0.0689 J0.0006
G3 X1.1351 Y0.3269 I-0.0382 J-0.0075
G3 X1.1239 Y0.3381 I-0.0222 J-0.011
G3 X1.1084 Y0.3413 I-0.0146 J-0.0317
G3 X1.0967 Y0.3388 I-0.0004 J-0.0271
G3 X1.0875 Y0.3312 I0.0108 J-0.0226
G3 X1.0816 Y0.3187 I0.0279 J-0.0209
G3 X1.08 Y0.305 I0.0528 J-0.0132
G3 X1.0817 Y0.2908 I0.0548 J-0.0006
G3 X1.0861 Y0.2805 I0.034 J0.0088
G0 Z0.125
G0 X1.1866 Y0.2934
G0 Z0.0425
G1 F4.0 Z-0.021
G2 F8.0 X1.186 Y0.3038 I0.0738 J0.0094
G2 X1.1893 Y0.3263 I0.0731 J0.0009
G2 X1.2007 Y0.346 I0.0505 J-0.016
G2 X1.2377 Y0.362 I0.0359 J-0.0322
G2 X1.2518 Y0.3607 I0.0004 J-0.0739
G2 X1.2741 Y0.3506 I-0.0086 J-0.0486
G2 X1.2857 Y0.3366 I-0.0317 J-0.038
G2 X1.2944 Y0.311 I-0.0711 J-0.0384
G2 X1.2965 Y0.284 I-0.153 J-0.0258
G2 X1.29 Y0.249 I-0.1009 J0.0007
G2 X1.2734 Y0.2175 I-0.1381 J0.0524
G2 X1.2527 Y0.1929 I-0.1134 J0.0747
G2 X1.2397 Y0.1832 I-0.0538 J0.0587
G2 X1.2247 Y0.1769 I-0.0296 J0.0496
G1 X1.2129 Y0.19
G3 X1.2219 Y0.1958 I-0.0155 J0.0341
G3 X1.2334 Y0.2068 I-0.0805 J0.0955
G3 X1.2439 Y0.2188 I-0.2053 J0.1904
G3 X1.2573 Y0.2365 I-0.1511 J0.128
G3 X1.2628 Y0.2461 I-0.0754 J0.0502
G3 X1.2665 Y0.2567 I-0.034 J0.0176
G2 X1.2533 Y0.2491 I-0.0223 J0.0235
G2 X1.2383 Y0.247 I-0.0144 J0.0491
G2 X1.2177 Y0.2505 I-0.0008 J0.0578
G2 X1.2003 Y0.2622 I0.0163 J0.0431
G2 X1.1891 Y0.2816 I0.0361 J0.0337
G2 X1.1866 Y0.2934 I0.0713 J0.0213
G0 Z0.125
G0 X1.2116 Y0.2969
G0 Z0.0425
G1 F4.0 Z-0.021
G3 F8.0 X1.2128 Y0.2908 I0.0543 J0.0076
G3 X1.2191 Y0.2779 I0.034 J0.0088
G3 X1.2399 Y0.2678 I0.0203 J0.0152
G3 X1.2532 Y0.2699 I0.0007 J0.0387
G3 X1.2675 Y0.2835 I-0.0081 J0.0228
G3 X1.2702 Y0.2931 I-0.0363 J0.0153
G3 X1.2709 Y0.303 I-0.0633 J0.0096
G3 X1.2696 Y0.3169 I-0.0689 J0.0006
G3 X1.2662 Y0.3269 I-0.0382 J-0.0075
G3 X1.255 Y0.3381 I-0.0222 J-0.011
G3 X1.2395 Y0.3413 I-0.0146 J-0.0317
G3 X1.2278 Y0.3388 I-0.0004 J-0.0271
G3 X1.2186 Y0.3312 I0.0108 J-0.0226
G3 X1.2127 Y0.3187 I0.0279 J-0.0209
G3 X1.2111 Y0.305 I0.0528 J-0.0132
G3 X1.2116 Y0.2969 I0.0548 J-0.0006
G0 Z0.125
M5
M30
