( Made using CamBam - http://www.cambam.co.uk )
( 012-magnesium 11/25/2013 6:28:54 PM )
( T0 : 0.0625 )
G20 G90 G91.1 G64 G40
G0 Z0.125
( T0 : 0.0625 )
T0 M6
( Pocket5 )
G17
M3 S5000
G0 X0.3893 Y1.452
G0 Z0.0625
G1 F2.0 Z-0.01
G1 F4.0 Y1.4075
G3 X0.4205 Y1.3763 I0.0313 J0.0
G1 X0.4764
G3 X0.4766 I0.0 J0.0312
G2 X0.4791 Y1.3762 I0.0007 J-0.0876
G1 Y0.997
G3 Y0.9966 I0.0312 J0.0
G2 X0.4768 Y0.97 I-0.1355 J-0.0016
G3 X0.4766 Y0.969 I0.0307 J-0.0058
G2 X0.4711 Y0.9563 I-0.027 J0.0042
G2 X0.4663 Y0.9536 I-0.0107 J0.0132
G3 X0.4658 Y0.9534 I0.0108 J-0.0293
G2 X0.4522 Y0.9494 I-0.0312 J0.0803
G2 X0.4186 Y0.9449 I-0.0479 J0.2345
G3 X0.3893 Y0.9138 I0.0019 J-0.0312
G1 Y0.87
G3 X0.4205 Y0.8388 I0.0313 J0.0
G1 X0.6498
G3 X0.6811 Y0.87 I0.0 J0.0313
G1 Y0.9138
G3 X0.6515 Y0.945 I-0.0313 J0.0
G2 X0.6234 Y0.9477 I0.0181 J0.3287
G3 X0.6225 Y0.9478 I-0.0044 J-0.0309
G2 X0.6039 Y0.9528 I0.0073 J0.065
G2 X0.5945 Y0.9633 I0.0147 J0.0224
G2 X0.5905 Y0.9785 I0.046 J0.0202
G3 Y0.9791 I-0.0311 J-0.0031
G2 X0.5893 Y1.0014 I0.1806 J0.0212
G3 Y1.0016 I-0.0312 J0.0002
G1 Y1.2218
G1 X0.7164 Y0.8596
G3 X0.7459 Y0.8388 I0.0295 J0.0104
G1 X0.7834
G3 X0.8131 Y0.8604 I0.0 J0.0313
G1 X0.9256 Y1.2089
G1 Y0.9458
G2 X0.9239 I-0.0012 J0.0499
G3 X0.9236 I-0.0003 J-0.0312
G1 X0.8678
G3 X0.8365 Y0.9145 I0.0 J-0.0313
G1 Y0.87
G3 X0.8678 Y0.8388 I0.0313 J0.0
G1 X1.1428
G3 X1.174 Y0.87 I0.0 J0.0313
G1 Y0.9145
G3 X1.1428 Y0.9458 I-0.0313 J0.0
G1 X1.0912
G3 X1.091 I0.0 J-0.0313
G2 X1.085 Y0.9459 I-0.0007 J0.1027
G1 Y1.3762
G2 X1.087 Y1.3763 I0.0014 J-0.0819
G3 X1.0873 I0.0003 J0.0312
G1 X1.1428
G3 X1.174 Y1.4075 I0.0 J0.0313
G1 Y1.452
G3 X1.1428 Y1.4833 I-0.0313 J0.0
G1 X0.9357
G3 X0.9061 Y1.462 I0.0 J-0.0313
G1 X0.7842 Y1.099
G1 X0.6518 Y1.4627
G3 X0.6225 Y1.4833 I-0.0294 J-0.0107
G1 X0.4205
G3 X0.3893 Y1.452 I0.0 J-0.0313
G0 Z0.125
G0 X0.3063 Y1.2669
G0 Z0.0625
G1 F2.0 Z-0.01
G3 F4.0 X0.3292 Y1.251 I0.1143 J0.1406
G1 Y1.0702
G3 X0.3063 Y1.0544 I0.0914 J-0.1565
G1 Y1.2669
G1 F2.0 X0.2813
G1 F4.0 Y1.3367
G3 X0.3542 Y1.2661 I0.1393 J0.0708
G1 Y1.0552
G3 X0.2813 Y0.9845 I0.0664 J-0.1414
G1 Y1.2669
G0 Z0.125
G0 X0.6142 Y1.0754
G0 Z0.0625
G1 F2.0 Z-0.01
G1 F4.0 X0.6512 Y0.97
G2 X0.6269 Y0.9724 I0.0184 J0.3037
G3 X0.6253 Y0.9726 I-0.0079 J-0.0556
G2 X0.6169 Y0.9745 I0.0045 J0.0402
G2 X0.6154 Y0.981 I0.0237 J0.009
G3 X0.6153 Y0.982 I-0.0559 J-0.0055
G2 X0.6142 Y1.0013 I0.1558 J0.0183
G3 Y1.0016 I-0.0562 J0.0004
G1 Y1.0754
G0 Z0.125
G0 X0.881 Y0.9894
G0 Z0.0625
G1 F2.0 Z-0.01
G1 F4.0 X0.9006 Y1.0503
G1 Y0.9707
G1 X0.875
G1 X0.881 Y0.9894
G0 Z0.125
G0 X0.8256 Y0.7725
G0 Z0.0625
G1 F2.0 Z-0.01
G3 F4.0 X0.8678 Y0.7638 I0.0422 J0.0975
G1 X1.1004
G3 X1.1165 Y0.7251 I0.1632 J0.0449
G3 X1.1106 Y0.7275 I-0.0698 J-0.1577
G3 X1.1092 Y0.7281 I-0.0393 J-0.0986
G3 X1.0408 Y0.7406 I-0.0677 J-0.1769
G3 X0.9599 Y0.722 I-0.0023 J-0.1749
G3 X0.948 Y0.7274 I-0.0678 J-0.1321
G3 X0.8818 Y0.7406 I-0.0654 J-0.1561
G3 X0.8423 Y0.7361 I-0.0007 J-0.1691
G3 X0.8288 Y0.737 I-0.0135 J-0.1053
G1 X0.7893
G3 X0.7684 Y0.7349 I0.0 J-0.1062
G3 X0.7475 Y0.737 I-0.0209 J-0.1041
G1 X0.7077
G3 X0.6962 Y0.7363 I0.0 J-0.1062
G3 X0.6589 Y0.7406 I-0.037 J-0.1588
G3 X0.581 Y0.7224 I-0.0015 J-0.1692
G3 X0.5779 Y0.7238 I-0.0703 J-0.1427
G3 X0.5762 Y0.7246 I-0.0449 J-0.0962
G3 X0.5242 Y0.7387 I-0.0712 J-0.16
G3 X0.4908 Y0.7406 I-0.0325 J-0.2744
G3 X0.4782 Y0.7403 I-0.0014 J-0.2329
G3 X0.4618 Y0.7638 I-0.0945 J-0.0484
G1 X0.6498
G3 X0.6979 Y0.7753 I0.0 J0.1062
G3 X0.7459 Y0.7638 I0.048 J0.0947
G1 X0.7834
G3 X0.8256 Y0.7725 I0.0 J0.1062
G0 Z0.125
G0 X1.1349 Y0.9957
G0 Z0.0625
G1 F2.0 Z-0.01
G1 F4.0 Y1.1116
G3 X1.156 Y1.0339 I0.1948 J0.011
G3 X1.1377 Y0.9957 I0.126 J-0.0837
G1 X1.1349
G0 Z0.125
G0 X1.6842 Y1.0095
G0 Z0.0625
G1 F2.0 Z-0.01
G3 F4.0 X1.6938 Y1.0357 I-0.272 J0.1143
G1 Y0.9959
G3 X1.6842 Y1.0095 I-0.2216 J-0.1456
G1 F2.0 X1.6642 Y0.9945
G3 F4.0 X1.6551 Y1.0058 I-0.192 J-0.1443
G3 X1.6734 Y1.0554 I-0.243 J0.1179
G3 X1.6991 Y1.0791 I-0.116 J0.1515
G3 X1.7188 Y1.1046 I-0.1455 J0.1328
G1 Y0.7881
G3 X1.7057 Y0.7897 I-0.0321 J-0.2079
G3 X1.7122 Y0.8444 I-0.242 J0.0566
G3 X1.6642 Y0.9945 I-0.2401 J0.0058
G0 Z0.125
G0 X1.7188 Y1.3227
G0 Z0.0625
G1 F2.0 Z-0.01
G3 F4.0 X1.718 Y1.3238 I-0.1711 J-0.109
G1 X1.7188
G1 Y1.3227
G1 F2.0 X1.7438
G1 F4.0 Y0.7621
G3 X1.733 Y0.7597 I0.0358 J-0.1838
G3 X1.6843 Y0.7656 I-0.0464 J-0.1795
G3 X1.672 Y0.7651 I0.0006 J-0.1898
G3 X1.6873 Y0.8448 I-0.2083 J0.0812
G3 X1.6248 Y1.0019 I-0.2151 J0.0054
G3 X1.6513 Y1.0702 I-0.2126 J0.1219
G3 X1.6806 Y1.0959 I-0.0938 J0.1367
G3 X1.7255 Y1.2137 I-0.127 J0.116
G3 X1.6692 Y1.3435 I-0.1778 J-0.0001
G3 X1.6634 Y1.3488 I-0.1265 J-0.1327
G1 X1.7438
G1 Y1.3227
G0 Z0.125
G0 X1.8188 Y1.5704
G0 Z0.0625
G1 F2.0 Z-0.01
G3 F4.0 X1.7826 Y1.5836 I-0.0362 J-0.043
G1 X1.7739
G1 X1.7782 Y1.5902
G3 X1.7988 Y1.6254 I-0.3051 J0.2015
G3 X1.8156 Y1.6683 I-0.2004 J0.1034
G3 X1.8157 Y1.6685 I-0.0541 J0.0151
G3 X1.8188 Y1.6823 I-0.1417 J0.039
G1 Y1.5704
G0 Z0.125
G0 Y1.7322
G0 Z0.0625
G1 F2.0 Z-0.01
G3 F4.0 X1.8107 Y1.7599 I-0.1355 J-0.0244
G3 X1.8103 Y1.7608 I-0.052 J-0.0213
G3 X1.7735 Y1.8088 I-0.1129 J-0.0485
G3 X1.7592 Y1.8188 I-0.0903 J-0.1144
G1 X1.8188
G1 Y1.7322
G0 Z0.125
G0 X1.5855 Y1.8188
G0 Z0.0625
G1 F2.0 Z-0.01
G3 F4.0 X1.534 Y1.7645 I0.0753 J-0.1229
G1 Y1.7817
G3 X1.5201 Y1.8188 I-0.0562 J0.0
G1 X1.5855
G0 Z0.125
G0 X1.559 Y1.6508
G0 Z0.0625
G1 F2.0 Z-0.01
G1 F4.0 X1.568 Y1.6437
G3 X1.5821 Y1.6348 I0.0503 J0.0638
G1 X1.559 Y1.6008
G1 Y1.6508
G1 F2.0 X1.534
G1 F4.0 Y1.7072
G3 X1.5476 Y1.6916 I0.0484 J0.0286
G1 X1.5835 Y1.6633
G3 X1.6237 Y1.6515 I0.0348 J0.0441
G1 X1.5392 Y1.5272
G3 X1.534 Y1.5177 I0.0465 J-0.0316
G1 Y1.6508
G0 Z0.125
G0 X0.8065 Y1.6438
G0 Z0.0625
G1 F2.0 Z-0.01
G3 F4.0 X0.7791 Y1.6221 I0.1292 J-0.1917
G3 X0.7517 Y1.6438 I-0.1566 J-0.1701
G1 X0.8065
G1 F2.0 Y1.6688
G1 F4.0 X1.1572
G1 Y1.6599
G3 Y1.6577 I0.2062 J0.0
G3 X1.1428 Y1.6582 I-0.0144 J-0.2057
G1 X0.9357
G3 X0.7791 Y1.5861 I0.0 J-0.2062
G3 X0.6225 Y1.6582 I-0.1566 J-0.1341
G1 X0.4205
G3 X0.3313 Y1.6379 I0.0 J-0.2062
G1 Y1.6688
G1 X0.8065
G1 F2.0 Y1.6938
G1 F4.0 X1.1822
G1 Y1.6599
G3 X1.185 Y1.6283 I0.1812 J0.0
G3 X1.1428 Y1.6332 I-0.0422 J-0.1762
G1 X0.9357
G3 X0.7791 Y1.5431 I0.0 J-0.1812
G3 X0.6225 Y1.6332 I-0.1566 J-0.0911
G1 X0.4205
G3 X0.3063 Y1.5927 I0.0 J-0.1812
G1 Y1.6938
G1 X0.8065
G1 F2.0 Y1.7188
G1 F4.0 X1.2074
G3 X1.2072 Y1.7111 I0.156 J-0.0076
G1 Y1.6599
G3 X1.2271 Y1.5835 I0.1562 J0.0
G3 X1.1428 Y1.6082 I-0.0843 J-0.1315
G1 X0.9357
G3 X0.7877 Y1.5018 I0.0 J-0.1562
G1 X0.7795 Y1.4773
G1 X0.7692 Y1.5054
G3 X0.6225 Y1.6082 I-0.1468 J-0.0534
G1 X0.4205
G3 X0.2813 Y1.5228 I0.0 J-0.1562
G1 Y1.7188
G1 X0.8065
G1 F2.0 Y1.7438
G1 F4.0 X1.2363
G3 X1.2322 Y1.7111 I0.1271 J-0.0326
G1 Y1.6599
G3 X1.2933 Y1.5489 I0.1312 J0.0
G1 Y1.48
G3 X1.3345 Y1.3846 I0.1312 J0.0
G3 X1.2735 Y1.3722 I0.0343 J-0.3264
G3 X1.2728 Y1.372 I0.0381 J-0.1256
G3 X1.2687 Y1.3707 I0.0821 J-0.2654
G3 X1.274 Y1.4075 I-0.1259 J0.0368
G1 Y1.452
G3 X1.1428 Y1.5832 I-0.1312 J0.0
G1 X0.9357
G3 X0.8114 Y1.4938 I0.0 J-0.1312
G1 X0.7804 Y1.4016
G1 X0.7458 Y1.4969
G3 X0.6225 Y1.5832 I-0.1233 J-0.0449
G1 X0.4205
G3 X0.2893 Y1.452 I0.0 J-0.1312
G1 Y1.4075
G3 X0.3792 Y1.283 I0.1312 J0.0
G1 Y1.0383
G3 X0.2893 Y0.9138 I0.0414 J-0.1245
G1 Y0.87
G3 X0.2985 Y0.8219 I0.1312 J0.0
G3 X0.2764 Y0.8168 I0.018 J-0.13
G3 X0.2563 Y0.8216 I-0.04 J-0.1249
G1 Y1.7438
G1 X0.8065
G1 F2.0 Y1.7688
G1 F4.0 X1.2742
G3 X1.2572 Y1.7111 I0.0892 J-0.0576
G1 Y1.6599
G3 X1.3183 Y1.5637 I0.1062 J0.0
G1 Y1.48
G3 X1.4245 Y1.3738 I0.1062 J0.0
G1 X1.4778
G3 X1.5318 Y1.3885 I0.0 J0.1062
G3 X1.5857 Y1.3738 I0.0539 J0.0915
G1 X1.7688
G1 Y0.7402
G3 X1.733 Y0.7338 I0.0108 J-0.1619
G3 X1.6845 Y0.7406 I-0.0463 J-0.1535
G3 X1.6474 Y0.7363 I0.0004 J-0.1648
G3 X1.6353 Y0.737 I-0.0121 J-0.1055
G1 X1.6293
G3 X1.6325 Y0.7418 I-0.1966 J0.1306
G3 X1.6333 Y0.7432 I-0.0899 J0.0566
G3 X1.6623 Y0.8452 I-0.1696 J0.1032
G3 X1.5924 Y0.9976 I-0.1901 J0.005
G3 X1.5976 Y1.0053 I-0.1803 J0.1277
G3 X1.5982 Y1.0063 I-0.0892 J0.0577
G3 X1.6289 Y1.0856 I-0.1861 J0.1175
G3 X1.6621 Y1.1127 I-0.0714 J0.1213
G3 X1.7005 Y1.2136 I-0.1085 J0.0992
G3 X1.652 Y1.3254 I-0.1528 J0.0001
G3 X1.5387 Y1.3691 I-0.1094 J-0.1145
G3 X1.4575 Y1.348 I0.004 J-0.1824
G3 X1.4559 Y1.3485 I-0.0723 J-0.2337
G3 X1.3714 Y1.3614 I-0.0847 J-0.2725
G3 X1.2808 Y1.3483 I-0.0026 J-0.3032
G3 X1.2802 Y1.3481 I0.0308 J-0.1016
G3 X1.1909 Y1.299 I0.0747 J-0.2415
G3 X1.1599 Y1.2678 I0.143 J-0.1728
G1 Y1.3027
G3 X1.249 Y1.4075 I-0.0171 J0.1048
G1 Y1.452
G3 X1.1428 Y1.5582 I-0.1062 J0.0
G1 X0.9357
G3 X0.8351 Y1.4859 I0.0 J-0.1062
G1 X0.7814 Y1.3259
G1 X0.7223 Y1.4883
G3 X0.6225 Y1.5582 I-0.0998 J-0.0363
G1 X0.4205
G3 X0.3143 Y1.452 I0.0 J-0.1062
G1 Y1.4075
G3 X0.4042 Y1.3026 I0.1062 J0.0
G1 Y1.0187
G3 X0.3143 Y0.9138 I0.0164 J-0.1049
G1 Y0.87
G3 X0.3423 Y0.7981 I0.1062 J0.0
G1 X0.3164
G3 X0.2764 Y0.7903 I0.0 J-0.1062
G3 X0.2364 Y0.7981 I-0.04 J-0.0984
G1 X0.2313
G1 Y1.7688
G1 X0.8065
G1 F2.0 Y1.7938
G1 F4.0 X1.346
G2 X1.3284 Y1.7844 I-0.1188 J0.2021
G3 X1.2822 Y1.7111 I0.035 J-0.0733
G1 Y1.6599
G3 X1.3433 Y1.5812 I0.0812 J0.0
G1 Y1.48
G3 X1.4245 Y1.3988 I0.0812 J0.0
G1 X1.4778
G3 X1.5318 Y1.4193 I0.0 J0.0812
G3 X1.5857 Y1.3988 I0.0539 J0.0607
G1 X1.7826
G3 X1.7938 Y1.3996 I0.0 J0.0812
G1 Y0.715
G3 X1.7797 Y0.7156 I-0.0134 J-0.1509
G3 X1.733 Y0.7074 I-0.0001 J-0.1373
G3 X1.6847 Y0.7156 I-0.0463 J-0.1272
G3 X1.6488 Y0.7108 I0.0002 J-0.1398
G3 X1.6353 Y0.712 I-0.0135 J-0.0801
G1 X1.5961
G3 X1.5756 Y0.7093 I0.0 J-0.0812
G3 X1.5731 Y0.71 I-0.0204 J-0.0786
G3 X1.6113 Y0.7551 I-0.1403 J0.1576
G3 X1.612 Y0.7562 I-0.0687 J0.0433
G3 X1.6373 Y0.8456 I-0.1483 J0.0902
G3 X1.5696 Y0.9836 I-0.1651 J0.0046
G3 X1.569 Y0.984 I-0.0479 J-0.0656
G3 X1.5562 Y0.9925 I-0.1197 J-0.1667
G3 X1.5766 Y1.0189 I-0.1442 J0.1328
G3 X1.577 Y1.0196 I-0.0682 J0.0441
G3 X1.606 Y1.1018 I-0.1649 J0.1042
G3 X1.6435 Y1.1295 I-0.0485 J0.1051
G3 X1.6755 Y1.2134 I-0.09 J0.0824
G3 X1.6348 Y1.3072 I-0.1278 J0.0002
G3 X1.5393 Y1.3441 I-0.0922 J-0.0964
G3 X1.4601 Y1.3208 I0.0035 J-0.1574
G3 X1.4486 Y1.3246 I-0.075 J-0.2064
G3 X1.3713 Y1.3364 I-0.0774 J-0.2486
G3 X1.288 Y1.3244 I-0.0025 J-0.2782
G3 X1.2876 Y1.3243 I0.0236 J-0.0777
G3 X1.2069 Y1.2798 I0.0673 J-0.2176
G3 X1.1349 Y1.1372 I0.1269 J-0.1536
G1 Y1.3263
G1 X1.1428
G3 X1.224 Y1.4075 I0.0 J0.0812
G1 Y1.452
G3 X1.1428 Y1.5332 I-0.0812 J0.0
G1 X0.9357
G3 X0.8588 Y1.4779 I0.0 J-0.0812
G1 X0.7823 Y1.2502
G1 X0.6988 Y1.4798
G3 X0.6225 Y1.5332 I-0.0763 J-0.0278
G1 X0.4205
G3 X0.3393 Y1.452 I0.0 J-0.0812
G1 Y1.4075
G3 X0.4205 Y1.3263 I0.0812 J0.0
G1 X0.4292
G1 Y0.997
G3 Y0.9961 I0.0812 J0.0
G2 X0.4157 Y0.9948 I-0.0248 J0.1878
G3 X0.3393 Y0.9138 I0.0049 J-0.0811
G1 Y0.87
G3 X0.4205 Y0.7888 I0.0812 J0.0
G1 X0.6498
G3 X0.6979 Y0.8045 I0.0 J0.0812
G3 X0.7459 Y0.7888 I0.048 J0.0655
G1 X0.7834
G3 X0.8256 Y0.8006 I0.0 J0.0812
G3 X0.8678 Y0.7888 I0.0422 J0.0694
G1 X1.1208
G3 X1.1422 Y0.7308 I0.1429 J0.0199
G3 X1.1426 Y0.7302 I0.0684 J0.0438
G3 X1.1586 Y0.7093 I0.1511 J0.0989
G3 X1.1226 Y0.6938 I0.0358 J-0.1329
G3 X1.1013 Y0.7043 I-0.0759 J-0.1264
G3 X1.1003 Y0.7047 I-0.0301 J-0.0754
G3 X1.0407 Y0.7156 I-0.0588 J-0.1535
G3 X0.9597 Y0.6932 I-0.0022 J-0.1499
G3 X0.9384 Y0.7043 I-0.0676 J-0.1034
G3 X0.8818 Y0.7156 I-0.0559 J-0.133
G3 X0.8435 Y0.7106 I-0.0007 J-0.1441
G3 X0.8288 Y0.712 I-0.0147 J-0.0799
G1 X0.7893
G3 X0.7684 Y0.7092 I0.0 J-0.0812
G3 X0.7475 Y0.712 I-0.0209 J-0.0785
G1 X0.7077
G3 X0.6948 Y0.7109 I0.0 J-0.0812
G3 X0.6588 Y0.7156 I-0.0356 J-0.1334
G3 X0.5811 Y0.6938 I-0.0014 J-0.1442
G3 X0.5674 Y0.7012 I-0.0704 J-0.1141
G3 X0.5661 Y0.7018 I-0.0343 J-0.0736
G3 X0.5214 Y0.7138 I-0.0611 J-0.1372
G3 X0.4908 Y0.7156 I-0.0296 J-0.2496
G3 X0.4618 Y0.7138 I-0.0013 J-0.2079
G3 X0.3836 Y0.7731 I-0.0782 J-0.0218
G1 X0.3164
G3 X0.2764 Y0.7625 I0.0 J-0.0812
G3 X0.2364 Y0.7731 I-0.04 J-0.0706
G1 X0.2063
G1 Y1.7938
G1 X0.8065
G1 F2.0 Y1.8188
G1 F4.0 X1.4143
G3 X1.4131 Y1.8174 I0.0422 J-0.0371
G2 X1.3806 Y1.7866 I-0.1386 J0.114
G2 X1.3391 Y1.7618 I-0.1534 J0.2092
G3 X1.3072 Y1.7111 I0.0242 J-0.0507
G1 Y1.6599
G3 X1.3683 Y1.6039 I0.0562 J0.0
G1 Y1.48
G3 X1.4245 Y1.4238 I0.0562 J0.0
G1 X1.4778
G3 X1.5318 Y1.4642 I0.0 J0.0562
G3 X1.5857 Y1.4238 I0.0539 J0.0158
G1 X1.7826
G3 X1.8188 Y1.437 I0.0 J0.0562
G1 Y0.6845
G3 X1.8073 Y0.6877 I-0.034 J-0.1004
G3 X1.7798 Y0.6906 I-0.027 J-0.1236
G3 X1.7329 Y0.6804 I-0.0002 J-0.1123
G3 X1.6849 Y0.6906 I-0.0463 J-0.1002
G3 X1.6498 Y0.6851 I0.0 J-0.1148
G3 X1.6353 Y0.687 I-0.0145 J-0.0543
G1 X1.5961
G3 X1.5756 Y0.6831 I0.0 J-0.0562
G3 X1.5552 Y0.687 I-0.0204 J-0.0524
G1 X1.5127
G3 X1.4821 Y0.6779 I0.0 J-0.0562
G3 X1.4795 Y0.6795 I-0.0306 J-0.0472
G3 X1.5003 Y0.6883 I-0.0881 J0.2368
G3 X1.5007 Y0.6885 I-0.0242 J0.0507
G3 X1.5444 Y0.7188 I-0.0767 J0.1571
G3 X1.5902 Y0.7685 I-0.1116 J0.1488
G3 X1.5906 Y0.7692 I-0.0476 J0.0299
G3 X1.6123 Y0.846 I-0.1269 J0.0772
G3 X1.5548 Y0.9634 I-0.1401 J0.0042
G3 X1.5545 Y0.9637 I-0.0332 J-0.0454
G3 X1.5118 Y0.9864 I-0.1051 J-0.1464
G3 X1.5181 Y0.9912 I-0.1471 J0.1977
G3 X1.5556 Y1.0325 I-0.1061 J0.1341
G3 X1.5559 Y1.033 I-0.0472 J0.0305
G3 X1.5821 Y1.1196 I-0.1438 J0.0908
G3 X1.625 Y1.1463 I-0.0247 J0.0874
G3 X1.6505 Y1.2133 I-0.0715 J0.0656
G3 X1.6177 Y1.289 I-0.1028 J0.0003
G3 X1.5399 Y1.3192 I-0.0751 J-0.0782
G3 X1.4712 Y1.2982 I0.0029 J-0.1324
G3 X1.463 Y1.2927 I0.1112 J-0.1748
G3 X1.4413 Y1.3007 I-0.0779 J-0.1784
G3 X1.3712 Y1.3114 I-0.0701 J-0.2247
G3 X1.2953 Y1.3005 I-0.0024 J-0.2532
G3 X1.295 Y1.3004 I0.0163 J-0.0538
G3 X1.223 Y1.2607 I0.06 J-0.1937
G3 X1.1596 Y1.1248 I0.1109 J-0.1345
G3 X1.1858 Y1.032 I0.1701 J-0.0022
G3 X1.1571 Y0.9689 I0.0962 J-0.0818
G3 X1.1428 Y0.9707 I-0.0143 J-0.0543
G1 X1.1099
G1 Y1.3513
G1 X1.1428
G3 X1.199 Y1.4075 I0.0 J0.0562
G1 Y1.452
G3 X1.1428 Y1.5082 I-0.0562 J0.0
G1 X0.9357
G3 X0.8825 Y1.4699 I0.0 J-0.0562
G1 X0.7832 Y1.1745
G1 X0.6753 Y1.4712
G3 X0.6225 Y1.5082 I-0.0528 J-0.0192
G1 X0.4205
G3 X0.3643 Y1.452 I0.0 J-0.0562
G1 Y1.4075
G3 X0.4205 Y1.3513 I0.0562 J0.0
G1 X0.4542
G1 Y0.997
G3 Y0.9963 I0.0562 J0.0
G2 X0.4524 Y0.9751 I-0.1106 J-0.0013
G2 X0.4472 Y0.9738 I-0.0178 J0.0585
G2 X0.4171 Y0.9698 I-0.0428 J0.2101
G3 X0.3643 Y0.9138 I0.0034 J-0.0561
G1 Y0.87
G3 X0.4205 Y0.8138 I0.0562 J0.0
G1 X0.6498
G3 X0.6979 Y0.8408 I0.0 J0.0562
G3 X0.7459 Y0.8138 I0.048 J0.0292
G1 X0.7834
G3 X0.8256 Y0.8329 I0.0 J0.0562
G3 X0.8678 Y0.8138 I0.0422 J0.0371
G1 X1.1428
G3 X1.1445 I0.0 J0.0562
G3 X1.1444 Y0.8098 I0.119 J-0.0064
G3 Y0.8087 I0.0562 J-0.0011
G3 X1.1632 Y0.7443 I0.1193 J0.0
G3 X1.1635 Y0.7439 I0.0473 J0.0303
G3 X1.2017 Y0.7036 I0.1302 J0.0852
G3 X1.2027 Y0.7029 I0.0332 J0.0453
G3 X1.2232 Y0.6902 I0.12 J0.1714
G3 X1.21 Y0.6906 I-0.0119 J-0.2005
G3 X1.1716 Y0.6867 I-0.0015 J-0.1761
G3 X1.1234 Y0.6638 I0.0228 J-0.1103
G3 X1.1228 Y0.6633 I0.0635 J-0.0783
G3 X1.0921 Y0.6811 I-0.0761 J-0.0959
G3 X1.0913 Y0.6814 I-0.0208 J-0.0522
G3 X1.0405 Y0.6906 I-0.0498 J-0.1302
G3 X0.9591 Y0.6621 I-0.0021 J-0.1249
G3 X0.9289 Y0.6812 I-0.0669 J-0.0723
G3 X0.8818 Y0.6906 I-0.0464 J-0.1099
G3 X0.8443 Y0.6848 I-0.0007 J-0.1191
G3 X0.8288 Y0.687 I-0.0155 J-0.054
G1 X0.7893
G3 X0.7684 Y0.6829 I0.0 J-0.0562
G3 X0.7475 Y0.687 I-0.0209 J-0.0522
G1 X0.7077
G3 X0.6937 Y0.6852 I0.0 J-0.0562
G3 X0.6587 Y0.6906 I-0.0345 J-0.1077
G3 X0.5811 Y0.663 I-0.0014 J-0.1192
G3 X0.5797 Y0.6641 I-0.0587 J-0.069
G3 X0.5568 Y0.6785 I-0.0691 J-0.0844
G3 X0.5559 Y0.6789 I-0.0238 J-0.0509
G3 X0.5185 Y0.689 I-0.0509 J-0.1144
G3 X0.4907 Y0.6906 I-0.0268 J-0.2248
G3 X0.4562 Y0.6876 I-0.0013 J-0.1829
G3 X0.4398 Y0.6834 I0.0202 J-0.1142
G1 Y0.6919
G3 X0.3836 Y0.7481 I-0.0562 J0.0
G1 X0.3164
G3 X0.2764 Y0.7313 I0.0 J-0.0562
G3 X0.2364 Y0.7481 I-0.04 J-0.0394
G1 X0.1813
G1 Y1.8188
G1 X0.8065
G1 F2.0 Y1.8438
G1 F4.0 X1.8438
G1 Y0.6392
G3 X1.8256 Y0.6541 I-0.056 J-0.0498
G3 X1.802 Y0.6633 I-0.0409 J-0.07
G3 X1.7798 Y0.6656 I-0.0216 J-0.0992
G3 X1.7392 Y0.6557 I-0.0002 J-0.0873
G3 X1.7387 Y0.6555 I0.0145 J-0.0277
G3 X1.7328 Y0.652 I0.0505 J-0.093
G3 X1.7278 Y0.6551 I-0.0451 J-0.0663
G3 X1.7269 Y0.6556 I-0.0157 J-0.027
G3 X1.6851 Y0.6656 I-0.0402 J-0.0754
G3 X1.6498 Y0.6585 I-0.0002 J-0.0899
G3 X1.6353 Y0.662 I-0.0145 J-0.0277
G1 X1.5961
G3 X1.5756 Y0.6544 I0.0 J-0.0313
G3 X1.5552 Y0.662 I-0.0204 J-0.0236
G1 X1.5127
G3 X1.4821 Y0.6372 I0.0 J-0.0313
G3 X1.4515 Y0.662 I-0.0306 J-0.0065
G1 X1.409
G3 X1.3976 Y0.6598 I0.0 J-0.0312
G1 Y0.6878
G3 X1.4249 Y0.691 I-0.0332 J0.3943
G3 X1.4896 Y0.7108 I-0.0334 J0.2252
G3 X1.4898 Y0.7109 I-0.0135 J0.0282
G3 X1.5282 Y0.7379 I-0.0658 J0.1347
G3 X1.5691 Y0.7818 I-0.0955 J0.1297
G3 X1.5693 Y0.7822 I-0.0264 J0.0167
G3 X1.5873 Y0.8464 I-0.1056 J0.0642
G3 X1.5401 Y0.9433 I-0.1152 J0.0038
G3 X1.5399 Y0.9434 I-0.0184 J-0.0252
G3 X1.4781 Y0.9699 I-0.0905 J-0.1261
G3 X1.439 Y0.9749 I-0.0568 J-0.2856
G3 X1.4665 Y0.9873 I-0.0663 J0.1831
G3 X1.5026 Y1.0108 I-0.1018 J0.1967
G3 X1.5346 Y1.046 I-0.0906 J0.1145
G3 X1.5348 Y1.0463 I-0.0262 J0.017
G3 X1.5572 Y1.126 I-0.1227 J0.0775
G3 X1.5565 Y1.1411 I-0.1377 J0.0007
G3 X1.5577 I-0.0006 J0.0658
G3 X1.6065 Y1.1631 I-0.0003 J0.0658
G3 X1.6256 Y1.2132 I-0.053 J0.0488
G3 X1.6006 Y1.2709 I-0.0779 J0.0005
G3 X1.5405 Y1.2942 I-0.0579 J-0.06
G3 X1.4846 Y1.2771 I0.0023 J-0.1075
G3 X1.4659 Y1.2635 I0.0977 J-0.1538
G3 X1.434 Y1.2768 I-0.0808 J-0.1492
G3 X1.371 Y1.2864 I-0.0627 J-0.2008
G3 X1.3025 Y1.2766 I-0.0023 J-0.2282
G3 X1.3023 Y1.2765 I0.0091 J-0.0299
G3 X1.2391 Y1.2416 I0.0526 J-0.1699
G3 X1.1846 Y1.1248 I0.0948 J-0.1154
G3 X1.2069 Y1.0452 I0.1451 J-0.0022
G3 X1.2188 Y1.0294 I0.102 J0.0639
G3 X1.2057 Y1.0169 I0.0678 J-0.0841
G3 X1.2055 Y1.0167 I0.0234 J-0.0207
G3 X1.1807 Y0.949 I0.0764 J-0.0665
G3 X1.2058 Y0.882 I0.0971 J-0.0018
G3 X1.2019 Y0.8787 I0.0705 J-0.0879
G3 X1.1693 Y0.8093 I0.0616 J-0.0713
G3 Y0.8087 I0.0312 J-0.0006
G3 X1.1842 Y0.7578 I0.0943 J0.0
G3 X1.1844 Y0.7575 I0.0263 J0.0169
G3 X1.2165 Y0.7237 I0.1093 J0.0715
G3 X1.217 Y0.7233 I0.0185 J0.0252
G3 X1.2904 Y0.6928 I0.1057 J0.151
G3 X1.2925 Y0.6924 I0.0681 J0.357
G3 Y0.6919 I0.0312 J-0.0005
G1 Y0.6525
G3 X1.2945 Y0.6417 I0.0313 J0.0
G3 X1.2928 Y0.635 I0.0293 J-0.0109
G3 X1.2767 Y0.6494 I-0.0651 J-0.0567
G3 X1.2755 Y0.6502 I-0.0177 J-0.0257
G3 X1.2402 Y0.6633 I-0.0497 J-0.0802
G3 X1.21 Y0.6656 I-0.0289 J-0.1735
G3 X1.1767 Y0.6623 I-0.0014 J-0.1511
G3 X1.1391 Y0.6444 I0.0177 J-0.0859
G3 X1.1236 Y0.6273 I0.0478 J-0.0589
G3 X1.1205 Y0.6311 I-0.0771 J-0.0604
G3 X1.0828 Y0.6579 I-0.0738 J-0.0637
G3 X1.0824 Y0.6581 I-0.0116 J-0.029
G3 X1.0404 Y0.6656 I-0.0409 J-0.1069
G3 X0.9643 Y0.6327 I-0.0019 J-0.0999
G3 X0.9571 Y0.6239 I0.0777 J-0.0709
G3 X0.9499 Y0.6354 I-0.0681 J-0.0352
G3 X0.9494 Y0.636 I-0.0248 J-0.019
G3 X0.9194 Y0.6581 I-0.0573 J-0.0462
G3 X0.8818 Y0.6656 I-0.0369 J-0.0868
G3 X0.844 Y0.658 I-0.0007 J-0.0941
G3 X0.8288 Y0.662 I-0.0152 J-0.0273
G1 X0.7893
G3 X0.7684 Y0.654 I0.0 J-0.0313
G3 X0.7475 Y0.662 I-0.0209 J-0.0232
G1 X0.7077
G3 X0.6936 Y0.6586 I0.0 J-0.0313
G3 X0.6586 Y0.6656 I-0.0344 J-0.0812
G3 X0.5866 Y0.6337 I-0.0013 J-0.0942
G3 X0.58 Y0.6254 I0.0763 J-0.0673
G3 Y0.6255 I-0.0275 J-0.0149
G3 X0.5639 Y0.6448 I-0.0576 J-0.0315
G3 X0.5462 Y0.6559 I-0.0533 J-0.0651
G3 X0.5457 Y0.6561 I-0.0132 J-0.0283
G3 X0.5157 Y0.6642 I-0.0408 J-0.0916
G3 X0.4907 Y0.6656 I-0.024 J-0.2
G3 X0.4607 Y0.663 I-0.0013 J-0.1579
G3 X0.4262 Y0.6492 I0.0158 J-0.0897
G3 X0.4253 Y0.6486 I0.0173 J-0.0261
G3 X0.4149 Y0.6399 I0.0482 J-0.0677
G1 Y0.6919
G3 X0.3836 Y0.7232 I-0.0313 J0.0
G1 X0.3164
G3 X0.2862 Y0.6999 I0.0 J-0.0313
G1 X0.2764 Y0.6627
G1 X0.2666 Y0.6999
G3 X0.2364 Y0.7232 I-0.0302 J-0.008
G1 X0.1693
G3 X0.1563 Y0.7203 I0.0 J-0.0313
G1 Y1.8438
G1 X0.8065
G0 Z0.125
G0 X1.333 Y1.7184
G0 Z0.0625
G1 F2.0 Z-0.01
G3 F4.0 X1.3321 Y1.7111 I0.0304 J-0.0072
G1 Y1.6599
G3 X1.3795 Y1.6331 I0.0313 J0.0
G1 X1.3933 Y1.6413
G1 Y1.48
G3 X1.4245 Y1.4488 I0.0313 J0.0
G1 X1.4778
G3 X1.5091 Y1.48 I0.0 J0.0313
G1 Y1.7817
G3 X1.4778 Y1.8129 I-0.0313 J0.0
G1 X1.4565
G3 X1.4324 Y1.8015 I0.0 J-0.0313
G2 X1.3953 Y1.7665 I-0.1579 J0.1299
G2 X1.3499 Y1.7393 I-0.1681 J0.2293
G3 X1.333 Y1.7184 I0.0135 J-0.0282
G0 Z0.125
G0 X1.5512 Y1.7336
G0 Z0.0625
G1 F2.0 Z-0.01
G3 F4.0 X1.5631 Y1.7112 I0.0312 J0.0022
G1 X1.599 Y1.6829
G3 X1.6457 Y1.6924 I0.0194 J0.0245
G2 X1.6572 Y1.7058 I0.0375 J-0.0205
G2 X1.6682 Y1.7092 I0.0107 J-0.0155
G3 X1.6693 I0.0004 J0.0312
G2 X1.6781 Y1.7081 I0.0008 J-0.0296
G2 Y1.707 I-0.0088 J-0.0009
G3 Y1.7068 I0.0312 J-0.0006
G2 X1.6765 Y1.6957 I-0.0427 J0.0005
G3 Y1.6956 I0.0301 J-0.0085
G2 X1.6716 Y1.6821 I-0.0879 J0.0244
G2 X1.6551 Y1.6534 I-0.177 J0.0823
G3 X1.655 Y1.6532 I0.0257 J-0.0178
G1 X1.5598 Y1.5131
G3 X1.5544 Y1.4956 I0.0258 J-0.0176
G1 Y1.48
G3 X1.5857 Y1.4488 I0.0313 J0.0
G1 X1.7826
G3 X1.8138 Y1.48 I0.0 J0.0313
G1 Y1.5274
G3 X1.7826 Y1.5586 I-0.0313 J0.0
G1 X1.7277
G1 X1.7574 Y1.6039
G3 X1.7766 Y1.6368 I-0.2842 J0.1878
G3 X1.7916 Y1.675 I-0.1782 J0.092
G1 Y1.6751
G3 X1.796 Y1.706 I-0.1176 J0.0324
G3 X1.7876 Y1.7505 I-0.1127 J0.0018
G3 X1.7874 Y1.751 I-0.0289 J-0.0119
G3 X1.758 Y1.7892 I-0.09 J-0.0387
G3 X1.7118 Y1.8117 I-0.0749 J-0.0948
G3 X1.6664 Y1.817 I-0.0437 J-0.1772
G3 X1.5995 Y1.7981 I-0.0008 J-0.1249
G3 X1.5546 Y1.7499 I0.0612 J-0.1023
G3 X1.5512 Y1.7336 I0.0278 J-0.0142
G0 Z0.125
G0 X1.3704 Y1.1426
G0 Z0.0625
G1 F2.0 Z-0.01
G1 F4.0 Y1.1425
G2 X1.3725 Y1.1263 I-0.0589 J-0.0156
G3 Y1.1247 I0.0687 J-0.0008
G2 X1.3708 Y1.1075 I-0.0813 J-0.001
G2 X1.3689 Y1.1262 I0.0824 J0.0178
G3 Y1.1279 I-0.0687 J0.0008
G2 X1.3704 Y1.1426 I0.0651 J0.0008
G1 F2.0 X1.3825 Y1.1458
G1 F4.0 Y1.1457
G2 X1.385 Y1.1261 I-0.071 J-0.0188
G3 Y1.1248 I0.0562 J-0.0007
G2 X1.3825 Y1.1022 I-0.0938 J-0.0011
G3 X1.3824 Y1.1019 I0.0548 J-0.0129
G2 X1.3779 Y1.0926 I-0.0227 J0.0052
G2 X1.3718 Y1.0899 I-0.0059 J0.0052
G3 X1.3695 I-0.0013 J-0.0562
G2 X1.3642 Y1.0924 I-0.0001 J0.0066
G3 X1.364 Y1.0927 I-0.0441 J-0.0349
G2 X1.359 Y1.1029 I0.0196 J0.0157
G3 Y1.1033 I-0.0549 J-0.0124
G2 X1.3564 Y1.1264 I0.0943 J0.022
G3 Y1.1277 I-0.0562 J0.0006
G2 X1.3588 Y1.1477 I0.0776 J0.0009
G3 Y1.1479 I-0.0545 J0.0138
G2 X1.3629 Y1.1558 I0.0188 J-0.0047
G3 X1.3631 Y1.156 I-0.0428 J0.0365
G2 X1.369 Y1.1587 I0.0058 J-0.0049
G3 X1.3709 I0.0011 J0.0562
G2 X1.3771 Y1.1558 I0.0001 J-0.0078
G3 X1.3777 Y1.155 I0.0438 J0.0353
G2 X1.3825 Y1.1458 I-0.0185 J-0.0154
G1 F2.0 X1.4067 Y1.1522
G1 F4.0 Y1.1521
G2 X1.41 Y1.1258 I-0.0952 J-0.0251
G3 Y1.1251 I0.0312 J-0.0004
G2 X1.4068 Y1.0965 I-0.1188 J-0.0014
G3 Y1.0963 I0.0304 J-0.0072
G2 X1.3972 Y1.0766 I-0.0471 J0.0107
G2 X1.3712 Y1.0649 I-0.0252 J0.0212
G3 X1.37 I-0.0007 J-0.0312
G2 X1.3446 Y1.0769 I-0.0005 J0.0316
G3 X1.3445 Y1.0771 I-0.0245 J-0.0194
G2 X1.3347 Y1.0974 I0.0391 J0.0314
G3 X1.3346 Y1.0976 I-0.0305 J-0.0069
G2 X1.3314 Y1.1267 I0.1186 J0.0276
G3 Y1.1274 I-0.0312 J0.0004
G2 X1.3346 Y1.1538 I0.1026 J0.0012
G3 Y1.1539 I-0.0303 J0.0077
G2 X1.3439 Y1.172 I0.0431 J-0.0107
G3 X1.344 Y1.1721 I-0.0238 J0.0203
G2 X1.3695 Y1.1837 I0.0249 J-0.021
G3 X1.3706 I0.0006 J0.0312
G2 X1.3966 Y1.1715 I0.0005 J-0.0328
G3 X1.3969 Y1.1711 I0.0243 J0.0196
G2 X1.4067 Y1.1522 I-0.0376 J-0.0315
G0 Z0.125
G0 X1.4007 Y0.8258
G0 Z0.0625
G1 F2.0 Z-0.01
G2 F4.0 X1.4212 Y0.8248 I-0.0063 J-0.3415
G3 X1.4217 I0.0034 J0.0436
G2 X1.4437 Y0.821 I-0.0072 J-0.108
G2 X1.447 Y0.8198 I-0.0129 J-0.0411
G2 X1.4412 Y0.8156 I-0.0304 J0.0363
G2 X1.4119 Y0.8052 I-0.0405 J0.0675
G3 X1.4112 Y0.8051 I0.0062 J-0.0433
G2 X1.3701 Y0.802 I-0.0389 J0.2425
G3 X1.3693 I-0.0004 J-0.0437
G2 X1.336 Y0.8049 I-0.0016 J0.1776
G3 X1.3355 Y0.805 I-0.0078 J-0.043
G2 X1.3163 Y0.8115 I0.0107 J0.0629
G2 X1.3207 Y0.8149 I0.021 J-0.0219
G2 X1.3314 Y0.8195 I0.0218 J-0.0365
G3 X1.3318 Y0.8196 I-0.0114 J0.0422
G2 X1.3497 Y0.8233 I0.0353 J-0.1261
G2 X1.3924 Y0.8259 I0.0402 J-0.3136
G3 X1.393 I0.0003 J0.0437
G2 X1.4007 Y0.8258 I0.0015 J-0.3416
G1 F2.0 X1.4009 Y0.8383
G2 F4.0 X1.4222 Y0.8373 I-0.0065 J-0.354
G3 X1.4225 Y0.8372 I0.0025 J0.0312
G2 X1.4472 Y0.833 I-0.0081 J-0.1205
G2 X1.4573 Y0.8287 I-0.0164 J-0.053
G3 X1.4576 Y0.8286 I0.0149 J0.0275
G2 X1.4613 Y0.8255 I-0.0056 J-0.0105
G3 X1.4615 Y0.8253 I0.0244 J0.0195
G2 X1.4634 Y0.8206 I-0.0068 J-0.0055
G2 X1.4616 Y0.8166 I-0.0071 J0.0009
G3 X1.4613 Y0.8162 I0.023 J-0.0212
G2 X1.4477 Y0.8049 I-0.0446 J0.0398
G2 X1.4137 Y0.7929 I-0.0469 J0.0782
G3 X1.4132 Y0.7928 I0.0044 J-0.0309
G2 X1.37 Y0.7895 I-0.0409 J0.2549
G3 X1.3694 I-0.0003 J-0.0312
G2 X1.3338 Y0.7926 I-0.0017 J0.1901
G3 X1.3334 I-0.0056 J-0.0307
G2 X1.3058 Y0.8031 I0.0128 J0.0752
G3 X1.3056 Y0.8033 I-0.0166 J-0.0265
G2 X1.3017 Y0.8103 I0.0042 J0.0068
G3 X1.3018 Y0.8108 I-0.0312 J0.0007
G2 X1.3035 Y0.8159 I0.0084 J-0.0001
G2 X1.314 Y0.8255 I0.0339 J-0.0263
G2 X1.3282 Y0.8316 I0.0285 J-0.047
G3 X1.3284 I-0.0082 J0.0302
G2 X1.3481 Y0.8357 I0.0387 J-0.1382
G2 X1.3925 Y0.8384 I0.0419 J-0.3259
G3 X1.3929 I0.0002 J0.0312
G2 X1.4009 Y0.8383 I0.0015 J-0.3541
G0 Z0.125
G0 X1.2871 Y0.4274
G0 Z0.0625
G1 F2.0 Z-0.01
G3 F4.0 X1.2902 Y0.425 I0.0366 J0.0426
G3 X1.2835 Y0.4254 I-0.0118 J-0.129
G3 X1.2871 Y0.4274 I-0.0552 J0.105
G0 Z0.125
G0 X1.2198 Y0.4102
G0 Z0.0625
G1 F2.0 Z-0.01
G3 F4.0 X1.1995 Y0.3952 I0.0604 J-0.1028
G3 X1.1934 Y0.4005 I-0.0663 J-0.0701
G3 X1.1933 I-0.0351 J-0.0439
G3 X1.1673 Y0.416 I-0.0681 J-0.0854
G3 X1.1747 Y0.4142 I0.0339 J0.123
G3 X1.2134 Y0.4102 I0.0376 J0.1751
G3 X1.2198 I0.0015 J0.1756
G0 Z0.125
G0 X1.1532 Y0.4207
G0 Z0.0625
G1 F2.0 Z-0.01
G3 F4.0 X1.1511 Y0.4213 I-0.028 J-0.1056
G3 X1.1145 Y0.4255 I-0.0351 J-0.1429
G3 X1.1091 Y0.4253 I0.001 J-0.1201
G3 X1.1202 Y0.432 I-0.0574 J0.1071
G3 X1.1206 Y0.4323 I-0.0316 J0.0464
G3 X1.1257 Y0.4361 I-0.0684 J0.0986
G3 X1.1296 Y0.4333 I0.0704 J0.0943
G3 X1.13 Y0.433 I0.0318 J0.0464
G3 X1.1532 Y0.4207 I0.0711 J0.1059
G0 Z0.125
G0 X1.0574 Y0.4107
G0 Z0.0625
G1 F2.0 Z-0.01
G3 F4.0 X1.0493 Y0.4059 I0.058 J-0.1081
G3 X1.0279 Y0.3871 I0.0501 J-0.0787
G3 X1.0245 Y0.3194 I0.0431 J-0.0361
G1 X1.04 Y0.2966
G3 X1.0501 Y0.2855 I0.0464 J0.0317
G1 Y0.2671
G3 X1.0429 Y0.2611 I0.0323 J-0.046
G3 X0.9971 Y0.2757 I-0.0453 J-0.0634
G3 X0.9958 I-0.0003 J-0.0783
G3 X0.981 Y0.2967 I-0.0522 J-0.0209
G1 Y0.3667
G3 X0.9517 Y0.4161 I-0.0562 J0.0
G3 X0.9732 Y0.428 I-0.0159 J0.0539
G3 X0.9894 Y0.4201 I0.06 J0.1027
G3 X0.9901 Y0.4198 I0.0207 J0.0523
G3 X1.0448 Y0.4102 I0.0527 J0.1386
G3 X1.0574 Y0.4107 I0.0005 J0.149
G0 Z0.125
G0 X0.8816 Y0.415
G0 Z0.0625
G1 F2.0 Z-0.01
G3 F4.0 X0.8677 Y0.4033 I0.0288 J-0.0483
G1 X0.828 Y0.3569
G3 X0.8263 Y0.3614 I-0.1004 J-0.036
G3 X0.826 Y0.3623 I-0.052 J-0.0213
G3 X0.7968 Y0.4003 I-0.0895 J-0.0385
G3 X0.7878 Y0.4067 I-0.0692 J-0.0876
G3 X0.7914 Y0.4138 I-0.0958 J0.0526
G1 X0.8318
G3 X0.8626 Y0.4229 I0.0 J0.0562
G3 X0.8816 Y0.415 I0.0307 J0.0471
G0 Z0.125
G0 X1.4971 Y0.3129
G0 Z0.0625
G1 F2.0 Z-0.01
G3 F4.0 X1.5045 Y0.3142 I-0.0345 J0.2177
G3 X1.5157 Y0.3138 I0.0112 J0.1558
G1 X1.5552
G3 X1.5756 Y0.3151 I0.0 J0.1562
G3 X1.5961 Y0.3138 I0.0204 J0.1549
G1 X1.6386
G3 X1.6659 Y0.3162 I0.0 J0.1562
G3 X1.6933 Y0.3138 I0.0273 J0.1538
G1 X1.7188
G1 Y0.2813
G1 X1.4989
G3 X1.4971 Y0.3129 I-0.3657 J-0.0053
G1 F2.0 X1.4722 Y0.3104
G3 F4.0 X1.4705 Y0.3245 I-0.339 J-0.0344
G3 X1.4687 Y0.3353 I-0.2382 J-0.0333
G3 X1.5031 Y0.3394 I-0.0062 J0.1954
G3 X1.5157 Y0.3388 I0.0126 J0.1306
G1 X1.5552
G3 X1.5756 Y0.3404 I0.0 J0.1312
G3 X1.5961 Y0.3388 I0.0204 J0.1296
G1 X1.6386
G3 X1.6659 Y0.3417 I0.0 J0.1312
G3 X1.6933 Y0.3388 I0.0273 J0.1283
G1 X1.7358
G3 X1.7438 Y0.339 I0.0 J0.1312
G1 Y0.2563
G1 X1.4735
G3 X1.474 Y0.2747 I-0.3018 J0.0168
G3 X1.4722 Y0.3104 I-0.3408 J0.0012
G1 F2.0 X1.4474 Y0.3078
G3 F4.0 X1.4457 Y0.321 I-0.3141 J-0.0319
G3 X1.4358 Y0.3622 I-0.2134 J-0.0298
G3 X1.4631 Y0.3602 I0.0257 J0.1633
G3 X1.5017 Y0.3647 I-0.0005 J0.1705
G3 X1.5157 Y0.3638 I0.014 J0.1053
G1 X1.5552
G3 X1.5756 Y0.3658 I0.0 J0.1062
G3 X1.5961 Y0.3638 I0.0204 J0.1042
G1 X1.6386
G3 X1.6659 Y0.3674 I0.0 J0.1062
G3 X1.6933 Y0.3638 I0.0273 J0.1026
G1 X1.7358
G3 X1.7629 Y0.3673 I0.0 J0.1062
G3 X1.7688 Y0.3659 I0.0271 J0.1027
G1 Y0.2313
G1 X1.4458
G3 X1.449 Y0.2747 I-0.2741 J0.0418
G3 X1.4474 Y0.3078 I-0.3158 J0.0012
G1 F2.0 X1.4225 Y0.3053
G3 F4.0 X1.421 Y0.3175 I-0.2893 J-0.0294
G3 X1.4057 Y0.3701 I-0.1887 J-0.0263
G3 X1.4055 Y0.3706 I-0.0739 J-0.0336
G3 X1.3924 Y0.3931 I-0.1295 J-0.0601
G3 X1.4034 Y0.3978 I-0.0261 J0.0769
G3 X1.463 Y0.3852 I0.0581 J0.1277
G3 X1.5006 Y0.3902 I-0.0004 J0.1455
G3 X1.5157 Y0.3888 I0.0151 J0.0798
G1 X1.5552
G3 X1.5756 Y0.3914 I0.0 J0.0812
G3 X1.5961 Y0.3888 I0.0204 J0.0786
G1 X1.6386
G3 X1.6659 Y0.3935 I0.0 J0.0812
G3 X1.6933 Y0.3888 I0.0273 J0.0765
G1 X1.7358
G3 X1.7629 Y0.3935 I0.0 J0.0812
G3 X1.79 Y0.3888 I0.0271 J0.0765
G1 X1.7938
G1 Y0.2063
G1 X1.4148
G3 X1.4186 Y0.2215 I-0.174 J0.0519
G3 X1.424 Y0.2747 I-0.247 J0.0516
G3 X1.4225 Y0.3053 I-0.2908 J0.0013
G1 F2.0 X1.3976 Y0.3028
G3 F4.0 X1.3962 Y0.314 I-0.2644 J-0.0268
G3 X1.383 Y0.3597 I-0.1639 J-0.0228
G3 X1.3828 Y0.3601 I-0.0512 J-0.0233
G3 X1.3596 Y0.3934 I-0.1068 J-0.0496
G3 X1.3591 Y0.3939 I-0.0399 J-0.0396
G3 X1.3311 Y0.4138 I-0.0757 J-0.077
G1 X1.3663
G3 X1.4021 Y0.4267 I0.0 J0.0562
G3 X1.4068 Y0.424 I0.051 J0.0839
G3 X1.4628 Y0.4102 I0.0547 J0.1015
G3 X1.4999 Y0.4161 I-0.0002 J0.1205
G3 X1.5157 Y0.4138 I0.0158 J0.0539
G1 X1.5552
G3 X1.5756 Y0.4176 I0.0 J0.0562
G3 X1.5961 Y0.4138 I0.0204 J0.0524
G1 X1.6386
G3 X1.6659 Y0.4209 I0.0 J0.0562
G3 X1.6933 Y0.4138 I0.0273 J0.0491
G1 X1.7358
G3 X1.7629 Y0.4208 I0.0 J0.0562
G3 X1.79 Y0.4138 I0.0271 J0.0492
G1 X1.8188
G1 Y0.1813
G1 X1.3772
G3 X1.3942 Y0.2265 I-0.1363 J0.0769
G3 X1.399 Y0.2746 I-0.2225 J0.0465
G3 X1.3976 Y0.3028 I-0.2658 J0.0013
G1 F2.0 X1.3728 Y0.3003
G3 F4.0 X1.3715 Y0.3105 I-0.2396 J-0.0243
G3 X1.3603 Y0.3494 I-0.1392 J-0.0193
G3 X1.3602 Y0.3496 I-0.0284 J-0.0129
G3 X1.3419 Y0.3759 I-0.0842 J-0.0391
G3 X1.3416 Y0.3761 I-0.0222 J-0.022
G3 X1.3012 Y0.398 I-0.0582 J-0.0592
G3 X1.278 Y0.4005 I-0.0228 J-0.1021
G3 X1.2351 Y0.3903 I-0.001 J-0.0903
G3 X1.2345 Y0.3899 I0.0145 J-0.0277
G3 X1.2024 Y0.3608 I0.0457 J-0.0825
G3 X1.1983 Y0.3546 I0.1052 J-0.0736
G3 X1.1778 Y0.381 I-0.0652 J-0.0295
G3 X1.1452 Y0.397 I-0.0526 J-0.0659
G3 X1.1147 Y0.4005 I-0.0291 J-0.1186
G3 X1.0772 Y0.3925 I0.0007 J-0.0951
G3 X1.0627 Y0.3849 I0.0382 J-0.09
G3 X1.047 Y0.3711 I0.0367 J-0.0577
G3 X1.0451 Y0.3334 I0.024 J-0.0201
G1 X1.0606 Y0.3107
G3 X1.0757 Y0.299 I0.0258 J0.0176
G3 X1.075 Y0.2926 I0.0306 J-0.0063
G1 Y0.2654
G3 X1.078 Y0.2521 I0.0313 J0.0
G3 X1.0562 Y0.2381 I0.0044 J-0.0309
G1 X1.0454 Y0.2214
G3 X1.0354 Y0.2349 I-0.047 J-0.0244
G3 X0.9972 Y0.2507 I-0.0378 J-0.0371
G3 X0.9749 Y0.246 I-0.0003 J-0.0534
G1 Y0.2548
G3 X0.9561 Y0.2834 I-0.0313 J0.0
G1 Y0.3667
G3 X0.9248 Y0.398 I-0.0313 J0.0
G1 X0.9104
G3 X0.8866 Y0.3871 I0.0 J-0.0312
G1 X0.804 Y0.2904
G3 X0.8062 Y0.2975 I-0.1289 J0.0436
G1 Y0.2976
G3 X0.8093 Y0.3197 I-0.0843 J0.0232
G3 X0.8032 Y0.352 I-0.0817 J0.0013
G3 X0.803 Y0.3525 I-0.0289 J-0.0119
G3 X0.7813 Y0.3807 I-0.0666 J-0.0287
G3 X0.7485 Y0.3968 I-0.0537 J-0.0681
G3 X0.7505 Y0.3985 I-0.0579 J0.0688
G3 X0.7518 Y0.3998 I-0.0208 J0.0233
G3 X0.7727 Y0.4349 I-0.0599 J0.0594
G1 X0.7728 Y0.435
G3 X0.7747 Y0.4424 I-0.1226 J0.0368
G3 X0.7893 Y0.4388 I0.0146 J0.0276
G1 X0.8318
G3 X0.8626 Y0.4643 I0.0 J0.0313
G3 X0.8933 Y0.4388 I0.0307 J0.0057
G1 X0.9358
G3 X0.9666 Y0.4644 I0.0 J0.0313
G3 X0.9986 Y0.4433 I0.0666 J0.0663
G3 X0.999 Y0.4431 I0.0115 J0.0291
G3 X1.0447 Y0.4351 I0.0438 J0.1153
G3 X1.0749 Y0.4387 I0.0006 J0.124
G1 X1.075
G3 X1.1061 Y0.4527 I-0.0232 J0.0938
G3 X1.1064 Y0.4528 I-0.0176 J0.0258
G3 X1.1255 Y0.4703 I-0.0542 J0.0781
G3 X1.1437 Y0.4539 I0.0707 J0.06
G3 X1.1439 Y0.4537 I0.0177 J0.0258
G3 X1.1799 Y0.4386 I0.0572 J0.0852
G3 X1.2134 Y0.4351 I0.0324 J0.1507
G3 X1.2492 Y0.4391 I0.0015 J0.1506
G3 X1.288 Y0.4582 I-0.0209 J0.0913
G3 X1.2881 Y0.4583 I-0.0199 J0.0241
G3 X1.2933 Y0.463 I-0.0554 J0.0663
G3 X1.3238 Y0.4388 I0.0305 J0.007
G1 X1.3663
G3 X1.3969 Y0.4636 I0.0 J0.0313
G3 X1.4186 Y0.446 I0.0562 J0.047
G3 X1.4626 Y0.4351 I0.0429 J0.0795
G3 X1.5002 Y0.4429 I-0.0001 J0.0955
G3 X1.5157 Y0.4388 I0.0155 J0.0271
G1 X1.5552
G3 X1.5756 Y0.4464 I0.0 J0.0313
G3 X1.5961 Y0.4388 I0.0204 J0.0236
G1 X1.6386
G3 X1.6659 Y0.4548 I0.0 J0.0313
G3 X1.6933 Y0.4388 I0.0273 J0.0152
G1 X1.7358
G3 X1.7629 Y0.4544 I0.0 J0.0313
G3 X1.79 Y0.4388 I0.0271 J0.0156
G1 X1.8325
G3 X1.8438 Y0.4408 I0.0 J0.0313
G1 Y0.1563
G1 X1.3185
G3 X1.3187 Y0.1564 I-0.0413 J0.0797
G3 X1.3194 Y0.1568 I-0.0144 J0.0277
G3 X1.3516 Y0.187 I-0.0437 J0.0787
G3 X1.3697 Y0.2316 I-0.1107 J0.0711
G3 X1.374 Y0.2746 I-0.1981 J0.0414
G3 X1.3728 Y0.3003 I-0.2408 J0.0013
G0 Z0.125
G0 X1.2767 Y0.2936
G0 Z0.0625
G1 F2.0 Z-0.01
G2 F4.0 X1.2772 Y0.2764 I-0.2301 J-0.0158
G3 Y0.2761 I0.0312 J-0.0002
G2 X1.2767 Y0.2568 I-0.2962 J-0.0008
G3 Y0.2566 I0.0312 J-0.002
G2 X1.2763 Y0.2515 I-0.1282 J0.0074
G2 X1.2762 Y0.2518 I0.1099 J0.0113
G2 X1.2751 Y0.2762 I0.2385 J0.0231
G3 Y0.2765 I-0.0312 J0.0002
G2 X1.2761 Y0.2956 I0.1655 J0.0009
G3 X1.2762 Y0.2959 I-0.0311 J0.0034
G2 X1.2764 Y0.2978 I0.0621 J-0.0063
G2 X1.2767 Y0.2936 I-0.2298 J-0.02
G0 Z0.125
G0 X1.1987 Y0.1863
G0 Z0.0625
G1 F2.0 Z-0.01
G3 F4.0 X1.1996 Y0.1848 I0.0913 J0.0571
G1 X1.1997
G3 X1.2313 Y0.1563 I0.0695 J0.0452
G1 X1.1639
G3 X1.1822 Y0.1678 I-0.039 J0.082
G1 X1.1823 Y0.1679
G3 X1.1987 Y0.1863 I-0.049 J0.06
G0 Z0.125
G0 X1.0688 Y0.1563
G0 Z0.0625
G1 F2.0 Z-0.01
G1 F4.0 X1.0333
G3 X1.0355 Y0.1584 I-0.0357 J0.0391
G3 X1.0455 Y0.172 I-0.0376 J0.0379
G3 X1.0688 Y0.1563 I0.0667 J0.0738
G0 Z0.125
G0 X0.961
G0 Z0.0625
G1 F2.0 Z-0.01
G1 F4.0 X0.9452
G3 X0.9526 Y0.1657 I-0.0203 J0.0237
G3 X0.9587 Y0.1584 I0.0441 J0.0305
G3 X0.961 Y0.1563 I0.0381 J0.0374
G0 Z0.125
G0 X0.8728
G0 Z0.0625
G1 F2.0 Z-0.01
G1 F4.0 X0.8094
G3 X0.8204 Y0.18 I-0.0203 J0.0238
G1 Y0.1974
G1 X0.8619
G1 Y0.18
G3 X0.8728 Y0.1563 I0.0313 J0.0
G0 Z0.125
G0 X0.5198 Y0.2813
G0 Z0.0625
G1 F2.0 Z-0.01
G1 F4.0 X0.2813
G1 Y0.3138
G1 X0.298
G3 X0.32 Y0.3154 I0.0 J0.1562
G3 X0.342 Y0.3138 I0.022 J0.1546
G1 X0.3836
G3 X0.4145 Y0.3169 I0.0 J0.1562
G3 X0.4706 Y0.3102 I0.0547 J0.2191
G3 X0.4988 Y0.312 I-0.0001 J0.223
G3 X0.5143 Y0.298 I0.1434 J0.1434
G3 X0.5198 Y0.2813 I0.1509 J0.0404
G1 F2.0 X0.5431 Y0.2904
G3 F4.0 X0.5581 Y0.2625 I0.1221 J0.0479
G3 X0.5542 Y0.2563 I0.1091 J-0.0729
G1 X0.2563
G1 Y0.3388
G1 X0.298
G3 X0.32 Y0.3407 I0.0 J0.1312
G3 X0.342 Y0.3388 I0.022 J0.1293
G1 X0.3836
G3 X0.415 Y0.3426 I0.0 J0.1312
G3 X0.4705 Y0.3352 I0.0542 J0.1934
G3 X0.508 Y0.3387 I0.0 J0.198
G3 X0.5316 Y0.3161 I0.1342 J0.1167
G3 X0.5366 Y0.3123 I0.1119 J0.1406
G3 X0.5431 Y0.2904 I0.1286 J0.026
G1 F2.0 X0.5664 Y0.2995
G3 F4.0 X0.5894 Y0.264 I0.0989 J0.0388
G1 X0.5794 Y0.2493
G3 X0.5695 Y0.2313 I0.0878 J-0.0597
G1 X0.2313
G1 Y0.3658
G3 X0.2329 Y0.3661 I-0.0203 J0.1042
G3 X0.2548 Y0.3638 I0.0219 J0.1039
G1 X0.298
G3 X0.32 Y0.3661 I0.0 J0.1062
G3 X0.342 Y0.3638 I0.022 J0.1039
G1 X0.3836
G3 X0.4153 Y0.3686 I0.0 J0.1062
G3 X0.4182 Y0.3677 I0.0476 J0.1457
G3 X0.4186 Y0.3676 I0.031 J0.1016
G3 X0.4704 Y0.3602 I0.0506 J0.1684
G3 X0.5105 Y0.3649 I0.0001 J0.173
G3 X0.5197 Y0.364 I0.015 J0.1051
G3 X0.5472 Y0.3357 I0.1224 J0.0914
G3 X0.5597 Y0.3267 I0.0963 J0.121
G3 X0.5664 Y0.2995 I0.1056 J0.0116
G1 F2.0 X0.5896 Y0.3086
G3 F4.0 X0.6149 Y0.2746 I0.0756 J0.0297
G1 X0.6226 Y0.2685
G1 X0.6001 Y0.2353
G3 X0.5878 Y0.2063 I0.0672 J-0.0456
G1 X0.2063
G1 Y0.3888
G1 X0.2109
G3 X0.2329 Y0.3918 I0.0 J0.0812
G3 X0.2548 Y0.3888 I0.0219 J0.0782
G1 X0.298
G3 X0.32 Y0.3918 I0.0 J0.0812
G3 X0.342 Y0.3888 I0.022 J0.0782
G1 X0.3836
G3 X0.4153 Y0.3952 I0.0 J0.0812
G3 X0.4255 Y0.3916 I0.0476 J0.1191
G3 X0.4258 Y0.3915 I0.0237 J0.0777
G3 X0.4703 Y0.3852 I0.0434 J0.1444
G3 X0.5095 Y0.3904 I0.0002 J0.148
G3 X0.5255 Y0.3888 I0.016 J0.0796
G1 X0.5331
G3 X0.5627 Y0.3553 I0.1091 J0.0666
G3 X0.5841 Y0.3415 I0.0807 J0.1014
G3 X0.5896 Y0.3086 I0.0811 J-0.0031
G1 F2.0 X0.6129 Y0.3178
G3 F4.0 X0.6304 Y0.2942 I0.0523 J0.0205
G1 X0.6526 Y0.2767
G3 X0.6565 Y0.2739 I0.0348 J0.0441
G1 X0.6208 Y0.2212
G3 X0.6111 Y0.1896 I0.0465 J-0.0316
G1 Y0.1813
G1 X0.1813
G1 Y0.4138
G1 X0.2109
G3 X0.2329 Y0.4183 I0.0 J0.0562
G3 X0.2548 Y0.4138 I0.0219 J0.0517
G1 X0.298
G3 X0.32 Y0.4183 I0.0 J0.0562
G3 X0.342 Y0.4138 I0.022 J0.0517
G1 X0.3836
G3 X0.4146 Y0.4231 I0.0 J0.0562
G3 X0.4328 Y0.4156 I0.0483 J0.0913
G3 X0.433 Y0.4155 I0.0164 J0.0538
G3 X0.4702 Y0.4102 I0.0362 J0.1205
G3 X0.5089 Y0.4163 I0.0002 J0.123
G3 X0.5255 Y0.4138 I0.0166 J0.0537
G1 X0.5482
G3 X0.5498 Y0.4103 I0.0924 J0.0399
G3 X0.5503 Y0.4093 I0.0507 J0.0242
G3 X0.5783 Y0.3748 I0.0919 J0.0461
G3 X0.6066 Y0.3588 I0.0652 J0.0818
G3 X0.6121 Y0.3568 I0.0496 J0.1308
G3 X0.6129 Y0.3178 I0.0531 J-0.0185
G1 F2.0 X0.6361 Y0.3269
G3 F4.0 X0.6459 Y0.3138 I0.0291 J0.0114
G1 X0.6681 Y0.2963
G3 X0.6988 Y0.2917 I0.0194 J0.0245
G1 X0.6414 Y0.2072
G3 X0.636 Y0.1896 I0.0258 J-0.0176
G1 Y0.18
G3 X0.6469 Y0.1563 I0.0313 J0.0
G1 X0.1563
G1 Y0.4416
G3 X0.1693 Y0.4388 I0.013 J0.0284
G1 X0.2109
G3 X0.2329 Y0.4478 I0.0 J0.0313
G3 X0.2548 Y0.4388 I0.0219 J0.0222
G1 X0.298
G3 X0.32 Y0.4478 I0.0 J0.0313
G3 X0.342 Y0.4388 I0.022 J0.0222
G1 X0.3836
G3 X0.4113 Y0.4554 I0.0 J0.0313
G3 X0.44 Y0.4394 I0.0516 J0.0589
G3 X0.4402 I0.0091 J0.0299
G3 X0.4702 Y0.4351 I0.029 J0.0966
G3 X0.5088 Y0.4429 I0.0003 J0.098
G3 X0.5091 Y0.4431 I-0.0122 J0.0288
G3 X0.5094 Y0.4432 I-0.0435 J0.099
G3 X0.5255 Y0.4388 I0.016 J0.0268
G1 X0.5664
G3 X0.5723 Y0.421 I0.0743 J0.0149
G3 X0.5726 Y0.4205 I0.0282 J0.0135
G3 X0.5938 Y0.3944 I0.0696 J0.0349
G3 X0.6154 Y0.3821 I0.0497 J0.0623
G3 X0.6355 Y0.3765 I0.0408 J0.1074
G3 X0.6357 I0.0056 J0.0307
G3 X0.6531 Y0.3742 I0.0338 J0.1916
G3 X0.6374 Y0.3525 I0.0606 J-0.0606
G3 X0.6361 Y0.3269 I0.0278 J-0.0142
G0 Z0.125
G0 X0.6687 Y0.5356
G0 Z0.0625
G1 F2.0 Z-0.01
G2 F4.0 X0.6685 Y0.5357 I0.0018 J0.0022
G2 X0.6669 Y0.5398 I0.009 J0.0061
G3 X0.6668 Y0.5403 I-0.0307 J-0.0057
G2 X0.6655 Y0.5534 I0.0615 J0.0124
G3 Y0.5541 I-0.0312 J0.0003
G2 X0.6667 Y0.5661 I0.0549 J0.0006
G3 X0.6668 Y0.5665 I-0.0306 J0.0065
G2 X0.6686 Y0.5705 I0.0095 J-0.0019
G2 X0.6689 Y0.5706 I0.0002 J-0.0002
G3 X0.67 I0.0005 J0.0312
G2 X0.6711 Y0.5701 I0.0 J-0.0015
G2 X0.6732 Y0.5658 I-0.0081 J-0.0064
G3 Y0.5654 I0.0306 J0.0063
G2 X0.6745 Y0.553 I-0.054 J-0.0118
G3 Y0.5523 I0.0312 J-0.0004
G2 X0.6732 Y0.5409 I-0.046 J-0.0006
G3 Y0.5407 I0.0304 J-0.0073
G2 X0.6711 Y0.5366 I-0.0096 J0.0023
G2 X0.669 Y0.5356 I-0.002 J0.0017
G3 X0.6687 I-0.0003 J-0.0312
G0 Z0.125
M5
M30
