( Made using CamBam - http://www.cambam.co.uk )
( 012-magnesium 12/3/2013 9:54:23 AM )
( T0 : 0.0313 )
G20 G90 G91.1 G64 G40
G0 Z0.125
( T0 : 0.0313 )
T0 M6
( Pocket1 )
G17
M3 S10000
G0 X0.7531 Y2.75
G0 Z0.0625
G1 F4.0 Z-0.0313
G2 F8.0 X0.7484 Y2.7473 I-0.0031 J0.0
G2 Y2.7527 I0.0016 J0.0027
G2 X0.7531 Y2.75 I0.0016 J-0.0027
G1 F4.0 X0.7594
G2 F8.0 X0.7453 Y2.7419 I-0.0094 J0.0
G2 Y2.7581 I0.0047 J0.0081
G2 X0.7594 Y2.75 I0.0047 J-0.0081
G1 F4.0 X0.7719
G2 F8.0 X0.7391 Y2.7311 I-0.0219 J0.0
G2 Y2.7689 I0.0109 J0.0189
G2 X0.7719 Y2.75 I0.0109 J-0.0189
G1 F4.0 X0.7844
G2 F8.0 X0.7328 Y2.7202 I-0.0344 J0.0
G2 Y2.7798 I0.0172 J0.0298
G2 X0.7844 Y2.75 I0.0172 J-0.0298
G1 F4.0 X0.7969
G2 F8.0 X0.7266 Y2.7094 I-0.0469 J0.0
G2 Y2.7906 I0.0234 J0.0406
G2 X0.7969 Y2.75 I0.0234 J-0.0406
G0 Z0.125
G0 X0.7531
G0 Z0.0312
G1 F4.0 Z-0.0625
G2 F8.0 X0.7484 Y2.7473 I-0.0031 J0.0
G2 Y2.7527 I0.0016 J0.0027
G2 X0.7531 Y2.75 I0.0016 J-0.0027
G1 F4.0 X0.7594
G2 F8.0 X0.7453 Y2.7419 I-0.0094 J0.0
G2 Y2.7581 I0.0047 J0.0081
G2 X0.7594 Y2.75 I0.0047 J-0.0081
G1 F4.0 X0.7719
G2 F8.0 X0.7391 Y2.7311 I-0.0219 J0.0
G2 Y2.7689 I0.0109 J0.0189
G2 X0.7719 Y2.75 I0.0109 J-0.0189
G1 F4.0 X0.7844
G2 F8.0 X0.7328 Y2.7202 I-0.0344 J0.0
G2 Y2.7798 I0.0172 J0.0298
G2 X0.7844 Y2.75 I0.0172 J-0.0298
G1 F4.0 X0.7969
G2 F8.0 X0.7266 Y2.7094 I-0.0469 J0.0
G2 Y2.7906 I0.0234 J0.0406
G2 X0.7969 Y2.75 I0.0234 J-0.0406
G0 Z0.125
G0 X0.7531
G0 Z0.0
G1 F4.0 Z-0.0938
G2 F8.0 X0.7484 Y2.7473 I-0.0031 J0.0
G2 Y2.7527 I0.0016 J0.0027
G2 X0.7531 Y2.75 I0.0016 J-0.0027
G1 F4.0 X0.7594
G2 F8.0 X0.7453 Y2.7419 I-0.0094 J0.0
G2 Y2.7581 I0.0047 J0.0081
G2 X0.7594 Y2.75 I0.0047 J-0.0081
G1 F4.0 X0.7719
G2 F8.0 X0.7391 Y2.7311 I-0.0219 J0.0
G2 Y2.7689 I0.0109 J0.0189
G2 X0.7719 Y2.75 I0.0109 J-0.0189
G1 F4.0 X0.7844
G2 F8.0 X0.7328 Y2.7202 I-0.0344 J0.0
G2 Y2.7798 I0.0172 J0.0298
G2 X0.7844 Y2.75 I0.0172 J-0.0298
G1 F4.0 X0.7969
G2 F8.0 X0.7266 Y2.7094 I-0.0469 J0.0
G2 Y2.7906 I0.0234 J0.0406
G2 X0.7969 Y2.75 I0.0234 J-0.0406
G0 Z0.125
G0 X0.7531
G0 Z-0.0323
G1 F4.0 Z-0.126
G2 F8.0 X0.7484 Y2.7473 I-0.0031 J0.0
G2 Y2.7527 I0.0016 J0.0027
G2 X0.7531 Y2.75 I0.0016 J-0.0027
G1 F4.0 X0.7594
G2 F8.0 X0.7453 Y2.7419 I-0.0094 J0.0
G2 Y2.7581 I0.0047 J0.0081
G2 X0.7594 Y2.75 I0.0047 J-0.0081
G1 F4.0 X0.7719
G2 F8.0 X0.7391 Y2.7311 I-0.0219 J0.0
G2 Y2.7689 I0.0109 J0.0189
G2 X0.7719 Y2.75 I0.0109 J-0.0189
G1 F4.0 X0.7844
G2 F8.0 X0.7328 Y2.7202 I-0.0344 J0.0
G2 Y2.7798 I0.0172 J0.0298
G2 X0.7844 Y2.75 I0.0172 J-0.0298
G1 F4.0 X0.7969
G2 F8.0 X0.7266 Y2.7094 I-0.0469 J0.0
G2 Y2.7906 I0.0234 J0.0406
G2 X0.7969 Y2.75 I0.0234 J-0.0406
G0 Z0.125
G0 X3.2469
G0 Z0.0625
G1 F4.0 Z-0.0313
G2 F8.0 X3.2484 Y2.7527 I0.0031 J0.0
G2 X3.2531 Y2.75 I0.0016 J-0.0027
G2 X3.2484 Y2.7473 I-0.0031 J0.0
G2 X3.2469 Y2.75 I0.0016 J0.0027
G1 F4.0 X3.2406
G2 F8.0 X3.2453 Y2.7581 I0.0094 J0.0
G2 X3.2594 Y2.75 I0.0047 J-0.0081
G2 X3.2453 Y2.7419 I-0.0094 J0.0
G2 X3.2406 Y2.75 I0.0047 J0.0081
G1 F4.0 X3.2281
G2 F8.0 X3.2391 Y2.7689 I0.0219 J0.0
G2 X3.2719 Y2.75 I0.0109 J-0.0189
G2 X3.2391 Y2.7311 I-0.0219 J0.0
G2 X3.2281 Y2.75 I0.0109 J0.0189
G1 F4.0 X3.2156
G2 F8.0 X3.2328 Y2.7798 I0.0344 J0.0
G2 X3.2844 Y2.75 I0.0172 J-0.0298
G2 X3.2328 Y2.7202 I-0.0344 J0.0
G2 X3.2156 Y2.75 I0.0172 J0.0298
G1 F4.0 X3.2031
G2 F8.0 X3.2266 Y2.7906 I0.0469 J0.0
G2 X3.2969 Y2.75 I0.0234 J-0.0406
G2 X3.2266 Y2.7094 I-0.0469 J0.0
G2 X3.2031 Y2.75 I0.0234 J0.0406
G0 Z0.125
G0 X3.2469
G0 Z0.0312
G1 F4.0 Z-0.0625
G2 F8.0 X3.2484 Y2.7527 I0.0031 J0.0
G2 X3.2531 Y2.75 I0.0016 J-0.0027
G2 X3.2484 Y2.7473 I-0.0031 J0.0
G2 X3.2469 Y2.75 I0.0016 J0.0027
G1 F4.0 X3.2406
G2 F8.0 X3.2453 Y2.7581 I0.0094 J0.0
G2 X3.2594 Y2.75 I0.0047 J-0.0081
G2 X3.2453 Y2.7419 I-0.0094 J0.0
G2 X3.2406 Y2.75 I0.0047 J0.0081
G1 F4.0 X3.2281
G2 F8.0 X3.2391 Y2.7689 I0.0219 J0.0
G2 X3.2719 Y2.75 I0.0109 J-0.0189
G2 X3.2391 Y2.7311 I-0.0219 J0.0
G2 X3.2281 Y2.75 I0.0109 J0.0189
G1 F4.0 X3.2156
G2 F8.0 X3.2328 Y2.7798 I0.0344 J0.0
G2 X3.2844 Y2.75 I0.0172 J-0.0298
G2 X3.2328 Y2.7202 I-0.0344 J0.0
G2 X3.2156 Y2.75 I0.0172 J0.0298
G1 F4.0 X3.2031
G2 F8.0 X3.2266 Y2.7906 I0.0469 J0.0
G2 X3.2969 Y2.75 I0.0234 J-0.0406
G2 X3.2266 Y2.7094 I-0.0469 J0.0
G2 X3.2031 Y2.75 I0.0234 J0.0406
G0 Z0.125
G0 X3.2469
G0 Z0.0
G1 F4.0 Z-0.0938
G2 F8.0 X3.2484 Y2.7527 I0.0031 J0.0
G2 X3.2531 Y2.75 I0.0016 J-0.0027
G2 X3.2484 Y2.7473 I-0.0031 J0.0
G2 X3.2469 Y2.75 I0.0016 J0.0027
G1 F4.0 X3.2406
G2 F8.0 X3.2453 Y2.7581 I0.0094 J0.0
G2 X3.2594 Y2.75 I0.0047 J-0.0081
G2 X3.2453 Y2.7419 I-0.0094 J0.0
G2 X3.2406 Y2.75 I0.0047 J0.0081
G1 F4.0 X3.2281
G2 F8.0 X3.2391 Y2.7689 I0.0219 J0.0
G2 X3.2719 Y2.75 I0.0109 J-0.0189
G2 X3.2391 Y2.7311 I-0.0219 J0.0
G2 X3.2281 Y2.75 I0.0109 J0.0189
G1 F4.0 X3.2156
G2 F8.0 X3.2328 Y2.7798 I0.0344 J0.0
G2 X3.2844 Y2.75 I0.0172 J-0.0298
G2 X3.2328 Y2.7202 I-0.0344 J0.0
G2 X3.2156 Y2.75 I0.0172 J0.0298
G1 F4.0 X3.2031
G2 F8.0 X3.2266 Y2.7906 I0.0469 J0.0
G2 X3.2969 Y2.75 I0.0234 J-0.0406
G2 X3.2266 Y2.7094 I-0.0469 J0.0
G2 X3.2031 Y2.75 I0.0234 J0.0406
G0 Z0.125
G0 X3.2469
G0 Z-0.0323
G1 F4.0 Z-0.126
G2 F8.0 X3.2484 Y2.7527 I0.0031 J0.0
G2 X3.2531 Y2.75 I0.0016 J-0.0027
G2 X3.2484 Y2.7473 I-0.0031 J0.0
G2 X3.2469 Y2.75 I0.0016 J0.0027
G1 F4.0 X3.2406
G2 F8.0 X3.2453 Y2.7581 I0.0094 J0.0
G2 X3.2594 Y2.75 I0.0047 J-0.0081
G2 X3.2453 Y2.7419 I-0.0094 J0.0
G2 X3.2406 Y2.75 I0.0047 J0.0081
G1 F4.0 X3.2281
G2 F8.0 X3.2391 Y2.7689 I0.0219 J0.0
G2 X3.2719 Y2.75 I0.0109 J-0.0189
G2 X3.2391 Y2.7311 I-0.0219 J0.0
G2 X3.2281 Y2.75 I0.0109 J0.0189
G1 F4.0 X3.2156
G2 F8.0 X3.2328 Y2.7798 I0.0344 J0.0
G2 X3.2844 Y2.75 I0.0172 J-0.0298
G2 X3.2328 Y2.7202 I-0.0344 J0.0
G2 X3.2156 Y2.75 I0.0172 J0.0298
G1 F4.0 X3.2031
G2 F8.0 X3.2266 Y2.7906 I0.0469 J0.0
G2 X3.2969 Y2.75 I0.0234 J-0.0406
G2 X3.2266 Y2.7094 I-0.0469 J0.0
G2 X3.2031 Y2.75 I0.0234 J0.0406
G0 Z0.125
G0 X3.2499 Y0.2531
G0 Z0.0625
G1 F4.0 Z-0.0313
G2 F8.0 X3.2531 Y0.25 I0.0001 J-0.0031
G2 X3.2484 Y0.2473 I-0.0031 J0.0
G2 Y0.2527 I0.0016 J0.0027
G2 X3.2499 Y0.2531 I0.0016 J-0.0027
G1 F4.0 X3.2498 Y0.2594
G2 F8.0 X3.2594 Y0.25 I0.0002 J-0.0094
G2 X3.2453 Y0.2419 I-0.0094 J0.0
G2 Y0.2581 I0.0047 J0.0081
G2 X3.2498 Y0.2594 I0.0047 J-0.0081
G1 F4.0 X3.2496 Y0.2719
G2 F8.0 X3.2719 Y0.25 I0.0004 J-0.0219
G2 X3.2391 Y0.2311 I-0.0219 J0.0
G2 Y0.2689 I0.0109 J0.0189
G2 X3.2496 Y0.2719 I0.0109 J-0.0189
G1 F4.0 X3.2494 Y0.2844
G2 F8.0 X3.2844 Y0.25 I0.0006 J-0.0344
G2 X3.2328 Y0.2202 I-0.0344 J0.0
G2 Y0.2798 I0.0172 J0.0298
G2 X3.2494 Y0.2844 I0.0172 J-0.0298
G1 F4.0 X3.2491 Y0.2969
G2 F8.0 X3.2969 Y0.25 I0.0009 J-0.0469
G2 X3.2266 Y0.2094 I-0.0469 J0.0
G2 Y0.2906 I0.0234 J0.0406
G2 X3.2491 Y0.2969 I0.0234 J-0.0406
G0 Z0.125
G0 X3.2499 Y0.2531
G0 Z0.0312
G1 F4.0 Z-0.0625
G2 F8.0 X3.2531 Y0.25 I0.0001 J-0.0031
G2 X3.2484 Y0.2473 I-0.0031 J0.0
G2 Y0.2527 I0.0016 J0.0027
G2 X3.2499 Y0.2531 I0.0016 J-0.0027
G1 F4.0 X3.2498 Y0.2594
G2 F8.0 X3.2594 Y0.25 I0.0002 J-0.0094
G2 X3.2453 Y0.2419 I-0.0094 J0.0
G2 Y0.2581 I0.0047 J0.0081
G2 X3.2498 Y0.2594 I0.0047 J-0.0081
G1 F4.0 X3.2496 Y0.2719
G2 F8.0 X3.2719 Y0.25 I0.0004 J-0.0219
G2 X3.2391 Y0.2311 I-0.0219 J0.0
G2 Y0.2689 I0.0109 J0.0189
G2 X3.2496 Y0.2719 I0.0109 J-0.0189
G1 F4.0 X3.2494 Y0.2844
G2 F8.0 X3.2844 Y0.25 I0.0006 J-0.0344
G2 X3.2328 Y0.2202 I-0.0344 J0.0
G2 Y0.2798 I0.0172 J0.0298
G2 X3.2494 Y0.2844 I0.0172 J-0.0298
G1 F4.0 X3.2491 Y0.2969
G2 F8.0 X3.2969 Y0.25 I0.0009 J-0.0469
G2 X3.2266 Y0.2094 I-0.0469 J0.0
G2 Y0.2906 I0.0234 J0.0406
G2 X3.2491 Y0.2969 I0.0234 J-0.0406
G0 Z0.125
G0 X3.2499 Y0.2531
G0 Z0.0
G1 F4.0 Z-0.0938
G2 F8.0 X3.2531 Y0.25 I0.0001 J-0.0031
G2 X3.2484 Y0.2473 I-0.0031 J0.0
G2 Y0.2527 I0.0016 J0.0027
G2 X3.2499 Y0.2531 I0.0016 J-0.0027
G1 F4.0 X3.2498 Y0.2594
G2 F8.0 X3.2594 Y0.25 I0.0002 J-0.0094
G2 X3.2453 Y0.2419 I-0.0094 J0.0
G2 Y0.2581 I0.0047 J0.0081
G2 X3.2498 Y0.2594 I0.0047 J-0.0081
G1 F4.0 X3.2496 Y0.2719
G2 F8.0 X3.2719 Y0.25 I0.0004 J-0.0219
G2 X3.2391 Y0.2311 I-0.0219 J0.0
G2 Y0.2689 I0.0109 J0.0189
G2 X3.2496 Y0.2719 I0.0109 J-0.0189
G1 F4.0 X3.2494 Y0.2844
G2 F8.0 X3.2844 Y0.25 I0.0006 J-0.0344
G2 X3.2328 Y0.2202 I-0.0344 J0.0
G2 Y0.2798 I0.0172 J0.0298
G2 X3.2494 Y0.2844 I0.0172 J-0.0298
G1 F4.0 X3.2491 Y0.2969
G2 F8.0 X3.2969 Y0.25 I0.0009 J-0.0469
G2 X3.2266 Y0.2094 I-0.0469 J0.0
G2 Y0.2906 I0.0234 J0.0406
G2 X3.2491 Y0.2969 I0.0234 J-0.0406
G0 Z0.125
G0 X3.2499 Y0.2531
G0 Z-0.0323
G1 F4.0 Z-0.126
G2 F8.0 X3.2531 Y0.25 I0.0001 J-0.0031
G2 X3.2484 Y0.2473 I-0.0031 J0.0
G2 Y0.2527 I0.0016 J0.0027
G2 X3.2499 Y0.2531 I0.0016 J-0.0027
G1 F4.0 X3.2498 Y0.2594
G2 F8.0 X3.2594 Y0.25 I0.0002 J-0.0094
G2 X3.2453 Y0.2419 I-0.0094 J0.0
G2 Y0.2581 I0.0047 J0.0081
G2 X3.2498 Y0.2594 I0.0047 J-0.0081
G1 F4.0 X3.2496 Y0.2719
G2 F8.0 X3.2719 Y0.25 I0.0004 J-0.0219
G2 X3.2391 Y0.2311 I-0.0219 J0.0
G2 Y0.2689 I0.0109 J0.0189
G2 X3.2496 Y0.2719 I0.0109 J-0.0189
G1 F4.0 X3.2494 Y0.2844
G2 F8.0 X3.2844 Y0.25 I0.0006 J-0.0344
G2 X3.2328 Y0.2202 I-0.0344 J0.0
G2 Y0.2798 I0.0172 J0.0298
G2 X3.2494 Y0.2844 I0.0172 J-0.0298
G1 F4.0 X3.2491 Y0.2969
G2 F8.0 X3.2969 Y0.25 I0.0009 J-0.0469
G2 X3.2266 Y0.2094 I-0.0469 J0.0
G2 Y0.2906 I0.0234 J0.0406
G2 X3.2491 Y0.2969 I0.0234 J-0.0406
G0 Z0.125
G0 X0.7531 Y0.2501
G0 Z0.0625
G1 F4.0 Z-0.0313
G1 F8.0 Y0.25
G2 X0.7484 Y0.2473 I-0.0031 J0.0
G2 Y0.2527 I0.0016 J0.0027
G2 X0.7531 Y0.2501 I0.0016 J-0.0027
G1 F4.0 X0.7594 Y0.2502
G2 F8.0 Y0.25 I-0.0094 J-0.0002
G2 X0.7453 Y0.2419 I-0.0094 J0.0
G2 Y0.2581 I0.0047 J0.0081
G2 X0.7594 Y0.2502 I0.0047 J-0.0081
G1 F4.0 X0.7719 Y0.2504
G2 F8.0 Y0.25 I-0.0219 J-0.0004
G2 X0.7391 Y0.2311 I-0.0219 J0.0
G2 Y0.2689 I0.0109 J0.0189
G2 X0.7719 Y0.2504 I0.0109 J-0.0189
G1 F4.0 X0.7844 Y0.2506
G2 F8.0 Y0.25 I-0.0344 J-0.0006
G2 X0.7328 Y0.2202 I-0.0344 J0.0
G2 Y0.2798 I0.0172 J0.0298
G2 X0.7844 Y0.2506 I0.0172 J-0.0298
G1 F4.0 X0.7969 Y0.2509
G2 F8.0 Y0.25 I-0.0469 J-0.0009
G2 X0.7266 Y0.2094 I-0.0469 J0.0
G2 Y0.2906 I0.0234 J0.0406
G2 X0.7969 Y0.2509 I0.0234 J-0.0406
G0 Z0.125
G0 X0.7531 Y0.2501
G0 Z0.0312
G1 F4.0 Z-0.0625
G1 F8.0 Y0.25
G2 X0.7484 Y0.2473 I-0.0031 J0.0
G2 Y0.2527 I0.0016 J0.0027
G2 X0.7531 Y0.2501 I0.0016 J-0.0027
G1 F4.0 X0.7594 Y0.2502
G2 F8.0 Y0.25 I-0.0094 J-0.0002
G2 X0.7453 Y0.2419 I-0.0094 J0.0
G2 Y0.2581 I0.0047 J0.0081
G2 X0.7594 Y0.2502 I0.0047 J-0.0081
G1 F4.0 X0.7719 Y0.2504
G2 F8.0 Y0.25 I-0.0219 J-0.0004
G2 X0.7391 Y0.2311 I-0.0219 J0.0
G2 Y0.2689 I0.0109 J0.0189
G2 X0.7719 Y0.2504 I0.0109 J-0.0189
G1 F4.0 X0.7844 Y0.2506
G2 F8.0 Y0.25 I-0.0344 J-0.0006
G2 X0.7328 Y0.2202 I-0.0344 J0.0
G2 Y0.2798 I0.0172 J0.0298
G2 X0.7844 Y0.2506 I0.0172 J-0.0298
G1 F4.0 X0.7969 Y0.2509
G2 F8.0 Y0.25 I-0.0469 J-0.0009
G2 X0.7266 Y0.2094 I-0.0469 J0.0
G2 Y0.2906 I0.0234 J0.0406
G2 X0.7969 Y0.2509 I0.0234 J-0.0406
G0 Z0.125
G0 X0.7531 Y0.2501
G0 Z0.0
G1 F4.0 Z-0.0938
G1 F8.0 Y0.25
G2 X0.7484 Y0.2473 I-0.0031 J0.0
G2 Y0.2527 I0.0016 J0.0027
G2 X0.7531 Y0.2501 I0.0016 J-0.0027
G1 F4.0 X0.7594 Y0.2502
G2 F8.0 Y0.25 I-0.0094 J-0.0002
G2 X0.7453 Y0.2419 I-0.0094 J0.0
G2 Y0.2581 I0.0047 J0.0081
G2 X0.7594 Y0.2502 I0.0047 J-0.0081
G1 F4.0 X0.7719 Y0.2504
G2 F8.0 Y0.25 I-0.0219 J-0.0004
G2 X0.7391 Y0.2311 I-0.0219 J0.0
G2 Y0.2689 I0.0109 J0.0189
G2 X0.7719 Y0.2504 I0.0109 J-0.0189
G1 F4.0 X0.7844 Y0.2506
G2 F8.0 Y0.25 I-0.0344 J-0.0006
G2 X0.7328 Y0.2202 I-0.0344 J0.0
G2 Y0.2798 I0.0172 J0.0298
G2 X0.7844 Y0.2506 I0.0172 J-0.0298
G1 F4.0 X0.7969 Y0.2509
G2 F8.0 Y0.25 I-0.0469 J-0.0009
G2 X0.7266 Y0.2094 I-0.0469 J0.0
G2 Y0.2906 I0.0234 J0.0406
G2 X0.7969 Y0.2509 I0.0234 J-0.0406
G0 Z0.125
G0 X0.7531 Y0.2501
G0 Z-0.0323
G1 F4.0 Z-0.126
G1 F8.0 Y0.25
G2 X0.7484 Y0.2473 I-0.0031 J0.0
G2 Y0.2527 I0.0016 J0.0027
G2 X0.7531 Y0.2501 I0.0016 J-0.0027
G1 F4.0 X0.7594 Y0.2502
G2 F8.0 Y0.25 I-0.0094 J-0.0002
G2 X0.7453 Y0.2419 I-0.0094 J0.0
G2 Y0.2581 I0.0047 J0.0081
G2 X0.7594 Y0.2502 I0.0047 J-0.0081
G1 F4.0 X0.7719 Y0.2504
G2 F8.0 Y0.25 I-0.0219 J-0.0004
G2 X0.7391 Y0.2311 I-0.0219 J0.0
G2 Y0.2689 I0.0109 J0.0189
G2 X0.7719 Y0.2504 I0.0109 J-0.0189
G1 F4.0 X0.7844 Y0.2506
G2 F8.0 Y0.25 I-0.0344 J-0.0006
G2 X0.7328 Y0.2202 I-0.0344 J0.0
G2 Y0.2798 I0.0172 J0.0298
G2 X0.7844 Y0.2506 I0.0172 J-0.0298
G1 F4.0 X0.7969 Y0.2509
G2 F8.0 Y0.25 I-0.0469 J-0.0009
G2 X0.7266 Y0.2094 I-0.0469 J0.0
G2 Y0.2906 I0.0234 J0.0406
G2 X0.7969 Y0.2509 I0.0234 J-0.0406
( Pocket3 )
S10000
G0 Z0.125
G0 X1.0719 Y0.5719
G0 Z0.0625
G1 F4.0 Z-0.02
G1 F8.0 Y0.5766
G3 X1.0766 Y0.5719 I0.0531 J0.0484
G1 X1.0719
G1 F4.0 X1.0656
G1 F8.0 Y0.5971
G3 X1.0971 Y0.5656 I0.0594 J0.0279
G1 X1.0656
G1 Y0.5719
G0 Z0.125
G0 X1.0719 Y2.4234
G0 Z0.0625
G1 F4.0 Z-0.02
G1 F8.0 Y2.4281
G1 X1.0766
G3 X1.0719 Y2.4234 I0.0484 J-0.0531
G1 F4.0 X1.0765 Y2.4192
G3 F8.0 X1.0656 Y2.4029 I0.0485 J-0.0442
G1 Y2.4344
G1 X1.0971
G3 X1.0765 Y2.4192 I0.0279 J-0.0594
G0 Z0.125
G0 X2.9234 Y2.4281
G0 Z0.0625
G1 F4.0 Z-0.02
G1 F8.0 X2.9281
G1 Y2.4234
G3 X2.9234 Y2.4281 I-0.0531 J-0.0484
G1 F4.0 X2.9192 Y2.4235
G3 F8.0 X2.9029 Y2.4344 I-0.0442 J-0.0485
G1 X2.9344
G1 Y2.4029
G3 X2.9192 Y2.4235 I-0.0594 J-0.0279
G0 Z0.125
G0 X2.9281 Y0.5766
G0 Z0.0625
G1 F4.0 Z-0.02
G1 F8.0 Y0.5719
G1 X2.9234
G3 X2.9281 Y0.5766 I-0.0484 J0.0531
G1 F4.0 X2.9344
G1 F8.0 Y0.5656
G1 X2.9029
G3 X2.9344 Y0.5971 I-0.0279 J0.0594
G1 Y0.5766
G0 Z0.125
G0 X2.8968 Y0.6073
G0 Z0.0625
G1 F4.0 Z-0.02
G3 F8.0 X2.9031 Y0.625 I-0.0218 J0.0177
G1 Y2.375
G3 X2.875 Y2.4031 I-0.0281 J0.0
G1 X1.125
G3 X1.0969 Y2.375 I0.0 J-0.0281
G1 Y0.625
G3 X1.125 Y0.5969 I0.0281 J0.0
G1 X2.875
G3 X2.8968 Y0.6073 I0.0 J0.0281
G1 F4.0 X2.8871 Y0.6151
G3 F8.0 X2.8906 Y0.625 I-0.0121 J0.0099
G1 Y2.375
G3 X2.875 Y2.3906 I-0.0156 J0.0
G1 X1.125
G3 X1.1094 Y2.375 I0.0 J-0.0156
G1 Y0.625
G3 X1.125 Y0.6094 I0.0156 J0.0
G1 X2.875
G3 X2.8871 Y0.6151 I0.0 J0.0156
G0 Z0.125
G0 X2.9065 Y0.5994
G0 Z0.0625
G1 F4.0 Z-0.02
G2 F8.0 X2.875 Y0.5844 I-0.0315 J0.0256
G1 X1.125
G2 X1.0844 Y0.625 I0.0 J0.0406
G1 Y2.375
G2 X1.125 Y2.4156 I0.0406 J0.0
G1 X2.875
G2 X2.9156 Y2.375 I0.0 J-0.0406
G1 Y0.625
G2 X2.9065 Y0.5994 I-0.0406 J0.0
G1 F4.0 X2.9162 Y0.5915
G2 F8.0 X2.875 Y0.5719 I-0.0412 J0.0335
G1 X1.125
G2 X1.0719 Y0.625 I0.0 J0.0531
G1 Y2.375
G2 X1.125 Y2.4281 I0.0531 J0.0
G1 X2.875
G2 X2.9281 Y2.375 I0.0 J-0.0531
G1 Y0.625
G2 X2.9162 Y0.5915 I-0.0531 J0.0
G0 Z0.125
G0 X2.9469
G0 Z0.0625
G1 F4.0 Z-0.02
G1 F8.0 Y0.5531
G1 X1.0531
G1 Y2.4469
G1 X2.9469
G1 Y0.5915
G1 F4.0 X2.9594
G1 F8.0 Y0.5406
G1 X1.0406
G1 Y2.4594
G1 X2.9594
G1 Y0.5915
G1 F4.0 X2.9719
G1 F8.0 Y0.5281
G1 X1.0281
G1 Y2.4719
G1 X2.9719
G1 Y0.5915
G1 F4.0 X2.9844
G1 F8.0 Y0.5156
G1 X1.0156
G1 Y2.4844
G1 X2.9844
G1 Y0.5915
G0 Z0.125
G0 X2.4734 Y1.4006
G0 Z0.0625
G1 F4.0 Z-0.02
G1 F8.0 X2.4561
G3 X2.465 Y1.4127 I-0.0746 J0.0646
G3 X2.4734 Y1.4006 I0.0854 J0.0505
G1 F4.0 X2.4831 Y1.4085
G3 F8.0 X2.4854 Y1.4058 I0.0673 J0.0547
G3 X2.4871 Y1.404 I0.0211 J0.0186
G3 X2.5125 Y1.3881 I0.0524 J0.0555
G1 X2.4193
G3 X2.4225 Y1.3895 I-0.0491 J0.1147
G3 X2.4249 Y1.3908 I-0.0118 J0.0255
G3 X2.4591 Y1.4279 I-0.0435 J0.0744
G3 X2.4594 Y1.4286 I-0.0254 J0.0122
G3 X2.4655 Y1.4456 I-0.1 J0.0449
G3 X2.4831 Y1.4085 I0.0849 J0.0176
G0 Z0.125
G0 X2.2372 Y1.4533
G0 Z0.0625
G1 F4.0 Z-0.02
G1 F8.0 X2.2364 Y1.4512
G1 X2.236 Y1.4526
G3 X2.2372 Y1.4533 I-0.0213 J0.0417
G1 F4.0 X2.2431 Y1.4512
G1 F8.0 X2.2362 Y1.4316
G1 X2.2283 Y1.4561
G3 X2.2528 Y1.4805 I-0.0136 J0.0383
G1 X2.2677 Y1.5213
G1 X2.2431 Y1.4512
G1 F4.0 X2.2549 Y1.4471
G1 F8.0 X2.2357 Y1.3924
G1 X2.2118 Y1.4664
G3 X2.2411 Y1.4848 I0.0028 J0.028
G1 X2.3972 Y1.9139
G1 X2.421
G3 X2.4155 Y1.9045 I0.021 J-0.0187
G1 X2.2549 Y1.4471
G0 Z0.125
G0 X1.9963
G0 Z0.0625
G1 F4.0 Z-0.02
G1 F8.0 Y1.4245
G3 Y1.424 I0.0469 J0.0
G3 X1.9988 Y1.4069 I0.0644 J0.0006
G1 X1.9909
G3 X1.9932 Y1.425 I-0.0621 J0.017
G1 Y1.8722
G3 X1.9913 Y1.8918 I-0.0942 J0.0009
G3 X1.9906 Y1.8952 I-0.0627 J-0.0119
G1 X1.9963
G1 Y1.4471
G1 F4.0 X2.0025
G1 F8.0 Y1.4245
G3 Y1.4241 I0.0406 J0.0
G3 X2.0077 Y1.4006 I0.0582 J0.0005
G1 X1.9821
G3 X1.9869 Y1.4249 I-0.0532 J0.0233
G1 Y1.8723
G3 X1.9852 Y1.8906 I-0.0879 J0.0009
G3 X1.982 Y1.9014 I-0.0566 J-0.0107
G1 X2.0027
G3 X2.0025 Y1.8975 I0.0404 J-0.0039
G1 Y1.4471
G1 F4.0 X2.015
G1 F8.0 Y1.4245
G3 Y1.4242 I0.0281 J0.0
G3 X2.0332 Y1.3881 I0.0457 J0.0004
G1 X1.9571
G3 X1.9744 Y1.4248 I-0.0283 J0.0358
G1 Y1.8723
G3 X1.9729 Y1.8882 I-0.0754 J0.0008
G3 X1.9601 Y1.9122 I-0.0443 J-0.0083
G3 X1.9581 Y1.9139 I-0.0196 J-0.0201
G1 X2.0203
G3 X2.015 Y1.8975 I0.0228 J-0.0164
G1 Y1.4471
G0 Z0.125
G0 X2.4688 Y1.9037
G0 Z0.0625
G1 F4.0 Z-0.02
G3 F8.0 X2.463 Y1.9139 I-0.0268 J-0.0085
G1 X2.4777
G3 X2.4776 Y1.9138 I0.0182 J-0.0215
G3 X2.4688 Y1.9037 I0.0301 J-0.0351
G1 F4.0 X2.4569 Y1.8999
G3 F8.0 X2.4272 Y1.9003 I-0.0149 J-0.0047
G1 X2.243 Y1.3756
G1 X2.228
G1 X2.058 Y1.9023
G3 X2.0275 Y1.8975 I-0.0149 J-0.0048
G1 Y1.4245
G3 Y1.4243 I0.0156 J0.0
G3 X2.0423 Y1.397 I0.0332 J0.0003
G3 X2.0424 Y1.3969 I0.0087 J0.013
G3 X2.0611 Y1.39 I0.0245 J0.0376
G3 X2.0764 Y1.3889 I0.0145 J0.0957
G1 X2.1166
G1 Y1.3756
G1 X1.8729
G1 Y1.3889
G1 X1.9087
G3 X1.9255 Y1.3897 I0.001 J0.1496
G3 X1.9464 Y1.3959 I-0.0039 J0.0513
G3 X1.9478 Y1.3968 I-0.0075 J0.0137
G3 X1.9619 Y1.4247 I-0.019 J0.0271
G1 Y1.8724
G3 X1.9606 Y1.8858 I-0.0629 J0.0007
G3 X1.9513 Y1.9032 I-0.032 J-0.0059
G3 X1.9493 Y1.9049 I-0.0109 J-0.0112
G3 X1.9284 Y1.9123 I-0.024 J-0.0347
G3 X1.9126 Y1.9131 I-0.0148 J-0.128
G1 X1.8729
G1 Y1.9264
G1 X2.053
G1 X2.1998 Y1.4894
G3 X2.2293 Y1.489 I0.0148 J0.005
G1 X2.3885 Y1.9264
G1 X2.5639
G1 Y1.9131
G1 X2.5237
G3 X2.508 Y1.9123 I-0.001 J-0.1345
G3 X2.4877 Y1.9057 I0.0033 J-0.0447
G3 X2.4857 Y1.9043 I0.0082 J-0.0133
G3 X2.474 Y1.8766 I0.0219 J-0.0256
G1 Y1.487
G3 X2.4771 Y1.4516 I0.1824 J-0.0021
G3 X2.4947 Y1.4141 I0.0733 J0.0116
G3 X2.4957 Y1.4131 I0.0117 J0.0103
G3 X2.5174 Y1.3996 I0.0438 J0.0464
G3 X2.5383 Y1.3935 I0.0481 J0.124
G1 Y1.3934
G3 X2.5639 Y1.3894 I0.0573 J0.2804
G1 Y1.3756
G1 X2.3658
G1 Y1.3893
G3 X2.3829 Y1.3913 I-0.0355 J0.3744
G3 X2.4173 Y1.4009 I-0.0127 J0.1116
G3 X2.4186 Y1.4016 I-0.0065 J0.0142
G3 X2.4479 Y1.4333 I-0.0372 J0.0636
G3 X2.448 Y1.4337 I-0.0141 J0.0068
G3 X2.4561 Y1.4638 I-0.0886 J0.0398
G3 X2.4576 Y1.4917 I-0.2271 J0.0265
G1 Y1.8952
G3 X2.4569 Y1.8999 I-0.0156 J0.0
G0 Z0.125
G0 X1.739 Y1.6424
G0 Z0.0625
G1 F4.0 Z-0.02
G2 F8.0 X1.7436 Y1.6152 I-0.0729 J-0.0262
G3 Y1.6139 I0.0406 J-0.0005
G2 X1.7379 Y1.5845 I-0.0732 J-0.0013
G3 X1.7404 Y1.617 I-0.1912 J0.0308
G3 X1.7387 Y1.6433 I-0.1744 J0.0016
G2 X1.739 Y1.6424 I-0.0726 J-0.0271
G1 F4.0 X1.7508 Y1.6466
G2 F8.0 X1.7561 Y1.6151 I-0.0847 J-0.0304
G3 Y1.6142 I0.0281 J-0.0004
G2 X1.7428 Y1.5668 I-0.0857 J-0.0016
G3 Y1.5667 I0.0238 J-0.015
G2 X1.7099 Y1.541 I-0.0517 J0.0324
G3 X1.7096 I0.0087 J-0.0268
G3 X1.7232 Y1.5743 I-0.0932 J0.0575
G3 X1.7279 Y1.617 I-0.1764 J0.041
G3 X1.723 Y1.6583 I-0.1619 J0.0016
G3 X1.7013 Y1.7004 I-0.1006 J-0.0251
G3 X1.7006 Y1.7013 I-0.0702 J-0.0593
G2 X1.7225 Y1.6864 I-0.0555 J-0.1047
G3 X1.723 Y1.6859 I0.0184 J0.0213
G2 X1.7508 Y1.6466 I-0.0569 J-0.0697
G0 Z0.125
G0 X1.6907 Y1.5183
G0 Z0.0625
G1 F4.0 Z-0.02
G3 F8.0 X1.6905 Y1.5117 I0.0278 J-0.004
G3 X1.6831 Y1.5123 I-0.0237 J-0.2756
G3 X1.6907 Y1.5183 I-0.0525 J0.0743
G0 Z0.125
G0 X1.7584 Y1.4517
G0 Z0.0625
G1 F4.0 Z-0.02
G2 F8.0 X1.76 Y1.4394 I-0.0403 J-0.0115
G3 Y1.4382 I0.0281 J-0.0005
G2 X1.7479 Y1.4095 I-0.0378 J-0.0009
G2 X1.7321 Y1.4001 I-0.0309 J0.0334
G2 X1.7112 Y1.3963 I-0.0225 J0.0658
G3 X1.686 Y1.3792 I0.0007 J-0.0281
G3 X1.6597 Y1.3845 I-0.0531 J-0.1958
G3 X1.6595 I-0.0037 J-0.0279
G3 X1.6072 Y1.3877 I-0.0495 J-0.3848
G3 X1.5733 Y1.3865 I-0.0016 J-0.4134
G3 X1.5363 Y1.38 I0.0122 J-0.1797
G3 X1.5358 Y1.3799 I0.0077 J-0.027
G3 X1.5145 Y1.371 I0.0334 J-0.1099
G3 X1.4924 Y1.3526 I0.0335 J-0.0629
G3 X1.4772 Y1.3113 I0.0529 J-0.0429
G2 X1.4721 Y1.3368 I0.0591 J0.0251
G3 X1.472 Y1.3381 I-0.0281 J0.0002
G2 X1.4948 Y1.3853 I0.0558 J0.0022
G2 X1.533 Y1.4016 I0.0558 J-0.078
G3 X1.5333 I-0.0052 J0.0276
G2 X1.581 Y1.4061 I0.0454 J-0.2274
G1 X1.6758 Y1.4041
G3 X1.7161 Y1.4072 I0.0042 J0.2142
G3 X1.7163 I-0.0047 J0.0277
G3 X1.7364 Y1.4145 I-0.0109 J0.0615
G3 X1.7388 Y1.416 I-0.014 J0.0244
G3 X1.7584 Y1.4517 I-0.0273 J0.0381
G0 Z0.125
G0 X1.751 Y1.3298
G0 Z0.0625
G1 F4.0 Z-0.02
G2 F8.0 X1.7589 Y1.3241 I-0.0273 J-0.0458
G3 X1.7592 Y1.3238 I0.0186 J0.0211
G2 X1.7713 Y1.2984 I-0.0227 J-0.0264
G2 X1.7658 Y1.2799 I-0.035 J0.0003
G2 X1.7486 Y1.2618 I-0.0595 J0.0391
G2 X1.7427 Y1.2579 I-0.0714 J0.1025
G3 X1.7576 Y1.3014 I-0.0524 J0.0422
G3 X1.751 Y1.3298 I-0.0678 J-0.0007
G0 Z0.125
G0 X1.5203 Y1.5856
G0 Z0.0625
G1 F4.0 Z-0.02
G2 F8.0 X1.5146 Y1.6151 I0.0676 J0.0282
G3 Y1.6162 I-0.0406 J0.0007
G2 X1.5185 Y1.639 I0.0658 J0.0005
G2 X1.5201 Y1.6427 I0.0878 J-0.0364
G3 X1.5182 Y1.6155 I0.1683 J-0.0257
G3 X1.5203 Y1.5856 I0.1906 J-0.0018
G1 F4.0 X1.5326 Y1.5875
G3 F8.0 X1.5354 Y1.573 I0.1762 J0.0262
G3 X1.5526 Y1.5346 I0.1049 J0.024
G2 X1.5343 Y1.5473 I0.0827 J0.1394
G3 X1.5342 I-0.0175 J-0.022
G2 X1.5153 Y1.5681 I0.0537 J0.068
G2 X1.5021 Y1.6153 I0.0726 J0.0457
G3 Y1.6161 I-0.0281 J0.0005
G2 X1.5069 Y1.6436 I0.0783 J0.0006
G2 X1.5244 Y1.6723 I0.0994 J-0.0409
G3 X1.5307 Y1.6858 I-0.0214 J0.0182
G3 X1.5475 Y1.6916 I-0.0004 J0.0281
G2 X1.5566 Y1.698 I0.0674 J-0.0873
G3 X1.5359 Y1.6573 I0.0841 J-0.0684
G3 X1.5307 Y1.6155 I0.1526 J-0.0403
G3 X1.5326 Y1.5875 I0.1781 J-0.0018
G0 Z0.125
G0 X1.4477 Y1.6916
G0 Z0.0625
G1 F4.0 Z-0.02
G2 F8.0 X1.4439 Y1.6904 I-0.0036 J0.0054
G3 X1.4426 Y1.6905 I-0.0011 J-0.0281
G2 X1.4377 Y1.6927 I0.0 J0.0065
G3 X1.4372 Y1.6932 I-0.0211 J-0.0186
G2 X1.4338 Y1.7022 I0.0093 J0.0086
G3 Y1.7034 I-0.0281 J0.0008
G2 X1.4398 Y1.7173 I0.0185 J0.0003
G3 X1.4406 Y1.718 I-0.0189 J0.0208
G2 X1.458 Y1.7249 I0.0168 J-0.0172
G3 X1.4582 Y1.7248 I0.0008 J0.0281
G2 X1.4668 Y1.7239 I-0.001 J-0.0481
G3 X1.4626 Y1.7204 I0.0158 J-0.0233
G3 X1.4535 Y1.7049 I0.0259 J-0.0256
G3 X1.452 Y1.7 I0.1032 J-0.0343
G3 X1.4518 Y1.6991 I0.0271 J-0.0076
G2 X1.4477 Y1.6916 I-0.0167 J0.0041
G1 F4.0 X1.457 Y1.6831
G2 F8.0 X1.4561 Y1.6822 I-0.0219 J0.0201
G2 X1.4434 Y1.678 I-0.012 J0.0147
G3 X1.4427 I-0.0006 J-0.0156
G2 X1.4283 Y1.6844 I-0.0001 J0.019
G3 X1.428 Y1.6847 I-0.0117 J-0.0103
G2 X1.4213 Y1.7026 I0.0184 J0.0172
G3 Y1.7032 I-0.0156 J0.0004
G2 X1.4314 Y1.7266 I0.031 J0.0004
G3 X1.4318 Y1.727 I-0.0105 J0.0116
G2 X1.4584 Y1.7373 I0.0256 J-0.0261
G3 X1.4585 I0.0004 J0.0156
G2 X1.4901 Y1.7277 I-0.0012 J-0.0606
G3 X1.4902 Y1.7276 I0.0085 J0.0131
G2 X1.5186 Y1.7035 I-0.0725 J-0.1143
G3 X1.5398 Y1.7015 I0.0117 J0.0104
G2 X1.5797 Y1.722 I0.075 J-0.0972
G3 X1.5799 I-0.0045 J0.015
G2 X1.6291 Y1.7295 I0.0489 J-0.1561
G3 X1.6293 I0.0 J0.0156
G2 X1.6838 Y1.7218 I0.002 J-0.1814
G2 X1.7306 Y1.6958 I-0.0388 J-0.1251
G3 X1.7309 Y1.6956 I0.0102 J0.0118
G2 X1.7686 Y1.6149 I-0.0648 J-0.0793
G3 Y1.6144 I0.0156 J-0.0002
G2 X1.7534 Y1.5601 I-0.0982 J-0.0018
G2 X1.7137 Y1.5292 I-0.0623 J0.039
G3 X1.7152 Y1.499 I0.0048 J-0.0149
G2 X1.7401 Y1.4903 I-0.0245 J-0.1097
G2 X1.7592 Y1.4759 I-0.0267 J-0.055
G2 X1.7725 Y1.4392 I-0.0411 J-0.0357
G3 Y1.4385 I0.0156 J-0.0003
G2 X1.7564 Y1.4004 I-0.0503 J-0.0013
G2 X1.7362 Y1.3882 I-0.0394 J0.0426
G2 X1.7115 Y1.3838 I-0.0266 J0.0776
G3 X1.6975 Y1.3622 I0.0004 J-0.0156
G3 X1.6841 Y1.3668 I-0.04 J-0.0937
G3 X1.658 Y1.3722 I-0.0513 J-0.1833
G3 X1.6072 Y1.3752 I-0.0479 J-0.3724
G3 X1.5742 Y1.374 I-0.0016 J-0.401
G3 X1.5397 Y1.368 I0.0113 J-0.1673
G3 X1.5394 Y1.3679 I0.0043 J-0.015
G3 X1.5204 Y1.36 I0.0298 J-0.098
G3 X1.5021 Y1.3448 I0.0276 J-0.0519
G3 X1.4897 Y1.3106 I0.0431 J-0.0351
G3 Y1.31 I0.0156 J-0.0003
G3 X1.5038 Y1.2749 I0.054 J0.0015
G3 X1.528 Y1.2548 I0.0795 J0.0711
G1 X1.5281
G3 X1.5795 Y1.2365 I0.0711 J0.1183
G3 X1.6303 Y1.2327 I0.0482 J0.3012
G3 X1.6745 Y1.2364 I0.002 J0.237
G3 X1.719 Y1.2534 I-0.0207 J0.1214
G3 X1.7451 Y1.3013 I-0.0287 J0.0467
G3 X1.7336 Y1.3345 I-0.0553 J-0.0005
G3 X1.7152 Y1.3523 I-0.0709 J-0.055
G2 X1.7422 Y1.3472 I-0.0109 J-0.1316
G1 X1.7423
G2 X1.7672 Y1.3334 I-0.0185 J-0.0631
G3 X1.7673 Y1.3333 I0.0103 J0.0117
G2 X1.7838 Y1.2985 I-0.0309 J-0.0359
G2 X1.7763 Y1.2731 I-0.0475 J0.0002
G2 X1.7559 Y1.2516 I-0.07 J0.0459
G2 X1.7012 Y1.229 I-0.0787 J0.1127
G3 X1.701 Y1.2289 I0.0027 J-0.0154
G2 X1.6382 Y1.2233 I-0.0595 J0.3109
G3 X1.638 I-0.0002 J-0.0156
G2 X1.5822 Y1.2274 I-0.0024 J0.3488
G3 X1.5821 I-0.0024 J-0.0154
G2 X1.5307 Y1.2431 I0.0265 J0.1789
G2 X1.503 Y1.2628 I0.0452 J0.0925
G3 X1.501 Y1.2645 I-0.0111 J-0.011
G2 X1.4707 Y1.2966 I0.0662 J0.0931
G2 X1.4596 Y1.3369 I0.0656 J0.0398
G3 Y1.3376 I-0.0156 J0.0001
G2 X1.4875 Y1.3954 I0.0683 J0.0027
G2 X1.5307 Y1.4138 I0.0632 J-0.0881
G3 X1.5309 Y1.4139 I-0.0029 J0.0154
G2 X1.5812 Y1.4186 I0.0478 J-0.2396
G1 X1.676 Y1.4166
G1 X1.6761
G3 X1.714 Y1.4195 I0.0039 J0.2017
G1 X1.7141
G3 X1.7302 Y1.4253 I-0.0087 J0.0492
G3 X1.7316 Y1.4262 I-0.0078 J0.0136
G3 X1.7459 Y1.4551 I-0.02 J0.028
G3 X1.7305 Y1.4878 I-0.0378 J0.0022
G3 X1.7286 Y1.489 I-0.0093 J-0.0126
G3 X1.6951 Y1.4987 I-0.04 J-0.0756
G3 X1.665 Y1.5002 I-0.0283 J-0.2626
G1 X1.6234
G2 X1.5558 Y1.5186 I0.0038 J0.1478
G3 X1.5554 Y1.5188 I-0.0076 J-0.0137
G2 X1.5265 Y1.5375 I0.0799 J0.1553
G2 X1.5048 Y1.5614 I0.0615 J0.0778
G2 X1.4896 Y1.6156 I0.0831 J0.0524
G3 Y1.616 I-0.0156 J0.0003
G2 X1.4952 Y1.6481 I0.0908 J0.0007
G2 X1.5148 Y1.6804 I0.1111 J-0.0454
G3 X1.5137 Y1.7018 I-0.0119 J0.0101
G3 X1.5016 Y1.7109 I-0.0447 J-0.0469
G3 X1.4831 Y1.7162 I-0.0197 J-0.0331
G3 X1.4715 Y1.7116 I-0.0005 J-0.0156
G3 X1.4655 Y1.7012 I0.017 J-0.0168
G3 X1.4641 Y1.6967 I0.0912 J-0.0306
G3 X1.4639 Y1.6961 I0.015 J-0.0042
G2 X1.457 Y1.6831 I-0.0289 J0.0071
G0 Z0.125
G0 X1.5486 Y1.6564
G0 Z0.0625
G1 F4.0 Z-0.02
G3 F8.0 X1.548 Y1.6541 I0.0921 J-0.0268
G3 X1.5432 Y1.6155 I0.1405 J-0.0371
G3 X1.5475 Y1.5758 I0.1656 J-0.0018
G3 X1.5666 Y1.5368 I0.0928 J0.0212
G3 X1.5667 Y1.5367 I0.0121 J0.0099
G3 X1.6295 Y1.508 I0.0613 J0.0511
G3 X1.6921 Y1.5378 I0.001 J0.0785
G3 X1.7111 Y1.5771 I-0.0757 J0.0607
G3 X1.7154 Y1.617 I-0.1643 J0.0382
G3 X1.7109 Y1.6552 I-0.1494 J0.0016
G3 X1.6918 Y1.6924 I-0.0885 J-0.0221
G3 X1.6298 Y1.7205 I-0.0607 J-0.0512
G3 X1.567 Y1.691 I-0.0009 J-0.0796
G3 X1.5486 Y1.6564 I0.0737 J-0.0614
G0 Z0.125
G0 X1.3718 Y2.0081
G0 Z0.0625
G1 F4.0 Z-0.02
G1 F8.0 X1.3507
G3 X1.3583 Y2.0279 I-0.0205 J0.0192
G1 X1.3718 Y2.0081
G1 F4.0 X1.3821 Y2.0151
G1 F8.0 X1.3954 Y1.9956
G1 X1.2331
G1 Y2.0117
G1 X1.3302
G3 X1.3433 Y2.0359 I0.0 J0.0156
G1 X1.2818 Y2.1297
G1 X1.2817
G2 X1.2651 Y2.1582 I0.2451 J0.162
G1 Y2.1583
G2 X1.2536 Y2.1876 I0.1366 J0.0705
G2 X1.2509 Y2.2066 I0.0724 J0.0199
G1 Y2.2067
G2 X1.2558 Y2.2326 I0.0658 J0.0011
G2 X1.271 Y2.2524 I0.0468 J-0.0203
G2 X1.2993 Y2.2662 I0.0458 J-0.058
G2 X1.3333 Y2.2701 I0.0325 J-0.1317
G3 X1.3336 I0.0002 J0.0156
G2 X1.3758 Y2.2582 I0.0007 J-0.0781
G3 X1.3762 Y2.258 I0.0083 J0.0132
G2 X1.397 Y2.2394 I-0.037 J-0.0622
G1 X1.3851 Y2.23
G3 X1.3706 Y2.2436 I-0.0682 J-0.058
G3 X1.3704 Y2.2438 I-0.0094 J-0.0125
G3 X1.3316 Y2.2561 I-0.0383 J-0.0534
G3 X1.3041 Y2.2516 I-0.0017 J-0.0765
G3 X1.2788 Y2.2273 I0.0145 J-0.0405
G3 X1.2786 Y2.227 I0.0145 J-0.0059
G3 X1.275 Y2.2062 I0.0521 J-0.0198
G3 X1.2784 Y2.183 I0.0896 J0.0011
G3 X1.2858 Y2.1626 I0.1331 J0.0369
G1 X1.2859 Y2.1625
G3 X1.3063 Y2.1268 I0.2196 J0.1019
G1 X1.3821 Y2.0151
G0 Z0.125
G0 X1.5503 Y2.2091
G0 Z0.0625
G1 F4.0 Z-0.02
G1 F8.0 Y2.2342
G3 X1.5645 Y2.2224 I0.1752 J0.1972
G3 X1.5503 Y2.2091 I0.011 J-0.0259
G1 F4.0 X1.5378
G1 F8.0 Y2.2643
G3 X1.577 Y2.2287 I0.1877 J0.1671
G3 X1.621 Y2.2014 I0.1958 J0.2671
G1 Y2.1875
G1 X1.5835 Y2.21
G3 X1.5599 Y2.1966 I-0.008 J-0.0134
G1 Y1.9956
G1 X1.5378
G1 Y2.2091
( Pocket2 )
S10000
G0 Z0.125
G0 X2.2923 Y0.698
G0 Z0.0625
G1 F4.0 Z-0.02
G1 F8.0 X2.2847
G3 X2.2876 Y0.7049 I-0.0148 J0.0102
G1 X2.2923 Y0.698
G1 F4.0 X2.2989 Y0.7025
G1 F8.0 X2.3074 Y0.69
G1 X2.2128
G1 Y0.6982
G1 X2.2699
G3 X2.2783 Y0.7137 I0.0 J0.01
G1 X2.2416 Y0.7695
G2 X2.2318 Y0.7864 I0.1453 J0.096
G2 X2.225 Y0.8037 I0.0807 J0.0417
G2 X2.2234 Y0.8149 I0.0424 J0.0117
G2 X2.2262 Y0.8301 I0.0385 J0.0006
G2 X2.2351 Y0.8416 I0.0272 J-0.0118
G2 X2.2517 Y0.8497 I0.0269 J-0.034
G2 X2.2717 Y0.852 I0.0192 J-0.0777
G3 X2.2719 I0.0001 J0.01
G2 X2.2967 Y0.845 I0.0004 J-0.0458
G3 X2.2969 Y0.8449 I0.0053 J0.0085
G2 X2.3086 Y0.8345 I-0.0216 J-0.0364
G1 X2.3026 Y0.8298
G3 X2.2944 Y0.8374 I-0.0407 J-0.0355
G3 X2.2942 Y0.8376 I-0.006 J-0.008
G3 X2.2707 Y0.845 I-0.0232 J-0.0324
G3 X2.2541 Y0.8423 I-0.001 J-0.0462
G3 X2.2386 Y0.8275 I0.0089 J-0.0248
G3 X2.2385 Y0.8273 I0.0093 J-0.0038
G3 X2.2363 Y0.8146 I0.0316 J-0.012
G3 X2.2383 Y0.8007 I0.054 J0.0007
G3 X2.2428 Y0.7884 I0.0799 J0.0222
G1 X2.2429 Y0.7883
G3 X2.2551 Y0.767 I0.1313 J0.061
G1 X2.2989 Y0.7025
G0 Z0.125
G0 X2.1582 Y0.7488
G0 Z0.0625
G1 F4.0 Z-0.02
G3 F8.0 X2.1563 Y0.7584 I-0.0095 J0.0031
G1 X2.1104 Y0.8121
G3 X2.0928 Y0.8056 I-0.0076 J-0.0065
G1 Y0.7519
G3 X2.1028 Y0.7419 I0.01 J0.0
G1 X2.1487
G3 X2.1582 Y0.7488 I0.0 J0.01
G0 Z0.125
G0 X2.0899 Y0.7393
G0 Z0.0625
G1 F4.0 Z-0.02
G3 F8.0 X2.0875 Y0.7363 I0.0129 J-0.0126
G3 X2.0851 Y0.7393 I-0.0153 J-0.0095
G3 X2.0875 Y0.7424 I-0.0129 J0.0126
G3 X2.0899 Y0.7393 I0.0152 J0.0095
G0 Z0.125
G0 X2.0903 Y0.8185
G0 Z0.0625
G1 F4.0 Z-0.02
G1 F8.0 Y0.8271
G1 X2.0948 Y0.8217
G3 X2.0903 Y0.8185 I0.0079 J-0.0161
G1 F4.0 X2.0823
G1 F8.0 Y0.8488
G1 X2.1742 Y0.7412
G1 Y0.7368
G1 X2.1028
G3 X2.0928 Y0.7268 I0.0 J-0.01
G1 Y0.69
G1 X2.0823
G1 Y0.7268
G3 X2.0723 Y0.7368 I-0.01 J0.0
G1 X2.0642
G1 Y0.7419
G1 X2.0723
G3 X2.0823 Y0.7519 I0.0 J0.01
G1 Y0.8185
G0 Z0.125
G0 X2.0048 Y0.6994
G0 Z0.0625
G1 F4.0 Z-0.02
G2 F8.0 X2.0054 Y0.699 I-0.0018 J-0.0028
G3 X2.0057 Y0.6986 I0.0129 J0.0125
G2 X2.0067 Y0.6963 I-0.0022 J-0.0022
G3 Y0.6957 I0.018 J-0.0004
G2 X2.0056 Y0.6931 I-0.0035 J-0.0001
G3 X2.0054 Y0.6929 I0.0127 J-0.0128
G2 X2.003 Y0.6919 I-0.0024 J0.0023
G3 X2.0024 I-0.0003 J-0.018
G2 X2.0002 Y0.6928 I-0.0001 J0.0029
G3 X1.9997 Y0.6933 I-0.013 J-0.0124
G2 X1.9987 Y0.6957 I0.0023 J0.0024
G3 Y0.6963 I-0.018 J0.0003
G2 X1.9996 Y0.6985 I0.0029 J0.0001
G3 X2.0002 Y0.6991 I-0.0124 J0.013
G2 X2.0024 Y0.7 I0.0021 J-0.002
G3 X2.003 I0.0003 J0.018
G2 X2.0048 Y0.6994 I0.0001 J-0.0033
G1 F4.0 X2.0092 Y0.7061
G2 F8.0 X2.0111 Y0.7045 I-0.0062 J-0.0095
G3 X2.0113 Y0.7043 I0.0072 J0.007
G2 X2.0147 Y0.6962 I-0.0078 J-0.0079
G3 Y0.6958 I0.01 J-0.0002
G2 X2.0113 Y0.6875 I-0.0115 J-0.0002
G3 X2.0111 Y0.6873 I0.007 J-0.0071
G2 X2.0028 Y0.6839 I-0.0081 J0.0079
G3 X2.0025 I-0.0002 J-0.01
G2 X1.9944 Y0.6873 I-0.0002 J0.0109
G3 X1.9941 Y0.6875 I-0.0072 J-0.0069
G2 X1.9907 Y0.6958 I0.0079 J0.0081
G3 Y0.6962 I-0.01 J0.0002
G2 X1.9941 Y0.7043 I0.0109 J0.0002
G3 X1.9944 Y0.7046 I-0.0069 J0.0072
G2 X2.0025 Y0.708 I0.0079 J-0.0075
G3 X2.0028 I0.0002 J0.01
G2 X2.0092 Y0.7061 I0.0002 J-0.0113
G0 Z0.125
G0 X1.9178 Y0.6984
G0 Z0.0625
G1 F4.0 Z-0.02
G2 F8.0 X1.9116 Y0.6954 I-0.0256 J0.0448
G3 X1.9136 Y0.6964 I-0.0216 J0.0453
G3 X1.9137 Y0.6965 I-0.0066 J0.0124
G3 X1.9176 Y0.6988 I-0.0318 J0.0588
G1 X1.9178 Y0.6984
G0 Z0.125
G0 X1.8697 Y0.694
G0 Z0.0625
G1 F4.0 Z-0.02
G2 F8.0 X1.8693 Y0.6941 I0.0196 J0.0785
G2 X1.8526 Y0.7024 I0.0106 J0.042
G2 X1.8437 Y0.7145 I0.0192 J0.0235
G2 X1.8408 Y0.7309 I0.0409 J0.0157
G3 Y0.7314 I-0.014 J0.0002
G2 X1.8436 Y0.7463 I0.038 J0.0006
G2 X1.8521 Y0.7575 I0.027 J-0.0117
G2 X1.8543 Y0.7591 I0.0283 J-0.0351
G3 X1.8489 Y0.7497 I0.0318 J-0.0246
G3 X1.8488 Y0.7496 I0.013 J-0.0053
G3 X1.8457 Y0.733 I0.0412 J-0.0162
G3 X1.8487 Y0.7152 I0.0507 J-0.0008
G3 Y0.715 I0.0132 J0.0047
G3 X1.8623 Y0.6978 I0.0333 J0.0122
G3 X1.8624 Y0.6977 I0.0078 J0.0116
G3 X1.8697 Y0.694 I0.0223 J0.0343
G0 Z0.125
G0 X1.8683 Y0.7708
G0 Z0.0625
G1 F4.0 Z-0.02
G3 F8.0 X1.8687 Y0.7797 I-0.0131 J0.005
G3 X1.8694 Y0.7793 I0.0154 J0.0279
G3 X1.8803 Y0.7755 I0.019 J0.0367
G3 X1.8817 Y0.7752 I0.0123 J0.0612
G3 X1.8755 Y0.7737 I0.01 J-0.0547
G1 X1.8754
G3 X1.8683 Y0.7708 I0.0127 J-0.0409
G0 Z0.125
G0 X1.8559 Y0.7928
G0 Z0.0625
G1 F4.0 Z-0.02
G2 F8.0 X1.8506 Y0.7995 I0.0228 J0.0235
G2 X1.8468 Y0.8153 I0.0283 J0.0152
G3 Y0.8158 I-0.014 J0.0003
G2 X1.8492 Y0.8292 I0.0347 J0.0006
G2 X1.8565 Y0.8389 I0.0228 J-0.0097
G2 X1.8708 Y0.8459 I0.0231 J-0.029
G1 X1.8709
G2 X1.8766 Y0.8471 I0.0175 J-0.0713
G3 X1.8711 Y0.845 I0.0136 J-0.0453
G3 X1.8707 Y0.8448 I0.0056 J-0.0128
G3 X1.8537 Y0.8251 I0.0139 J-0.0291
G3 X1.8517 Y0.8112 I0.0441 J-0.0135
G3 X1.8552 Y0.7942 I0.0399 J-0.0007
G3 X1.8553 Y0.7939 I0.0128 J0.0057
G3 X1.8559 Y0.7928 I0.0287 J0.0137
G1 F4.0 X1.8594 Y0.7946
G3 F8.0 X1.8713 Y0.7829 I0.0246 J0.013
G3 X1.8811 Y0.7794 I0.0172 J0.0331
G3 X1.8878 Y0.7785 I0.0115 J0.0573
G1 Y0.772
G3 X1.8767 Y0.7699 I0.0039 J-0.0514
G1 X1.8766
G3 X1.8618 Y0.7614 I0.0115 J-0.0371
G3 X1.8526 Y0.7482 I0.0243 J-0.0268
G3 X1.8525 Y0.7481 I0.0093 J-0.0038
G3 X1.8497 Y0.733 I0.0375 J-0.0147
G3 X1.8525 Y0.7165 I0.0467 J-0.0008
G1 Y0.7164
G3 X1.8645 Y0.7011 I0.0295 J0.0109
G3 X1.8646 I0.0056 J0.0083
G3 X1.8759 Y0.6962 I0.0201 J0.0309
G3 X1.8901 Y0.6945 I0.0135 J0.0553
G3 X1.9117 Y0.7 I-0.0001 J0.0462
G1 X1.9118
G3 X1.9187 Y0.7044 I-0.0299 J0.0553
G1 X1.9233 Y0.6972
G2 X1.9117 Y0.6912 I-0.0312 J0.0461
G2 X1.8905 Y0.6876 I-0.0207 J0.0571
G3 X1.8903 I-0.0001 J-0.01
G2 X1.8683 Y0.6902 I-0.001 J0.0849
G2 X1.8501 Y0.6993 I0.0116 J0.0458
G2 X1.84 Y0.7131 I0.0218 J0.0266
G2 X1.8368 Y0.731 I0.0446 J0.0171
G3 Y0.7313 I-0.01 J0.0002
G2 X1.8399 Y0.7478 I0.042 J0.0007
G2 X1.8496 Y0.7606 I0.0307 J-0.0133
G2 X1.8595 Y0.7668 I0.0308 J-0.0382
G3 X1.8602 Y0.7845 I-0.0043 J0.009
G2 X1.8471 Y0.7975 I0.0184 J0.0317
G2 X1.8428 Y0.8154 I0.0318 J0.0172
G3 Y0.8158 I-0.01 J0.0002
G2 X1.8455 Y0.8307 I0.0387 J0.0006
G2 X1.854 Y0.842 I0.0265 J-0.0112
G2 X1.8699 Y0.8498 I0.0256 J-0.0321
G2 X1.8893 Y0.852 I0.0185 J-0.0752
G2 X1.9098 Y0.8476 I-0.0004 J-0.0514
G3 X1.9099 Y0.8475 I0.004 J0.0091
G2 X1.9181 Y0.8432 I-0.021 J-0.0497
G1 X1.9182
G2 X1.9186 Y0.8429 I-0.0137 J-0.0217
G1 X1.9148 Y0.8373
G3 X1.9101 Y0.8401 I-0.033 J-0.0488
G1 Y0.8402
G3 X1.8914 Y0.845 I-0.0191 J-0.035
G3 X1.8727 Y0.8414 I-0.0013 J-0.0433
G3 X1.8724 Y0.8412 I0.004 J-0.0092
G3 X1.8576 Y0.8239 I0.0122 J-0.0255
G3 X1.8557 Y0.8111 I0.0403 J-0.0123
G3 X1.8588 Y0.7959 I0.0359 J-0.0007
G3 X1.8589 Y0.7956 I0.0091 J0.0041
G3 X1.8594 Y0.7946 I0.0251 J0.012
G0 Z0.125
G0 X1.7839 Y0.7869
G0 Z0.0625
G1 F4.0 Z-0.02
G2 F8.0 X1.7845 Y0.775 I-0.1085 J-0.0111
G3 Y0.7748 I0.014 J-0.0001
G2 X1.7831 Y0.7478 I-0.2388 J-0.0011
G1 X1.783 Y0.7477
G2 X1.7778 Y0.7226 I-0.1231 J0.0128
G2 X1.7711 Y0.7086 I-0.0565 J0.0184
G2 X1.7587 Y0.697 I-0.0299 J0.0194
G3 X1.7716 Y0.715 I-0.0277 J0.0334
G3 X1.776 Y0.7301 I-0.08 J0.0317
G3 X1.7782 Y0.7446 I-0.1473 J0.0295
G1 Y0.7447
G3 X1.7795 Y0.7727 I-0.2732 J0.0265
G3 X1.7783 Y0.796 I-0.2031 J0.001
G3 X1.7727 Y0.8206 I-0.1035 J-0.0106
G3 X1.7678 Y0.8306 I-0.0499 J-0.018
G2 X1.7691 Y0.8288 I-0.0372 J-0.0281
G3 X1.7692 Y0.8287 I0.0116 J0.0079
G2 X1.7809 Y0.8036 I-0.065 J-0.0456
G2 X1.7839 Y0.7869 I-0.1054 J-0.0277
G0 Z0.125
G0 X1.7076 Y0.8414
G0 Z0.0625
G1 F4.0 Z-0.02
G3 F8.0 X1.6978 Y0.8285 I0.0244 J-0.0288
G3 X1.6927 Y0.8133 I0.0583 J-0.0279
G3 X1.6906 Y0.7993 I0.1287 J-0.0269
G1 Y0.7992
G3 X1.6894 Y0.7725 I0.2646 J-0.0252
G3 X1.69 Y0.7511 I0.3289 J-0.0009
G3 X1.6928 Y0.7288 I0.1672 J0.0097
G3 X1.6979 Y0.7126 I0.0714 J0.0136
G1 X1.698
G3 X1.6986 Y0.7112 I0.0367 J0.0166
G2 X1.6876 Y0.7385 I0.0698 J0.0439
G1 Y0.7386
G2 X1.6844 Y0.7708 I0.1473 J0.0309
G3 Y0.771 I-0.014 J0.0001
G2 X1.6864 Y0.7992 I0.1875 J0.0012
G3 Y0.7993 I-0.0139 J0.002
G2 X1.6937 Y0.8246 I0.0902 J-0.0124
G2 X1.7025 Y0.8373 I0.041 J-0.0191
G2 X1.7076 Y0.8414 I0.025 J-0.0256
G1 F4.0 X1.7054 Y0.8448
G2 F8.0 X1.719 Y0.8505 I0.0221 J-0.0331
G1 X1.7191
G2 X1.7327 Y0.852 I0.0133 J-0.0591
G3 X1.7329 I0.0001 J0.01
G2 X1.7552 Y0.8467 I0.0007 J-0.0467
G2 X1.7724 Y0.8311 I-0.0246 J-0.0442
G3 X1.7725 Y0.831 I0.0083 J0.0056
G2 X1.7847 Y0.8046 I-0.0683 J-0.0479
G2 X1.7885 Y0.7749 I-0.1093 J-0.0288
G3 Y0.7748 I0.01 J-0.0001
G2 X1.787 Y0.7474 I-0.2428 J-0.0011
G1 Y0.7473
G2 X1.7816 Y0.7214 I-0.1271 J0.0132
G2 X1.7745 Y0.7064 I-0.0603 J0.0196
G2 X1.7577 Y0.692 I-0.0332 J0.0216
G2 X1.7347 Y0.6876 I-0.0219 J0.0513
G3 X1.7343 I-0.0002 J-0.01
G2 X1.7122 Y0.6927 I-0.0008 J0.0463
G2 X1.6957 Y0.7083 I0.0227 J0.0406
G1 Y0.7084
G2 X1.6837 Y0.7377 I0.0727 J0.0468
G1 Y0.7378
G2 X1.6804 Y0.7709 I0.1512 J0.0317
G3 Y0.771 I-0.01 J0.0001
G2 X1.6824 Y0.7998 I0.1915 J0.0012
G1 Y0.7999
G2 X1.69 Y0.8263 I0.0942 J-0.013
G2 X1.6997 Y0.8401 I0.0446 J-0.0208
G2 X1.7054 Y0.8448 I0.0278 J-0.0284
G1 F4.0 X1.7105 Y0.8386
G3 F8.0 X1.7014 Y0.8268 I0.0216 J-0.026
G3 X1.6966 Y0.8125 I0.0547 J-0.0262
G3 X1.6945 Y0.7989 I0.1248 J-0.0261
G1 Y0.7988
G3 X1.6934 Y0.7725 I0.2607 J-0.0248
G3 X1.694 Y0.7513 I0.3249 J-0.0009
G3 X1.6967 Y0.7296 I0.1632 J0.0095
G3 X1.7016 Y0.7142 I0.0674 J0.0128
G3 X1.7154 Y0.6984 I0.033 J0.0149
G3 X1.7158 Y0.6982 I0.0053 J0.0085
G3 X1.7355 Y0.6932 I0.0189 J0.0333
G3 X1.7558 Y0.6998 I0.0006 J0.0327
G3 X1.7562 Y0.7001 I-0.006 J0.008
G3 X1.7679 Y0.7164 I-0.0251 J0.0303
G3 X1.7721 Y0.7309 I-0.0763 J0.0302
G3 X1.7742 Y0.745 I-0.1434 J0.0288
G1 Y0.7451
G3 X1.7755 Y0.7727 I-0.2692 J0.0262
G3 X1.7743 Y0.7956 I-0.1992 J0.001
G3 X1.7689 Y0.8192 I-0.0996 J-0.0102
G3 X1.7595 Y0.8351 I-0.0462 J-0.0166
G3 X1.7594 Y0.8352 I-0.0075 J-0.0066
G3 X1.7335 Y0.8464 I-0.0253 J-0.0231
G3 X1.7105 Y0.8386 I-0.0015 J-0.0338
( Pocket4 )
S10000
G0 Z0.125
G0 X2.8109 Y0.9798
G0 Z0.0625
G1 F4.0 Z-0.02
G1 F8.0 X2.8089
G1 Y1.1347
G3 X2.7754 Y1.149 I-0.0198 J0.0
G1 X2.7789 Y1.1621
G1 X2.8109
G1 Y0.9798
G0 Z0.125
G0 X2.726 Y1.0011
G0 Z0.0625
G1 F4.0 Z-0.02
G1 F8.0 X2.7236 Y0.9915
G1 X2.7209 Y1.002
G3 X2.7263 Y1.0021 I0.0024 J0.0285
G1 X2.726 Y1.0011
G1 F4.0 X2.7346 Y0.999
G1 F8.0 X2.7297 Y0.9798
G1 X2.7175
G1 X2.7077 Y1.0184
G3 X2.7397 Y1.0193 I0.0157 J0.0121
G1 X2.7346 Y0.999
G0 Z0.125
G0 X2.6382
G0 Z0.0625
G1 F4.0 Z-0.02
G1 F8.0 Y0.9798
G1 X2.6362
G1 Y1.1621
G1 X2.6683
G1 X2.6718 Y1.1489
G3 X2.6382 Y1.1347 I-0.0138 J-0.0142
G1 Y0.999
G1 F4.0 X2.647
G1 F8.0 Y0.971
G1 X2.6274
G1 Y1.1709
G1 X2.6751
G1 X2.7127 Y1.0277
G3 X2.734 I0.0106 J0.0028
G1 X2.7721 Y1.1709
G1 X2.8197
G1 Y0.971
G1 X2.8001
G1 Y1.1347
G3 X2.7784 Y1.1374 I-0.011 J0.0
G1 X2.7366 Y0.971
G1 X2.7106
G1 X2.6687 Y1.1374
G3 X2.647 Y1.1347 I-0.0107 J-0.0027
G1 Y0.999
G0 Z0.125
G0 X2.5636 Y1.0018
G0 Z0.0625
G1 F4.0 Z-0.02
G2 F8.0 X2.5556 Y0.9843 I-0.0251 J0.0008
G2 X2.5492 Y0.9799 I-0.0185 J0.02
G3 X2.5606 Y1.0082 I-0.0292 J0.0282
G3 X2.559 Y1.0193 I-0.0365 J0.0002
G2 X2.5599 Y1.0179 I-0.0181 J-0.0129
G2 X2.5636 Y1.0042 I-0.0219 J-0.0132
G3 Y1.0033 I0.0198 J-0.0003
G2 Y1.0018 I-0.0251 J-0.0007
G0 Z0.125
G0 X2.4695 Y0.9942
G0 Z0.0625
G1 F4.0 Z-0.02
G3 F8.0 X2.4614 Y0.9839 I0.0107 J-0.0167
G3 X2.4601 Y0.9798 I0.1009 J-0.0339
G1 X2.46
G3 X2.4616 Y0.9963 I-0.1364 J0.0217
G3 X2.4619 Y1.0129 I-0.3448 J0.0157
G3 Y1.013 I-0.0198 J0.0
G1 X2.4615 Y1.0626
G2 X2.4619 Y1.0756 I0.1816 J0.0005
G3 Y1.0757 I-0.0198 J0.0014
G2 X2.4635 Y1.0871 I0.0764 J-0.0048
G3 Y1.0872 I-0.0193 J0.0042
G2 X2.4649 Y1.0911 I0.0156 J-0.0033
G2 X2.4684 Y1.0953 I0.0127 J-0.0072
G2 X2.4739 Y1.0989 I0.0209 J-0.0256
G3 X2.4655 Y1.0835 I0.0264 J-0.0244
G3 X2.4637 Y1.069 I0.0521 J-0.0138
G1 Y1.0649
G3 X2.4693 Y1.051 I0.0198 J0.0
G3 X2.4637 Y1.0372 I0.0141 J-0.0138
G1 Y1.0288
G3 X2.464 Y1.0175 I0.2089 J-0.0007
G3 X2.4659 Y1.0033 I0.0701 J0.0025
G3 X2.4662 Y1.0023 I0.0192 J0.0047
G3 X2.4695 Y0.9942 I0.0445 J0.0134
G1 F4.0 X2.4742 Y0.9868
G3 F8.0 X2.4697 Y0.9811 I0.0059 J-0.0093
G3 X2.468 Y0.9755 I0.0926 J-0.0311
G2 X2.4667 Y0.971 I-0.1472 J0.0414
G1 X2.4487
G3 X2.4509 Y0.979 I-0.1011 J0.0316
G3 X2.451 Y0.9796 I-0.0107 J0.0024
G3 X2.4528 Y0.9967 I-0.1274 J0.0219
G3 X2.4531 Y1.0129 I-0.336 J0.0153
G1 X2.4527 Y1.0625
G2 X2.4531 Y1.0762 I0.1904 J0.0006
G1 Y1.0763
G2 X2.4549 Y1.089 I0.0851 J-0.0054
G1 Y1.0891
G2 X2.4571 Y1.0953 I0.0242 J-0.0051
G2 X2.4628 Y1.1021 I0.0205 J-0.0113
G2 X2.4715 Y1.1076 I0.0265 J-0.0324
G2 X2.489 Y1.1122 I0.0235 J-0.053
G3 X2.4891 I-0.0012 J0.0109
G2 X2.5093 Y1.1134 I0.0191 J-0.158
G3 X2.5095 I0.0001 J0.011
G2 X2.5318 Y1.1114 I0.0011 J-0.1157
G3 X2.5319 I0.002 J0.0108
G2 X2.5503 Y1.1041 I-0.0083 J-0.0481
G2 X2.5614 Y1.0922 I-0.0238 J-0.0331
G2 X2.5641 Y1.0872 I-0.0543 J-0.0328
G1 X2.5469 Y1.0841
G3 X2.5459 Y1.0859 I-0.0495 J-0.027
G3 X2.5366 Y1.0962 I-0.0293 J-0.0171
G3 X2.5363 Y1.0964 I-0.0065 J-0.0089
G3 X2.5238 Y1.1017 I-0.0194 J-0.0283
G3 X2.5124 Y1.1028 I-0.011 J-0.0522
G3 X2.499 Y1.1019 I-0.0007 J-0.0823
G3 X2.4829 Y1.0953 I0.0043 J-0.0337
G3 X2.4822 Y1.0947 I0.0066 J-0.0088
G3 X2.474 Y1.0813 I0.0181 J-0.0203
G3 X2.4725 Y1.0691 I0.0436 J-0.0116
G1 Y1.0649
G3 X2.4795 Y1.0546 I0.011 J0.0
G3 X2.5015 Y1.0481 I0.0549 J0.1439
G3 X2.5228 Y1.0436 I0.1108 J0.4789
G2 X2.5392 Y1.0399 I-0.0388 J-0.2062
G2 X2.554 Y1.0345 I-0.0229 J-0.0864
G2 X2.5674 Y1.0224 I-0.0131 J-0.0281
G2 X2.5724 Y1.0041 I-0.0294 J-0.0177
G3 Y1.0036 I0.011 J-0.0002
G2 X2.5616 Y0.9779 I-0.0339 J-0.0009
G2 X2.5477 Y0.9698 I-0.0245 J0.0264
G2 X2.5301 Y0.9674 I-0.0168 J0.0561
G3 X2.5299 I-0.0001 J-0.011
G2 X2.5078 Y0.9718 I-0.0004 J0.0558
G2 X2.4879 Y0.9854 I0.0265 J0.0602
G3 X2.4742 Y0.9868 I-0.0078 J-0.0078
G1 F4.0 X2.4811 Y0.9923
G3 F8.0 X2.4888 Y0.985 I0.0295 J0.0234
G3 X2.517 Y0.9753 I0.0289 J0.0382
G3 X2.5417 Y0.9849 I0.001 J0.0343
G3 X2.5518 Y1.0083 I-0.0218 J0.0233
G3 X2.5481 Y1.0223 I-0.0277 J0.0002
G3 X2.548 Y1.0225 I-0.0095 J-0.0055
G3 X2.5387 Y1.0324 I-0.0272 J-0.0165
G3 X2.5379 Y1.0329 I-0.0062 J-0.0091
G3 X2.524 Y1.0384 I-0.028 J-0.0499
G3 X2.5116 Y1.0415 I-0.0517 J-0.1847
G1 X2.5115
G2 X2.4866 Y1.0477 I0.0538 J0.2667
G3 X2.4725 Y1.0372 I-0.0032 J-0.0105
G1 Y1.0287
G3 X2.4727 Y1.0178 I0.2001 J-0.0006
G3 X2.4744 Y1.0054 I0.0613 J0.0021
G3 X2.4746 Y1.0048 I0.0107 J0.0026
G3 X2.4811 Y0.9923 I0.0361 J0.0109
G0 Z0.125
G0 X2.3866 Y1.0172
G0 Z0.0625
G1 F4.0 Z-0.02
G2 F8.0 X2.3781 Y0.9985 I-0.0591 J0.0156
G3 X2.378 Y0.9984 I0.0164 J-0.0111
G2 X2.363 Y0.9844 I-0.0367 J0.0244
G2 X2.3585 Y0.9824 I-0.0188 J0.0363
G3 X2.3711 Y0.9936 I-0.0289 J0.0454
G3 X2.3716 Y0.9941 I-0.0153 J0.0126
G3 X2.3833 Y1.0204 I-0.0491 J0.0377
G3 X2.3855 Y1.0437 I-0.1116 J0.0223
G3 X2.3832 Y1.0666 I-0.1059 J0.001
G3 X2.3714 Y1.0921 I-0.0595 J-0.012
G1 Y1.0922
G3 X2.3668 Y1.0972 I-0.0402 J-0.0319
G2 X2.3751 Y1.09 I-0.0241 J-0.0358
G1 Y1.0899
G2 X2.3862 Y1.069 I-0.038 J-0.0335
G2 X2.3895 Y1.0415 I-0.1006 J-0.0261
G3 Y1.0411 I0.0198 J-0.0002
G2 X2.3868 Y1.018 I-0.0931 J-0.0008
G2 X2.3866 Y1.0172 I-0.0593 J0.0148
G1 F4.0 X2.3951 Y1.015
G2 F8.0 X2.3854 Y0.9936 I-0.0676 J0.0178
G3 X2.3853 Y0.9935 I0.0091 J-0.0062
G2 X2.3672 Y0.9766 I-0.0441 J0.0293
G2 X2.3433 Y0.971 I-0.023 J0.044
G3 X2.343 I-0.0002 J-0.011
G2 X2.3213 Y0.9765 I-0.0005 J0.0438
G2 X2.304 Y0.9923 I0.0281 J0.0479
G3 X2.3313 Y0.9834 I0.0269 J0.0359
G3 X2.3498 Y0.9875 I0.0003 J0.0414
G3 X2.3499 Y0.9876 I-0.0048 J0.0099
G3 X2.3644 Y0.9992 I-0.0204 J0.0402
G3 X2.3646 Y0.9995 I-0.0085 J0.007
G3 X2.3747 Y1.022 I-0.0421 J0.0323
G3 X2.3767 Y1.0437 I-0.1029 J0.0206
G3 X2.3746 Y1.0648 I-0.0971 J0.001
G3 X2.3645 Y1.0867 I-0.0509 J-0.0103
G3 X2.3306 Y1.1028 I-0.0334 J-0.0264
G3 X2.3018 Y1.0925 I-0.0006 J-0.0437
G2 X2.319 Y1.1079 I0.045 J-0.0332
G2 X2.3414 Y1.1134 I0.0218 J-0.0404
G3 X2.3417 I0.0001 J0.011
G2 X2.3817 Y1.0958 I0.001 J-0.052
G2 X2.3947 Y1.0712 I-0.0446 J-0.0393
G2 X2.3983 Y1.0414 I-0.1091 J-0.0284
G3 Y1.0412 I0.011 J-0.0001
G2 X2.3953 Y1.0159 I-0.1019 J-0.0009
G2 X2.3951 Y1.015 I-0.0678 J0.0169
G0 Z0.125
G0 X2.3765 Y0.9262
G0 Z0.0625
G1 F4.0 Z-0.02
G2 F8.0 X2.3745 Y0.9244 I-0.0187 J0.0192
G1 X2.3744 Y0.9243
G2 X2.3666 Y0.9199 I-0.0179 J0.0224
G1 X2.3665 Y0.9198
G2 X2.3651 Y0.9193 I-0.0227 J0.0597
G3 X2.3697 Y0.9253 I-0.0231 J0.0222
G1 X2.3765 Y0.9262
G0 Z0.125
G0 X2.2782 Y1.0034
G0 Z0.0625
G1 F4.0 Z-0.02
G3 F8.0 X2.2767 Y1.0018 I0.0168 J-0.0174
G1 Y1.0066
G3 X2.2782 Y1.0034 I0.0598 J0.0263
G1 F4.0 X2.2821 Y1.0054
G3 F8.0 X2.2838 Y1.0024 I0.0543 J0.0275
G3 X2.2752 Y0.986 I0.0112 J-0.0163
G1 Y0.9626
G3 X2.2756 Y0.9516 I0.1596 J-0.0006
G3 X2.278 Y0.9373 I0.059 J0.0029
G3 X2.2783 Y0.9366 I0.0189 J0.0058
G3 X2.2824 Y0.928 I0.0383 J0.0132
G2 X2.2761 Y0.9397 I0.0256 J0.0213
G2 X2.2731 Y0.9564 I0.0737 J0.0221
G3 X2.273 Y0.9567 I-0.0198 J-0.0014
G2 X2.2723 Y0.9764 I0.2271 J0.0187
G1 Y0.9765
G1 Y1.101
G1 X2.2725
G1 Y1.0982
G3 X2.2821 Y1.0812 I0.0198 J0.0
G3 X2.2769 Y1.0662 I0.0548 J-0.0275
G3 X2.2745 Y1.0426 I0.1039 J-0.0225
G3 X2.2772 Y1.019 I0.0971 J-0.0009
G3 X2.2821 Y1.0054 I0.0593 J0.014
G1 F4.0 X2.29 Y1.0094
G3 F8.0 X2.2966 Y0.9994 I0.0465 J0.0236
G3 X2.2998 Y0.9959 I0.0344 J0.0289
G3 X2.284 Y0.986 I-0.0048 J-0.0099
G1 Y0.9626
G3 X2.2843 Y0.9521 I0.1508 J-0.0006
G3 X2.2865 Y0.9398 I0.0503 J0.0024
G3 X2.2866 Y0.9395 I0.0105 J0.0032
G3 X2.2996 Y0.923 I0.03 J0.0103
G3 X2.3001 Y0.9227 I0.0059 J0.0093
G3 X2.316 Y0.9173 I0.0223 J0.0402
G3 X2.3304 Y0.9163 I0.0137 J0.0898
G3 X2.3422 Y0.9173 I0.0005 J0.0637
G3 X2.3558 Y0.9228 I-0.0055 J0.033
G3 X2.3562 Y0.9231 I-0.0063 J0.009
G3 X2.3637 Y0.9331 I-0.0141 J0.0184
G3 X2.3638 Y0.9335 I-0.0345 J0.0137
G1 X2.3922 Y0.9369
G2 X2.3896 Y0.9294 I-0.0328 J0.0068
G2 X2.3799 Y0.9175 I-0.0318 J0.0161
G1 Y0.9174
G2 X2.3697 Y0.9116 I-0.0234 J0.0293
G1 X2.3696
G2 X2.3569 Y0.9081 I-0.0258 J0.0679
G2 X2.3289 Y0.9058 I-0.0264 J0.15
G3 X2.3287 I-0.0001 J-0.011
G2 X2.3119 Y0.9066 I-0.0006 J0.1513
G2 X2.2963 Y0.9098 I0.0083 J0.0802
G3 X2.2961 Y0.9099 I-0.0033 J-0.0105
G2 X2.2779 Y0.9199 I0.0133 J0.0458
G2 X2.2677 Y0.9371 I0.0301 J0.0294
G2 X2.2643 Y0.9558 I0.0821 J0.0247
G3 Y0.956 I-0.011 J-0.0008
G2 X2.2635 Y0.9765 I0.2359 J0.0194
G1 Y1.1098
G1 X2.2813
G1 Y1.0982
G3 X2.2977 Y1.0886 I0.011 J0.0
G3 X2.296 Y1.0867 I0.0323 J-0.0295
G1 Y1.0866
G3 X2.2855 Y1.0643 I0.041 J-0.0329
G3 X2.2833 Y1.0426 I0.0953 J-0.0207
G3 X2.2857 Y1.0211 I0.0883 J-0.0009
G3 X2.29 Y1.0094 I0.0507 J0.0119
G0 Z0.125
G0 X2.1909
G0 Z0.0625
G1 F4.0 Z-0.02
G1 F8.0 Y0.9798
G1 X2.188
G1 Y1.0328
G3 X2.1875 Y1.0523 I-0.3285 J0.0012
G3 X2.1842 Y1.0747 I-0.1057 J-0.0041
G3 X2.1838 Y1.0759 I-0.0192 J-0.005
G3 X2.182 Y1.0806 I-0.0482 J-0.0157
G3 X2.1909 Y1.0952 I-0.0108 J0.0166
G1 Y1.0094
G1 F4.0 X2.1997
G1 F8.0 Y0.971
G1 X2.1792
G1 Y1.0328
G3 X2.1787 Y1.0519 I-0.3197 J0.0011
G3 X2.1756 Y1.0725 I-0.0969 J-0.0037
G3 X2.1754 Y1.0732 I-0.0106 J-0.0028
G3 X2.1681 Y1.0866 I-0.0398 J-0.013
G3 X2.1822 Y1.0971 I0.0031 J0.0106
G1 Y1.1098
G1 X2.1997
G1 Y1.0094
G0 Z0.125
G0 X2.0869
G0 Z0.0625
G1 F4.0 Z-0.02
G1 F8.0 Y0.9798
G1 X2.084
G1 Y1.0599
G1 Y1.06
G2 X2.0844 Y1.073 I0.1907 J0.0006
G3 Y1.0731 I-0.0198 J0.0013
G2 X2.0859 Y1.0842 I0.0692 J-0.004
G2 X2.0905 Y1.0941 I0.025 J-0.0055
G2 X2.0997 Y1.1008 I0.0174 J-0.0143
G3 X2.1003 Y1.1011 I-0.0072 J0.0184
G2 X2.1059 Y1.103 I0.0171 J-0.0398
G3 X2.0906 Y1.0818 I0.0258 J-0.0347
G3 X2.0905 Y1.0815 I0.0188 J-0.0062
G3 X2.0881 Y1.0694 I0.0582 J-0.0181
G3 X2.0873 Y1.0599 I0.1551 J-0.0172
G3 X2.0869 Y1.042 I0.3464 J-0.0168
G1 Y1.0094
G1 F4.0 X2.0957
G1 F8.0 Y1.042
G2 X2.0961 Y1.0595 I0.338 J0.0011
G2 X2.0968 Y1.0685 I0.1471 J-0.0073
G2 X2.0989 Y1.0789 I0.0519 J-0.005
G2 X2.099 Y1.0791 I0.0105 J-0.0033
G2 X2.1121 Y1.0966 I0.0327 J-0.0108
G2 X2.1122 Y1.0967 I0.0063 J-0.009
G2 X2.1331 Y1.1028 I0.0201 J-0.0299
G2 X2.1585 Y1.0953 I0.0003 J-0.0451
G3 X2.1429 Y1.1076 I-0.045 J-0.0412
G3 X2.1183 Y1.1134 I-0.0239 J-0.046
G2 X2.1181 I-0.0001 J0.011
G3 X2.0968 Y1.1091 I-0.0006 J-0.0521
G2 X2.0965 Y1.109 I-0.0044 J0.0101
G3 X2.0836 Y1.0996 I0.0114 J-0.0292
G3 X2.0773 Y1.0861 I0.0274 J-0.0209
G3 X2.0756 Y1.0736 I0.0762 J-0.0169
G3 X2.0752 Y1.0599 I0.199 J-0.013
G1 Y0.971
G1 X2.0957
G1 Y1.0094
G0 Z0.125
G0 X2.0124 Y1.0231
G0 Z0.0625
G1 F4.0 Z-0.02
G2 F8.0 X2.0108 Y1.0151 I-0.0913 J0.015
G2 X2.0016 Y0.9955 I-0.058 J0.015
G3 X2.0064 Y1.0066 I-0.0486 J0.0274
G1 Y1.0067
G3 X2.0097 Y1.0279 I-0.073 J0.0221
G3 X2.0044 Y1.0416 I-0.0198 J0.0002
G3 X2.0089 Y1.0537 I-0.0153 J0.0126
G3 X2.0063 Y1.0741 I-0.07 J0.0015
G1 Y1.0742
G3 X2.0044 Y1.0797 I-0.0509 J-0.0145
G2 X2.01 Y1.0669 I-0.0464 J-0.0279
G2 X2.0137 Y1.0394 I-0.0916 J-0.0263
G3 Y1.039 I0.0198 J-0.0003
G2 X2.0124 Y1.0231 I-0.0925 J-0.0008
G0 Z0.125
G0 X1.9068 Y1.0479
G0 Z0.0625
G1 F4.0 Z-0.02
G1 F8.0 X1.9038
G2 X1.9045 Y1.054 I0.1552 J-0.0154
G1 Y1.0541
G2 X1.9064 Y1.0638 I0.081 J-0.0109
G3 X1.9057 Y1.0544 I0.0757 J-0.0103
G3 X1.9068 Y1.0479 I0.0198 J-0.0002
G1 F4.0 Y1.0391
G1 F8.0 X1.8944
G2 X1.8958 Y1.0553 I0.1646 J-0.0066
G2 X1.9028 Y1.0799 I0.0897 J-0.0121
G2 X1.9114 Y1.0934 I0.0507 J-0.023
G1 X1.9115
G2 X1.9328 Y1.1086 I0.0418 J-0.036
G2 X1.9596 Y1.1134 I0.0257 J-0.0674
G3 X1.96 I0.0002 J0.011
G2 X2.0044 Y1.0943 I0.0015 J-0.0577
G2 X2.0184 Y1.0694 I-0.0465 J-0.0424
G2 X2.0225 Y1.0393 I-0.1 J-0.0287
G3 Y1.0391 I0.011 J-0.0001
G2 X2.0193 Y1.0129 I-0.1013 J-0.0009
G2 X2.0086 Y0.9902 I-0.0665 J0.0172
G2 X1.986 Y0.9726 I-0.0418 J0.0305
G2 X1.9557 Y0.9674 I-0.0287 J0.0758
G3 X1.9554 I-0.0002 J-0.011
G2 X1.9352 Y0.9697 I-0.0007 J0.0818
G2 X1.9177 Y0.9775 I0.0131 J0.0527
G2 X1.9046 Y0.9905 I0.0301 J0.0434
G2 X1.9014 Y0.9956 I0.0565 J0.0394
G1 X1.9209 Y0.9988
G3 X1.922 Y0.9965 I0.0525 J0.0249
G3 X1.9312 Y0.9851 I0.0329 J0.0173
G3 X1.9315 Y0.9849 I0.007 J0.0085
G3 X1.9551 Y0.9772 I0.0227 J0.0293
G3 X1.9877 Y0.9912 I0.0007 J0.0433
G3 X1.998 Y1.0092 I-0.0347 J0.0317
G3 X2.0009 Y1.028 I-0.0646 J0.0196
G3 X1.9899 Y1.0391 I-0.011 J0.0001
G1 X1.9068
G1 F4.0 X1.9169 Y1.0473
G3 F8.0 X1.9255 Y1.0432 I0.0086 J0.0069
G1 X1.9891
G3 X2.0001 Y1.0539 I0.0 J0.011
G3 X1.9978 Y1.0717 I-0.0612 J0.0013
G1 Y1.0718
G3 X1.9884 Y1.089 I-0.0425 J-0.0121
G3 X1.9571 Y1.1028 I-0.0306 J-0.0267
G3 X1.9269 Y1.0896 I-0.0003 J-0.0402
G3 X1.9171 Y1.072 I0.0318 J-0.0293
G3 X1.9145 Y1.0543 I0.065 J-0.0186
G3 X1.9169 Y1.0473 I0.011 J-0.0001
G0 Z0.125
G0 X1.8371 Y1.0682
G0 Z0.0625
G1 F4.0 Z-0.02
G2 F8.0 X1.8354 Y1.0637 I-0.0231 J0.0061
G2 X1.828 Y1.0556 I-0.0206 J0.0115
G2 X1.8168 Y1.0503 I-0.0292 J0.0481
G3 X1.8164 Y1.0502 I0.0063 J-0.0188
G2 X1.8014 Y1.0454 I-0.0759 J0.2127
G2 X1.7692 Y1.0375 I-0.1529 J0.5492
G3 X1.769 Y1.0374 I0.0042 J-0.0194
G3 X1.76 Y1.0349 I0.0214 J-0.0943
G3 X1.7469 Y1.0281 I0.0118 J-0.0384
G3 X1.7447 Y1.0261 I0.0123 J-0.0156
G3 X1.7363 Y1.0045 I0.0226 J-0.0212
G3 X1.7374 Y0.9957 I0.0333 J-0.0004
G2 X1.736 Y0.9981 I0.0298 J0.0189
G2 X1.7333 Y1.0101 I0.0238 J0.0117
G3 Y1.0106 I-0.0198 J0.0002
G2 X1.735 Y1.0204 I0.027 J0.0004
G2 X1.7394 Y1.0266 I0.015 J-0.0061
G2 X1.7463 Y1.031 I0.0232 J-0.0293
G3 X1.7464 I-0.0086 J0.0178
G2 X1.7561 Y1.0351 I0.0398 J-0.0808
G2 X1.7785 Y1.0415 I0.0643 J-0.1842
G3 X1.8101 Y1.0497 I-0.0862 J0.3947
G3 X1.824 Y1.0557 I-0.0174 J0.0595
G3 X1.8249 Y1.0562 I-0.01 J0.0171
G3 X1.8378 Y1.0775 I-0.0161 J0.0244
G2 X1.8379 Y1.0753 I-0.0247 J-0.002
G3 Y1.0747 I0.0198 J-0.0002
G2 X1.8371 Y1.0682 I-0.0238 J-0.0004
G1 F4.0 X1.8457 Y1.066
G2 F8.0 X1.8432 Y1.0596 I-0.0316 J0.0083
G2 X1.8327 Y1.0481 I-0.0284 J0.0156
G2 X1.8196 Y1.042 I-0.034 J0.0556
G3 X1.8194 Y1.0419 I0.0035 J-0.0104
G2 X1.8037 Y1.037 I-0.0789 J0.221
G2 X1.7711 Y1.0289 I-0.1553 J0.5577
G3 X1.771 I0.0023 J-0.0108
G3 X1.7627 Y1.0265 I0.0194 J-0.0858
G3 X1.7524 Y1.0212 I0.0091 J-0.03
G3 X1.7512 Y1.0201 I0.0068 J-0.0086
G3 X1.7451 Y1.0045 I0.0162 J-0.0152
G3 X1.7553 Y0.9842 I0.0245 J-0.0004
G3 X1.7555 Y0.9841 I0.0064 J0.0089
G3 X1.7717 Y0.9774 I0.0236 J0.0345
G3 X1.7866 Y0.9761 I0.0142 J0.0745
G3 X1.8011 Y0.9777 I0.0006 J0.0636
G3 X1.8164 Y0.9846 I-0.0088 J0.0395
G3 X1.8167 Y0.9848 I-0.0065 J0.0089
G3 X1.8267 Y0.9966 I-0.0241 J0.0306
G1 Y0.9967
G3 X1.8285 Y1.0001 I-0.043 J0.0235
G1 X1.8486 Y0.997
G2 X1.8325 Y0.9788 I-0.0447 J0.0234
G2 X1.8113 Y0.9699 I-0.0336 J0.0501
G2 X1.7867 Y0.9674 I-0.0236 J0.1094
G3 X1.7864 I-0.0001 J-0.011
G2 X1.7604 Y0.9702 I-0.0013 J0.1084
G1 X1.7603
G2 X1.739 Y0.9807 I0.0114 J0.0502
G2 X1.7282 Y0.9941 I0.0283 J0.0338
G2 X1.7245 Y1.0102 I0.0316 J0.0157
G3 Y1.0104 I-0.011 J0.0001
G2 X1.7268 Y1.0236 I0.0358 J0.0006
G2 X1.7338 Y1.0334 I0.0232 J-0.0093
G2 X1.7425 Y1.0389 I0.0288 J-0.0361
G2 X1.7532 Y1.0434 I0.0437 J-0.0887
G2 X1.7767 Y1.0501 I0.0672 J-0.1925
G3 X1.8076 Y1.0581 I-0.0843 J0.3861
G3 X1.8195 Y1.0633 I-0.0149 J0.0511
G3 X1.82 Y1.0636 I-0.0055 J0.0095
G3 X1.8292 Y1.0803 I-0.0113 J0.0171
G3 Y1.0805 I-0.011 J0.0002
G3 X1.8191 Y1.0985 I-0.0211 J0.0
G3 X1.8188 Y1.0987 I-0.0057 J-0.0094
G3 X1.803 Y1.1039 I-0.0208 J-0.0362
G3 X1.7893 Y1.1048 I-0.0131 J-0.0937
G3 X1.7766 Y1.1036 I-0.0005 J-0.0632
G3 X1.7628 Y1.098 I0.007 J-0.0369
G3 X1.7626 Y1.0978 I0.0061 J-0.0091
G3 X1.7524 Y1.0869 I0.0205 J-0.0293
G1 X1.7341 Y1.0902
G2 X1.747 Y1.1044 I0.0382 J-0.0219
G2 X1.7664 Y1.1115 I0.0272 J-0.0444
G3 X1.7666 I-0.0017 J0.0109
G2 X1.79 Y1.1134 I0.0221 J-0.1318
G3 X1.7902 I0.0001 J0.011
G2 X1.8145 Y1.1109 I0.0013 J-0.1089
G3 X1.8147 I0.0023 J0.0108
G2 X1.8343 Y1.1016 I-0.0091 J-0.0445
G2 X1.8467 Y1.0752 I-0.0212 J-0.0261
G3 Y1.0748 I0.011 J-0.0001
G2 X1.8457 Y1.066 I-0.0326 J-0.0006
G0 Z0.125
G0 X1.6564
G0 Z0.0625
G1 F4.0 Z-0.02
G1 F8.0 Y0.9798
G1 X1.6535
G1 Y1.101
G1 X1.6564
G1 Y1.066
G1 F4.0 X1.6652
G1 F8.0 Y0.971
G1 X1.6447
G1 Y1.1098
G1 X1.6652
G1 Y1.066
G0 Z0.125
G0 X1.6608 Y1.1579
G0 Z0.0625
G1 F4.0 Z-0.02
G1 F8.0 X1.6491
G1 Y1.1665
G1 X1.6608
G1 Y1.1579
G1 F4.0 X1.6652
G1 F8.0 Y1.1535
G1 X1.6447
G1 Y1.1709
G1 X1.6652
G1 Y1.1579
G0 Z0.125
G0 X1.5712 Y1.101
G0 Z0.0625
G1 F4.0 Z-0.02
G1 F8.0 Y1.019
G3 Y1.0189 I0.0198 J0.0
G2 X1.5703 Y1.0035 I-0.1142 J-0.0007
G3 X1.5702 Y1.0033 I0.0196 J-0.0025
G2 X1.5671 Y0.9913 I-0.0452 J0.0054
G2 X1.5573 Y0.981 I-0.0202 J0.0092
G3 X1.5572 Y0.9809 I0.0093 J-0.0175
G2 X1.5503 Y0.978 I-0.0187 J0.0346
G3 X1.5651 Y0.9995 I-0.0266 J0.0341
G3 X1.5655 Y1.0008 I-0.0189 J0.0058
G3 X1.5674 Y1.0144 I-0.078 J0.018
G3 X1.568 Y1.0254 I-0.2746 J0.0194
G3 X1.5683 Y1.0469 I-0.6724 J0.0201
G1 Y1.101
G1 X1.5712
G1 F4.0 Y1.1098
G1 F8.0 X1.58
G1 Y1.019
G2 X1.579 Y1.0024 I-0.123 J-0.0008
G3 Y1.0023 I0.0109 J-0.0014
G2 X1.5752 Y0.9878 I-0.0539 J0.0065
G2 X1.5615 Y0.9732 I-0.0283 J0.0127
G1 X1.5614
G2 X1.5377 Y0.9674 I-0.0229 J0.0423
G3 X1.5375 I-0.0002 J-0.011
G2 X1.5126 Y0.9735 I-0.0001 J0.0533
G3 X1.5124 Y0.9736 I-0.0051 J-0.0097
G2 X1.4983 Y0.9842 I0.0229 J0.0454
G3 X1.5217 Y0.9778 I0.0231 J0.0383
G3 X1.5436 Y0.984 I0.0011 J0.0378
G3 X1.544 Y0.9843 I-0.006 J0.0092
G3 X1.5567 Y1.002 I-0.0203 J0.0279
G3 X1.5569 Y1.0028 I-0.0105 J0.0032
G3 X1.5586 Y1.0149 I-0.0695 J0.016
G3 X1.5592 Y1.0257 I-0.2659 J0.0189
G3 X1.5595 Y1.0469 I-0.6636 J0.0198
G1 Y1.1098
G1 X1.5712
G0 Z0.125
G0 X1.4675 Y1.101
G0 Z0.0625
G1 F4.0 Z-0.02
G1 F8.0 Y1.053
G3 X1.4688 Y1.0186 I0.374 J-0.0035
G3 X1.4715 Y1.0039 I0.0724 J0.0058
G3 X1.472 Y1.0025 I0.019 J0.0056
G3 X1.4729 Y1.0003 I0.0475 J0.0179
G3 X1.4646 Y0.986 I0.0114 J-0.0162
G1 Y1.101
G1 X1.4675
G1 F4.0 X1.4763
G1 F8.0 Y1.1098
G1 X1.4558
G1 Y0.971
G1 X1.4733
G1 Y0.9841
G2 X1.4862 Y0.9949 I0.011 J0.0
G2 X1.4802 Y1.0056 I0.0333 J0.0255
G2 X1.4799 Y1.0064 I0.0103 J0.0039
G2 X1.4776 Y1.0193 I0.0612 J0.018
G2 X1.4763 Y1.053 I0.364 J0.0302
G1 Y1.101
G0 Z0.125
G0 X1.3841 Y1.0949
G0 Z0.0625
G1 F4.0 Z-0.02
G1 F8.0 Y0.9798
G1 X1.3812
G1 Y1.0381
G3 X1.3806 Y1.056 I-0.2439 J0.001
G3 X1.3771 Y1.0767 I-0.0936 J-0.0052
G3 X1.3769 Y1.0773 I-0.019 J-0.0055
G3 X1.3751 Y1.082 I-0.0469 J-0.015
G3 X1.3841 Y1.0949 I-0.0104 J0.0168
G1 F4.0 X1.3755 Y1.0966
G2 F8.0 X1.3608 Y1.0885 I-0.0108 J0.0022
G2 X1.3685 Y1.0746 I-0.0308 J-0.0263
G2 X1.3686 Y1.0743 I-0.0105 J-0.0034
G2 X1.3718 Y1.0555 I-0.0816 J-0.0235
G2 X1.3724 Y1.0381 I-0.2345 J-0.0164
G1 Y0.971
G1 X1.3929
G1 Y1.1098
G1 X1.3757
G1 Y1.0988
G2 X1.3755 Y1.0966 I-0.011 J0.0
G0 Z0.125
G0 X1.2845 Y1.0801
G0 Z0.0625
G1 F4.0 Z-0.02
G3 F8.0 X1.284 Y1.077 I0.0627 J-0.0127
G3 X1.2839 Y1.0772 I-0.0947 J-0.0277
G3 X1.2833 Y1.0791 I-0.0523 J-0.0154
G3 X1.2845 Y1.0801 I-0.0141 J0.0197
G1 F4.0 X1.2889 Y1.0792
G3 F8.0 X1.2879 Y1.0728 I0.0584 J-0.0118
G3 X1.2873 Y1.0642 I0.1505 J-0.0155
G3 X1.2869 Y1.0481 I0.3398 J-0.0151
G1 Y0.9798
G1 X1.284
G1 Y1.0372
G3 X1.2834 Y1.0553 I-0.2286 J0.0009
G3 X1.2797 Y1.0759 I-0.0941 J-0.0059
G3 X1.2779 Y1.081 I-0.0481 J-0.0141
G3 X1.2866 Y1.0894 I-0.0087 J0.0178
G2 X1.2974 Y1.1007 I0.0257 J-0.0138
G2 X1.3023 Y1.1028 I0.0159 J-0.0305
G3 X1.29 Y1.0839 I0.0252 J-0.0298
G3 Y1.0838 I0.019 J-0.0056
G3 X1.2889 Y1.0792 I0.0573 J-0.0164
G0 Z0.125
G0 X1.2059 Y1.1026
G0 Z0.0625
G1 F4.0 Z-0.02
G3 F8.0 X1.1978 Y1.0936 I0.0254 J-0.0309
G3 X1.1971 Y1.0924 I0.0166 J-0.0109
G3 X1.1923 Y1.079 I0.0382 J-0.0212
G3 X1.1909 Y1.0693 I0.0896 J-0.0178
G1 Y1.0692
G3 X1.1902 Y1.0518 I0.1896 J-0.0164
G1 Y0.9798
G1 X1.1873
G1 Y1.0628
G3 Y1.0629 I-0.0198 J0.0
G2 X1.1879 Y1.0778 I0.1492 J0.0008
G3 X1.188 Y1.0781 I-0.0197 J0.0019
G2 X1.1903 Y1.0888 I0.0398 J-0.003
G2 X1.2002 Y1.1 I0.0219 J-0.0094
G2 X1.2059 Y1.1026 I0.0151 J-0.0259
G1 F4.0 X1.2115 Y1.0958
G3 F8.0 X1.2052 Y1.0888 I0.0198 J-0.0241
G3 X1.2048 Y1.0881 I0.0092 J-0.006
G3 X1.201 Y1.0774 I0.0305 J-0.0169
G3 X1.1997 Y1.0685 I0.0809 J-0.0162
G3 X1.199 Y1.0518 I0.1808 J-0.0156
G1 Y0.971
G1 X1.1785
G1 Y1.0628
G2 X1.1792 Y1.0786 I0.158 J0.0009
G3 Y1.0788 I-0.011 J0.001
G2 X1.1821 Y1.092 I0.0486 J-0.0037
G2 X1.1957 Y1.1076 I0.0301 J-0.0126
G2 X1.207 Y1.112 I0.0196 J-0.0335
G2 X1.2201 Y1.1134 I0.0126 J-0.058
G3 X1.2202 I0.0001 J0.011
G2 X1.2412 Y1.1083 I0.0002 J-0.0451
G2 X1.2606 Y1.092 I-0.0305 J-0.0558
G3 X1.2789 Y1.0936 I0.0086 J0.0068
G2 X1.2932 Y1.1084 I0.0335 J-0.018
G2 X1.3143 Y1.1134 I0.0201 J-0.0382
G3 X1.3147 I0.0003 J0.011
G2 X1.3374 Y1.1078 I0.0003 J-0.0476
G2 X1.353 Y1.0955 I-0.0307 J-0.0552
G1 X1.3529 Y1.0956
G3 Y1.0957 I-0.0062 J-0.0091
G3 X1.3292 Y1.1028 I-0.0235 J-0.0348
G3 X1.3103 Y1.0979 I-0.0013 J-0.0332
G3 X1.3096 Y1.0974 I0.0058 J-0.0093
G3 X1.2985 Y1.0815 I0.0179 J-0.0244
G1 X1.2984 Y1.0814
G3 X1.2967 Y1.0719 I0.0488 J-0.014
G3 X1.2961 Y1.0638 I0.1418 J-0.0146
G3 X1.2957 Y1.0481 I0.331 J-0.0148
G1 Y0.971
G1 X1.2752
G1 Y1.0372
G3 X1.2746 Y1.0546 I-0.2198 J0.0009
G3 X1.2713 Y1.0734 I-0.0853 J-0.0053
G3 X1.2558 Y1.0953 I-0.0397 J-0.0117
G3 X1.2329 Y1.1028 I-0.0233 J-0.0325
G3 X1.2115 Y1.0958 I-0.0016 J-0.0312
G0 Z0.125
M5
M30
