( Made using CamBam - http://www.cambam.co.uk )
( 013-aluminium-mold-middle 12/3/2013 4:06:35 PM )
( T0 : 0.125 )
G20 G90 G91.1 G64 G40
G0 Z0.125
( T0 : 0.125 )
T0 M6
( Pocket1 )
G17
M3 S10000
G0 X1.975 Y0.2375
G0 Z0.0625
G1 F4.0 Z-0.07
G1 F12.0 X1.9938 Y0.2625
G1 X2.0063
G1 X2.025 Y0.2375
G1 X1.975
G1 F4.0 X1.955 Y0.2525
G1 F12.0 X1.9813 Y0.2875
G1 X2.0188
G1 X2.075 Y0.2125
G1 X1.925
G1 X1.955 Y0.2525
G1 F4.0 X1.915 Y0.2825
G1 F12.0 X1.9563 Y0.3375
G1 X2.0438
G1 X2.175 Y0.1625
G1 X1.825
G1 X1.915 Y0.2825
G1 F4.0 X1.875 Y0.3125
G1 F12.0 X1.9313 Y0.3875
G1 X2.0688
G1 X2.275 Y0.1125
G1 X1.725
G1 X1.875 Y0.3125
G1 F4.0 X1.835 Y0.3425
G1 F12.0 X1.9063 Y0.4375
G1 X2.0938
G1 X2.375 Y0.0625
G1 X1.625
G1 X1.835 Y0.3425
G0 Z0.125
M5
M30
