( Made using CamBam - http://www.cambam.co.uk )
( 013-aluminium 11/29/2013 2:38:11 PM )
( T0 : 0.0313 )
G20 G90 G91.1 G64 G40
G0 Z0.125
( T0 : 0.0313 )
T0 M6
( Pocket1 )
G17
M3 S10000
G0 X0.7531 Y2.75
G0 Z0.0625
G1 F4.0 Z-0.0313
G2 F8.0 X0.7484 Y2.7473 I-0.0031 J0.0
G2 Y2.7527 I0.0016 J0.0027
G2 X0.7531 Y2.75 I0.0016 J-0.0027
G1 F4.0 X0.7594
G2 F8.0 X0.7453 Y2.7419 I-0.0094 J0.0
G2 Y2.7581 I0.0047 J0.0081
G2 X0.7594 Y2.75 I0.0047 J-0.0081
G1 F4.0 X0.7719
G2 F8.0 X0.7391 Y2.7311 I-0.0219 J0.0
G2 Y2.7689 I0.0109 J0.0189
G2 X0.7719 Y2.75 I0.0109 J-0.0189
G1 F4.0 X0.7844
G2 F8.0 X0.7328 Y2.7202 I-0.0344 J0.0
G2 Y2.7798 I0.0172 J0.0298
G2 X0.7844 Y2.75 I0.0172 J-0.0298
G1 F4.0 X0.7969
G2 F8.0 X0.7266 Y2.7094 I-0.0469 J0.0
G2 Y2.7906 I0.0234 J0.0406
G2 X0.7969 Y2.75 I0.0234 J-0.0406
G0 Z0.125
G0 X0.7531
G0 Z0.0312
G1 F4.0 Z-0.0625
G2 F8.0 X0.7484 Y2.7473 I-0.0031 J0.0
G2 Y2.7527 I0.0016 J0.0027
G2 X0.7531 Y2.75 I0.0016 J-0.0027
G1 F4.0 X0.7594
G2 F8.0 X0.7453 Y2.7419 I-0.0094 J0.0
G2 Y2.7581 I0.0047 J0.0081
G2 X0.7594 Y2.75 I0.0047 J-0.0081
G1 F4.0 X0.7719
G2 F8.0 X0.7391 Y2.7311 I-0.0219 J0.0
G2 Y2.7689 I0.0109 J0.0189
G2 X0.7719 Y2.75 I0.0109 J-0.0189
G1 F4.0 X0.7844
G2 F8.0 X0.7328 Y2.7202 I-0.0344 J0.0
G2 Y2.7798 I0.0172 J0.0298
G2 X0.7844 Y2.75 I0.0172 J-0.0298
G1 F4.0 X0.7969
G2 F8.0 X0.7266 Y2.7094 I-0.0469 J0.0
G2 Y2.7906 I0.0234 J0.0406
G2 X0.7969 Y2.75 I0.0234 J-0.0406
G0 Z0.125
G0 X0.7531
G0 Z0.0
G1 F4.0 Z-0.0938
G2 F8.0 X0.7484 Y2.7473 I-0.0031 J0.0
G2 Y2.7527 I0.0016 J0.0027
G2 X0.7531 Y2.75 I0.0016 J-0.0027
G1 F4.0 X0.7594
G2 F8.0 X0.7453 Y2.7419 I-0.0094 J0.0
G2 Y2.7581 I0.0047 J0.0081
G2 X0.7594 Y2.75 I0.0047 J-0.0081
G1 F4.0 X0.7719
G2 F8.0 X0.7391 Y2.7311 I-0.0219 J0.0
G2 Y2.7689 I0.0109 J0.0189
G2 X0.7719 Y2.75 I0.0109 J-0.0189
G1 F4.0 X0.7844
G2 F8.0 X0.7328 Y2.7202 I-0.0344 J0.0
G2 Y2.7798 I0.0172 J0.0298
G2 X0.7844 Y2.75 I0.0172 J-0.0298
G1 F4.0 X0.7969
G2 F8.0 X0.7266 Y2.7094 I-0.0469 J0.0
G2 Y2.7906 I0.0234 J0.0406
G2 X0.7969 Y2.75 I0.0234 J-0.0406
G0 Z0.125
G0 X0.7531
G0 Z-0.0323
G1 F4.0 Z-0.126
G2 F8.0 X0.7484 Y2.7473 I-0.0031 J0.0
G2 Y2.7527 I0.0016 J0.0027
G2 X0.7531 Y2.75 I0.0016 J-0.0027
G1 F4.0 X0.7594
G2 F8.0 X0.7453 Y2.7419 I-0.0094 J0.0
G2 Y2.7581 I0.0047 J0.0081
G2 X0.7594 Y2.75 I0.0047 J-0.0081
G1 F4.0 X0.7719
G2 F8.0 X0.7391 Y2.7311 I-0.0219 J0.0
G2 Y2.7689 I0.0109 J0.0189
G2 X0.7719 Y2.75 I0.0109 J-0.0189
G1 F4.0 X0.7844
G2 F8.0 X0.7328 Y2.7202 I-0.0344 J0.0
G2 Y2.7798 I0.0172 J0.0298
G2 X0.7844 Y2.75 I0.0172 J-0.0298
G1 F4.0 X0.7969
G2 F8.0 X0.7266 Y2.7094 I-0.0469 J0.0
G2 Y2.7906 I0.0234 J0.0406
G2 X0.7969 Y2.75 I0.0234 J-0.0406
G0 Z0.125
G0 X3.2469
G0 Z0.0625
G1 F4.0 Z-0.0313
G2 F8.0 X3.2484 Y2.7527 I0.0031 J0.0
G2 X3.2531 Y2.75 I0.0016 J-0.0027
G2 X3.2484 Y2.7473 I-0.0031 J0.0
G2 X3.2469 Y2.75 I0.0016 J0.0027
G1 F4.0 X3.2406
G2 F8.0 X3.2453 Y2.7581 I0.0094 J0.0
G2 X3.2594 Y2.75 I0.0047 J-0.0081
G2 X3.2453 Y2.7419 I-0.0094 J0.0
G2 X3.2406 Y2.75 I0.0047 J0.0081
G1 F4.0 X3.2281
G2 F8.0 X3.2391 Y2.7689 I0.0219 J0.0
G2 X3.2719 Y2.75 I0.0109 J-0.0189
G2 X3.2391 Y2.7311 I-0.0219 J0.0
G2 X3.2281 Y2.75 I0.0109 J0.0189
G1 F4.0 X3.2156
G2 F8.0 X3.2328 Y2.7798 I0.0344 J0.0
G2 X3.2844 Y2.75 I0.0172 J-0.0298
G2 X3.2328 Y2.7202 I-0.0344 J0.0
G2 X3.2156 Y2.75 I0.0172 J0.0298
G1 F4.0 X3.2031
G2 F8.0 X3.2266 Y2.7906 I0.0469 J0.0
G2 X3.2969 Y2.75 I0.0234 J-0.0406
G2 X3.2266 Y2.7094 I-0.0469 J0.0
G2 X3.2031 Y2.75 I0.0234 J0.0406
G0 Z0.125
G0 X3.2469
G0 Z0.0312
G1 F4.0 Z-0.0625
G2 F8.0 X3.2484 Y2.7527 I0.0031 J0.0
G2 X3.2531 Y2.75 I0.0016 J-0.0027
G2 X3.2484 Y2.7473 I-0.0031 J0.0
G2 X3.2469 Y2.75 I0.0016 J0.0027
G1 F4.0 X3.2406
G2 F8.0 X3.2453 Y2.7581 I0.0094 J0.0
G2 X3.2594 Y2.75 I0.0047 J-0.0081
G2 X3.2453 Y2.7419 I-0.0094 J0.0
G2 X3.2406 Y2.75 I0.0047 J0.0081
G1 F4.0 X3.2281
G2 F8.0 X3.2391 Y2.7689 I0.0219 J0.0
G2 X3.2719 Y2.75 I0.0109 J-0.0189
G2 X3.2391 Y2.7311 I-0.0219 J0.0
G2 X3.2281 Y2.75 I0.0109 J0.0189
G1 F4.0 X3.2156
G2 F8.0 X3.2328 Y2.7798 I0.0344 J0.0
G2 X3.2844 Y2.75 I0.0172 J-0.0298
G2 X3.2328 Y2.7202 I-0.0344 J0.0
G2 X3.2156 Y2.75 I0.0172 J0.0298
G1 F4.0 X3.2031
G2 F8.0 X3.2266 Y2.7906 I0.0469 J0.0
G2 X3.2969 Y2.75 I0.0234 J-0.0406
G2 X3.2266 Y2.7094 I-0.0469 J0.0
G2 X3.2031 Y2.75 I0.0234 J0.0406
G0 Z0.125
G0 X3.2469
G0 Z0.0
G1 F4.0 Z-0.0938
G2 F8.0 X3.2484 Y2.7527 I0.0031 J0.0
G2 X3.2531 Y2.75 I0.0016 J-0.0027
G2 X3.2484 Y2.7473 I-0.0031 J0.0
G2 X3.2469 Y2.75 I0.0016 J0.0027
G1 F4.0 X3.2406
G2 F8.0 X3.2453 Y2.7581 I0.0094 J0.0
G2 X3.2594 Y2.75 I0.0047 J-0.0081
G2 X3.2453 Y2.7419 I-0.0094 J0.0
G2 X3.2406 Y2.75 I0.0047 J0.0081
G1 F4.0 X3.2281
G2 F8.0 X3.2391 Y2.7689 I0.0219 J0.0
G2 X3.2719 Y2.75 I0.0109 J-0.0189
G2 X3.2391 Y2.7311 I-0.0219 J0.0
G2 X3.2281 Y2.75 I0.0109 J0.0189
G1 F4.0 X3.2156
G2 F8.0 X3.2328 Y2.7798 I0.0344 J0.0
G2 X3.2844 Y2.75 I0.0172 J-0.0298
G2 X3.2328 Y2.7202 I-0.0344 J0.0
G2 X3.2156 Y2.75 I0.0172 J0.0298
G1 F4.0 X3.2031
G2 F8.0 X3.2266 Y2.7906 I0.0469 J0.0
G2 X3.2969 Y2.75 I0.0234 J-0.0406
G2 X3.2266 Y2.7094 I-0.0469 J0.0
G2 X3.2031 Y2.75 I0.0234 J0.0406
G0 Z0.125
G0 X3.2469
G0 Z-0.0323
G1 F4.0 Z-0.126
G2 F8.0 X3.2484 Y2.7527 I0.0031 J0.0
G2 X3.2531 Y2.75 I0.0016 J-0.0027
G2 X3.2484 Y2.7473 I-0.0031 J0.0
G2 X3.2469 Y2.75 I0.0016 J0.0027
G1 F4.0 X3.2406
G2 F8.0 X3.2453 Y2.7581 I0.0094 J0.0
G2 X3.2594 Y2.75 I0.0047 J-0.0081
G2 X3.2453 Y2.7419 I-0.0094 J0.0
G2 X3.2406 Y2.75 I0.0047 J0.0081
G1 F4.0 X3.2281
G2 F8.0 X3.2391 Y2.7689 I0.0219 J0.0
G2 X3.2719 Y2.75 I0.0109 J-0.0189
G2 X3.2391 Y2.7311 I-0.0219 J0.0
G2 X3.2281 Y2.75 I0.0109 J0.0189
G1 F4.0 X3.2156
G2 F8.0 X3.2328 Y2.7798 I0.0344 J0.0
G2 X3.2844 Y2.75 I0.0172 J-0.0298
G2 X3.2328 Y2.7202 I-0.0344 J0.0
G2 X3.2156 Y2.75 I0.0172 J0.0298
G1 F4.0 X3.2031
G2 F8.0 X3.2266 Y2.7906 I0.0469 J0.0
G2 X3.2969 Y2.75 I0.0234 J-0.0406
G2 X3.2266 Y2.7094 I-0.0469 J0.0
G2 X3.2031 Y2.75 I0.0234 J0.0406
G0 Z0.125
G0 X3.2499 Y0.2531
G0 Z0.0625
G1 F4.0 Z-0.0313
G2 F8.0 X3.2531 Y0.25 I0.0001 J-0.0031
G2 X3.2484 Y0.2473 I-0.0031 J0.0
G2 Y0.2527 I0.0016 J0.0027
G2 X3.2499 Y0.2531 I0.0016 J-0.0027
G1 F4.0 X3.2498 Y0.2594
G2 F8.0 X3.2594 Y0.25 I0.0002 J-0.0094
G2 X3.2453 Y0.2419 I-0.0094 J0.0
G2 Y0.2581 I0.0047 J0.0081
G2 X3.2498 Y0.2594 I0.0047 J-0.0081
G1 F4.0 X3.2496 Y0.2719
G2 F8.0 X3.2719 Y0.25 I0.0004 J-0.0219
G2 X3.2391 Y0.2311 I-0.0219 J0.0
G2 Y0.2689 I0.0109 J0.0189
G2 X3.2496 Y0.2719 I0.0109 J-0.0189
G1 F4.0 X3.2494 Y0.2844
G2 F8.0 X3.2844 Y0.25 I0.0006 J-0.0344
G2 X3.2328 Y0.2202 I-0.0344 J0.0
G2 Y0.2798 I0.0172 J0.0298
G2 X3.2494 Y0.2844 I0.0172 J-0.0298
G1 F4.0 X3.2491 Y0.2969
G2 F8.0 X3.2969 Y0.25 I0.0009 J-0.0469
G2 X3.2266 Y0.2094 I-0.0469 J0.0
G2 Y0.2906 I0.0234 J0.0406
G2 X3.2491 Y0.2969 I0.0234 J-0.0406
G0 Z0.125
G0 X3.2499 Y0.2531
G0 Z0.0312
G1 F4.0 Z-0.0625
G2 F8.0 X3.2531 Y0.25 I0.0001 J-0.0031
G2 X3.2484 Y0.2473 I-0.0031 J0.0
G2 Y0.2527 I0.0016 J0.0027
G2 X3.2499 Y0.2531 I0.0016 J-0.0027
G1 F4.0 X3.2498 Y0.2594
G2 F8.0 X3.2594 Y0.25 I0.0002 J-0.0094
G2 X3.2453 Y0.2419 I-0.0094 J0.0
G2 Y0.2581 I0.0047 J0.0081
G2 X3.2498 Y0.2594 I0.0047 J-0.0081
G1 F4.0 X3.2496 Y0.2719
G2 F8.0 X3.2719 Y0.25 I0.0004 J-0.0219
G2 X3.2391 Y0.2311 I-0.0219 J0.0
G2 Y0.2689 I0.0109 J0.0189
G2 X3.2496 Y0.2719 I0.0109 J-0.0189
G1 F4.0 X3.2494 Y0.2844
G2 F8.0 X3.2844 Y0.25 I0.0006 J-0.0344
G2 X3.2328 Y0.2202 I-0.0344 J0.0
G2 Y0.2798 I0.0172 J0.0298
G2 X3.2494 Y0.2844 I0.0172 J-0.0298
G1 F4.0 X3.2491 Y0.2969
G2 F8.0 X3.2969 Y0.25 I0.0009 J-0.0469
G2 X3.2266 Y0.2094 I-0.0469 J0.0
G2 Y0.2906 I0.0234 J0.0406
G2 X3.2491 Y0.2969 I0.0234 J-0.0406
G0 Z0.125
G0 X3.2499 Y0.2531
G0 Z0.0
G1 F4.0 Z-0.0938
G2 F8.0 X3.2531 Y0.25 I0.0001 J-0.0031
G2 X3.2484 Y0.2473 I-0.0031 J0.0
G2 Y0.2527 I0.0016 J0.0027
G2 X3.2499 Y0.2531 I0.0016 J-0.0027
G1 F4.0 X3.2498 Y0.2594
G2 F8.0 X3.2594 Y0.25 I0.0002 J-0.0094
G2 X3.2453 Y0.2419 I-0.0094 J0.0
G2 Y0.2581 I0.0047 J0.0081
G2 X3.2498 Y0.2594 I0.0047 J-0.0081
G1 F4.0 X3.2496 Y0.2719
G2 F8.0 X3.2719 Y0.25 I0.0004 J-0.0219
G2 X3.2391 Y0.2311 I-0.0219 J0.0
G2 Y0.2689 I0.0109 J0.0189
G2 X3.2496 Y0.2719 I0.0109 J-0.0189
G1 F4.0 X3.2494 Y0.2844
G2 F8.0 X3.2844 Y0.25 I0.0006 J-0.0344
G2 X3.2328 Y0.2202 I-0.0344 J0.0
G2 Y0.2798 I0.0172 J0.0298
G2 X3.2494 Y0.2844 I0.0172 J-0.0298
G1 F4.0 X3.2491 Y0.2969
G2 F8.0 X3.2969 Y0.25 I0.0009 J-0.0469
G2 X3.2266 Y0.2094 I-0.0469 J0.0
G2 Y0.2906 I0.0234 J0.0406
G2 X3.2491 Y0.2969 I0.0234 J-0.0406
G0 Z0.125
G0 X3.2499 Y0.2531
G0 Z-0.0323
G1 F4.0 Z-0.126
G2 F8.0 X3.2531 Y0.25 I0.0001 J-0.0031
G2 X3.2484 Y0.2473 I-0.0031 J0.0
G2 Y0.2527 I0.0016 J0.0027
G2 X3.2499 Y0.2531 I0.0016 J-0.0027
G1 F4.0 X3.2498 Y0.2594
G2 F8.0 X3.2594 Y0.25 I0.0002 J-0.0094
G2 X3.2453 Y0.2419 I-0.0094 J0.0
G2 Y0.2581 I0.0047 J0.0081
G2 X3.2498 Y0.2594 I0.0047 J-0.0081
G1 F4.0 X3.2496 Y0.2719
G2 F8.0 X3.2719 Y0.25 I0.0004 J-0.0219
G2 X3.2391 Y0.2311 I-0.0219 J0.0
G2 Y0.2689 I0.0109 J0.0189
G2 X3.2496 Y0.2719 I0.0109 J-0.0189
G1 F4.0 X3.2494 Y0.2844
G2 F8.0 X3.2844 Y0.25 I0.0006 J-0.0344
G2 X3.2328 Y0.2202 I-0.0344 J0.0
G2 Y0.2798 I0.0172 J0.0298
G2 X3.2494 Y0.2844 I0.0172 J-0.0298
G1 F4.0 X3.2491 Y0.2969
G2 F8.0 X3.2969 Y0.25 I0.0009 J-0.0469
G2 X3.2266 Y0.2094 I-0.0469 J0.0
G2 Y0.2906 I0.0234 J0.0406
G2 X3.2491 Y0.2969 I0.0234 J-0.0406
G0 Z0.125
G0 X0.7531 Y0.2501
G0 Z0.0625
G1 F4.0 Z-0.0313
G1 F8.0 Y0.25
G2 X0.7484 Y0.2473 I-0.0031 J0.0
G2 Y0.2527 I0.0016 J0.0027
G2 X0.7531 Y0.2501 I0.0016 J-0.0027
G1 F4.0 X0.7594 Y0.2502
G2 F8.0 Y0.25 I-0.0094 J-0.0002
G2 X0.7453 Y0.2419 I-0.0094 J0.0
G2 Y0.2581 I0.0047 J0.0081
G2 X0.7594 Y0.2502 I0.0047 J-0.0081
G1 F4.0 X0.7719 Y0.2504
G2 F8.0 Y0.25 I-0.0219 J-0.0004
G2 X0.7391 Y0.2311 I-0.0219 J0.0
G2 Y0.2689 I0.0109 J0.0189
G2 X0.7719 Y0.2504 I0.0109 J-0.0189
G1 F4.0 X0.7844 Y0.2506
G2 F8.0 Y0.25 I-0.0344 J-0.0006
G2 X0.7328 Y0.2202 I-0.0344 J0.0
G2 Y0.2798 I0.0172 J0.0298
G2 X0.7844 Y0.2506 I0.0172 J-0.0298
G1 F4.0 X0.7969 Y0.2509
G2 F8.0 Y0.25 I-0.0469 J-0.0009
G2 X0.7266 Y0.2094 I-0.0469 J0.0
G2 Y0.2906 I0.0234 J0.0406
G2 X0.7969 Y0.2509 I0.0234 J-0.0406
G0 Z0.125
G0 X0.7531 Y0.2501
G0 Z0.0312
G1 F4.0 Z-0.0625
G1 F8.0 Y0.25
G2 X0.7484 Y0.2473 I-0.0031 J0.0
G2 Y0.2527 I0.0016 J0.0027
G2 X0.7531 Y0.2501 I0.0016 J-0.0027
G1 F4.0 X0.7594 Y0.2502
G2 F8.0 Y0.25 I-0.0094 J-0.0002
G2 X0.7453 Y0.2419 I-0.0094 J0.0
G2 Y0.2581 I0.0047 J0.0081
G2 X0.7594 Y0.2502 I0.0047 J-0.0081
G1 F4.0 X0.7719 Y0.2504
G2 F8.0 Y0.25 I-0.0219 J-0.0004
G2 X0.7391 Y0.2311 I-0.0219 J0.0
G2 Y0.2689 I0.0109 J0.0189
G2 X0.7719 Y0.2504 I0.0109 J-0.0189
G1 F4.0 X0.7844 Y0.2506
G2 F8.0 Y0.25 I-0.0344 J-0.0006
G2 X0.7328 Y0.2202 I-0.0344 J0.0
G2 Y0.2798 I0.0172 J0.0298
G2 X0.7844 Y0.2506 I0.0172 J-0.0298
G1 F4.0 X0.7969 Y0.2509
G2 F8.0 Y0.25 I-0.0469 J-0.0009
G2 X0.7266 Y0.2094 I-0.0469 J0.0
G2 Y0.2906 I0.0234 J0.0406
G2 X0.7969 Y0.2509 I0.0234 J-0.0406
G0 Z0.125
G0 X0.7531 Y0.2501
G0 Z0.0
G1 F4.0 Z-0.0938
G1 F8.0 Y0.25
G2 X0.7484 Y0.2473 I-0.0031 J0.0
G2 Y0.2527 I0.0016 J0.0027
G2 X0.7531 Y0.2501 I0.0016 J-0.0027
G1 F4.0 X0.7594 Y0.2502
G2 F8.0 Y0.25 I-0.0094 J-0.0002
G2 X0.7453 Y0.2419 I-0.0094 J0.0
G2 Y0.2581 I0.0047 J0.0081
G2 X0.7594 Y0.2502 I0.0047 J-0.0081
G1 F4.0 X0.7719 Y0.2504
G2 F8.0 Y0.25 I-0.0219 J-0.0004
G2 X0.7391 Y0.2311 I-0.0219 J0.0
G2 Y0.2689 I0.0109 J0.0189
G2 X0.7719 Y0.2504 I0.0109 J-0.0189
G1 F4.0 X0.7844 Y0.2506
G2 F8.0 Y0.25 I-0.0344 J-0.0006
G2 X0.7328 Y0.2202 I-0.0344 J0.0
G2 Y0.2798 I0.0172 J0.0298
G2 X0.7844 Y0.2506 I0.0172 J-0.0298
G1 F4.0 X0.7969 Y0.2509
G2 F8.0 Y0.25 I-0.0469 J-0.0009
G2 X0.7266 Y0.2094 I-0.0469 J0.0
G2 Y0.2906 I0.0234 J0.0406
G2 X0.7969 Y0.2509 I0.0234 J-0.0406
G0 Z0.125
G0 X0.7531 Y0.2501
G0 Z-0.0323
G1 F4.0 Z-0.126
G1 F8.0 Y0.25
G2 X0.7484 Y0.2473 I-0.0031 J0.0
G2 Y0.2527 I0.0016 J0.0027
G2 X0.7531 Y0.2501 I0.0016 J-0.0027
G1 F4.0 X0.7594 Y0.2502
G2 F8.0 Y0.25 I-0.0094 J-0.0002
G2 X0.7453 Y0.2419 I-0.0094 J0.0
G2 Y0.2581 I0.0047 J0.0081
G2 X0.7594 Y0.2502 I0.0047 J-0.0081
G1 F4.0 X0.7719 Y0.2504
G2 F8.0 Y0.25 I-0.0219 J-0.0004
G2 X0.7391 Y0.2311 I-0.0219 J0.0
G2 Y0.2689 I0.0109 J0.0189
G2 X0.7719 Y0.2504 I0.0109 J-0.0189
G1 F4.0 X0.7844 Y0.2506
G2 F8.0 Y0.25 I-0.0344 J-0.0006
G2 X0.7328 Y0.2202 I-0.0344 J0.0
G2 Y0.2798 I0.0172 J0.0298
G2 X0.7844 Y0.2506 I0.0172 J-0.0298
G1 F4.0 X0.7969 Y0.2509
G2 F8.0 Y0.25 I-0.0469 J-0.0009
G2 X0.7266 Y0.2094 I-0.0469 J0.0
G2 Y0.2906 I0.0234 J0.0406
G2 X0.7969 Y0.2509 I0.0234 J-0.0406
( Pocket3 )
S10000
G0 Z0.125
G0 X1.0719 Y0.5719
G0 Z0.0625
G1 F4.0 Z-0.02
G1 F8.0 Y0.5766
G3 X1.0766 Y0.5719 I0.0531 J0.0484
G1 X1.0719
G1 F4.0 X1.0656
G1 F8.0 Y0.5971
G3 X1.0971 Y0.5656 I0.0594 J0.0279
G1 X1.0656
G1 Y0.5719
G0 Z0.125
G0 X1.0719 Y2.4234
G0 Z0.0625
G1 F4.0 Z-0.02
G1 F8.0 Y2.4281
G1 X1.0766
G3 X1.0719 Y2.4234 I0.0484 J-0.0531
G1 F4.0 X1.0765 Y2.4192
G3 F8.0 X1.0656 Y2.4029 I0.0485 J-0.0442
G1 Y2.4344
G1 X1.0971
G3 X1.0765 Y2.4192 I0.0279 J-0.0594
G0 Z0.125
G0 X2.9234 Y2.4281
G0 Z0.0625
G1 F4.0 Z-0.02
G1 F8.0 X2.9281
G1 Y2.4234
G3 X2.9234 Y2.4281 I-0.0531 J-0.0484
G1 F4.0 X2.9192 Y2.4235
G3 F8.0 X2.9029 Y2.4344 I-0.0442 J-0.0485
G1 X2.9344
G1 Y2.4029
G3 X2.9192 Y2.4235 I-0.0594 J-0.0279
G0 Z0.125
G0 X2.9281 Y0.5766
G0 Z0.0625
G1 F4.0 Z-0.02
G1 F8.0 Y0.5719
G1 X2.9234
G3 X2.9281 Y0.5766 I-0.0484 J0.0531
G1 F4.0 X2.9344
G1 F8.0 Y0.5656
G1 X2.9029
G3 X2.9344 Y0.5971 I-0.0279 J0.0594
G1 Y0.5766
G0 Z0.125
G0 X2.8968 Y0.6073
G0 Z0.0625
G1 F4.0 Z-0.02
G3 F8.0 X2.9031 Y0.625 I-0.0218 J0.0177
G1 Y2.375
G3 X2.875 Y2.4031 I-0.0281 J0.0
G1 X1.125
G3 X1.0969 Y2.375 I0.0 J-0.0281
G1 Y0.625
G3 X1.125 Y0.5969 I0.0281 J0.0
G1 X2.875
G3 X2.8968 Y0.6073 I0.0 J0.0281
G1 F4.0 X2.8871 Y0.6151
G3 F8.0 X2.8906 Y0.625 I-0.0121 J0.0099
G1 Y2.375
G3 X2.875 Y2.3906 I-0.0156 J0.0
G1 X1.125
G3 X1.1094 Y2.375 I0.0 J-0.0156
G1 Y0.625
G3 X1.125 Y0.6094 I0.0156 J0.0
G1 X2.875
G3 X2.8871 Y0.6151 I0.0 J0.0156
G0 Z0.125
G0 X2.9065 Y0.5994
G0 Z0.0625
G1 F4.0 Z-0.02
G2 F8.0 X2.875 Y0.5844 I-0.0315 J0.0256
G1 X1.125
G2 X1.0844 Y0.625 I0.0 J0.0406
G1 Y2.375
G2 X1.125 Y2.4156 I0.0406 J0.0
G1 X2.875
G2 X2.9156 Y2.375 I0.0 J-0.0406
G1 Y0.625
G2 X2.9065 Y0.5994 I-0.0406 J0.0
G1 F4.0 X2.9162 Y0.5915
G2 F8.0 X2.875 Y0.5719 I-0.0412 J0.0335
G1 X1.125
G2 X1.0719 Y0.625 I0.0 J0.0531
G1 Y2.375
G2 X1.125 Y2.4281 I0.0531 J0.0
G1 X2.875
G2 X2.9281 Y2.375 I0.0 J-0.0531
G1 Y0.625
G2 X2.9162 Y0.5915 I-0.0531 J0.0
G0 Z0.125
G0 X2.9469
G0 Z0.0625
G1 F4.0 Z-0.02
G1 F8.0 Y0.5531
G1 X1.0531
G1 Y2.4469
G1 X2.9469
G1 Y0.5915
G1 F4.0 X2.9594
G1 F8.0 Y0.5406
G1 X1.0406
G1 Y2.4594
G1 X2.9594
G1 Y0.5915
G1 F4.0 X2.9719
G1 F8.0 Y0.5281
G1 X1.0281
G1 Y2.4719
G1 X2.9719
G1 Y0.5915
G1 F4.0 X2.9844
G1 F8.0 Y0.5156
G1 X1.0156
G1 Y2.4844
G1 X2.9844
G1 Y0.5915
G0 Z0.125
G0 X2.3253 Y1.3806
G0 Z0.0625
G1 F4.0 Z-0.02
G1 F8.0 X2.3146
G3 X2.3193 Y1.3882 I-0.0606 J0.0423
G3 X2.3253 Y1.3806 I0.0964 J0.0706
G1 F4.0 X2.3348 Y1.3888
G3 F8.0 X2.3486 Y1.3755 I0.0808 J0.07
G3 X2.3503 Y1.3742 I0.0176 J0.0219
G3 X2.3605 Y1.3681 I0.0524 J0.0763
G1 X2.2821
G3 X2.2888 Y1.3723 I-0.0403 J0.0726
G3 X2.3154 Y1.4196 I-0.0348 J0.0507
G3 X2.3221 Y1.4069 I0.2074 J0.1029
G3 X2.3348 Y1.3888 I0.0935 J0.0519
G0 Z0.125
G0 X2.261 Y1.5536
G0 Z0.0625
G1 F4.0 Z-0.02
G3 F8.0 X2.2597 Y1.554 I-0.0081 J-0.0269
G3 X2.2605 Y1.5551 I-0.0216 J0.018
G1 X2.261 Y1.5536
G0 Z0.125
G0 X2.0085 Y1.5614
G0 Z0.0625
G1 F4.0 Z-0.02
G3 F8.0 X2.0052 Y1.5581 I0.0316 J-0.0347
G1 X2.0078 Y1.5648
G3 X2.0085 Y1.5614 I0.0463 J0.0073
G0 Z0.125
G0 X1.9469 Y1.4094
G0 Z0.0625
G1 F4.0 Z-0.02
G3 F8.0 X1.9464 Y1.4034 I0.1201 J-0.0134
G3 Y1.3978 I0.0468 J-0.0029
G3 X1.9481 Y1.3869 I0.0579 J0.0034
G1 X1.9379
G3 X1.9409 Y1.3942 I-0.0771 J0.0367
G1 X1.9469 Y1.4094
G0 Z0.125
G0 X2.1189 Y1.8479
G0 Z0.0625
G1 F4.0 Z-0.02
G1 F8.0 X2.1211 Y1.8537
G1 X2.1225 Y1.8502
G3 X2.1189 Y1.8479 I0.0226 J-0.041
G1 F4.0 X2.113 Y1.8502
G1 F8.0 X2.1211 Y1.8707
G1 X2.1305 Y1.847
G3 X2.1072 Y1.8237 I0.0146 J-0.0379
G1 X2.0162 Y1.5866
G3 X2.0156 Y1.5592 I0.0379 J-0.0145
G3 X2.0023 Y1.5418 I0.0244 J-0.0324
G1 X1.9578 Y1.43
G3 X1.9562 Y1.4254 I0.0377 J-0.015
G3 X1.9526 Y1.403 I0.1107 J-0.0294
G3 Y1.3981 I0.0405 J-0.0025
G3 X1.9568 Y1.3806 I0.0517 J0.0031
G1 X1.9272
G3 X1.9351 Y1.3964 I-0.0665 J0.043
G1 X2.113 Y1.8502
G1 F4.0 X2.1014 Y1.8548
G1 F8.0 X2.121 Y1.9047
G1 X2.1479 Y1.8371
G3 X2.1189 Y1.8192 I-0.0028 J-0.028
G1 X2.0279 Y1.5821
G3 X2.0327 Y1.5539 I0.0262 J-0.0101
G3 X2.0139 Y1.5371 I0.0074 J-0.0271
G1 X1.9694 Y1.4254
G3 X1.9683 Y1.4222 I0.0261 J-0.0104
G3 X1.9651 Y1.4023 I0.0987 J-0.0262
G3 Y1.3989 I0.0281 J-0.0017
G3 X1.9767 Y1.3733 I0.0392 J0.0023
G3 X1.9824 Y1.3681 I0.0435 J0.0427
G1 X1.8977
G3 X1.9234 Y1.4008 I-0.0369 J0.0555
G1 X2.1014 Y1.8548
G1 F4.0 X2.0898 Y1.8593
G1 F8.0 X2.1128 Y1.9181
G1 X2.1291
G1 X2.3189 Y1.4425
G3 X2.333 Y1.4131 I0.2039 J0.0801
G3 X2.3564 Y1.3853 I0.0826 J0.0457
G3 X2.3574 Y1.3845 I0.0098 J0.0122
G3 X2.3902 Y1.3715 I0.0453 J0.066
G3 X2.4057 Y1.3695 I0.0295 J0.1693
G1 Y1.3556
G1 X2.2154
G1 Y1.3689
G1 X2.2275
G3 X2.2538 Y1.3712 I0.0013 J0.1369
G3 X2.2817 Y1.3826 I-0.0121 J0.0695
G3 X2.3029 Y1.4216 I-0.0277 J0.0403
G3 Y1.4227 I-0.0156 J0.0004
G3 X2.294 Y1.4637 I-0.1247 J-0.0056
G1 X2.2675 Y1.5323
G3 X2.2529 Y1.5423 I-0.0146 J-0.0056
G1 X2.04
G3 X2.0255 Y1.5325 I0.0 J-0.0156
G1 X1.981 Y1.4208
G3 X1.9804 Y1.419 I0.0145 J-0.0058
G3 X1.9776 Y1.4015 I0.0866 J-0.023
G3 Y1.3996 I0.0156 J-0.001
G3 X1.9855 Y1.3821 I0.0267 J0.0016
G3 X1.9947 Y1.3747 I0.0346 J0.0339
G3 X1.9987 Y1.373 I0.0082 J0.0133
G3 X2.0232 Y1.3694 I0.0264 J0.0942
G3 X2.0448 Y1.3689 I0.0202 J0.4233
G1 X2.0549
G1 Y1.3556
G1 X1.8443
G1 Y1.3689
G1 X1.8546
G3 X1.8878 Y1.3767 I0.0019 J0.0665
G3 X1.8884 Y1.377 I-0.0073 J0.0138
G3 X1.9117 Y1.4052 I-0.0276 J0.0466
G1 X2.0898 Y1.8593
G0 Z0.125
G0 X2.1335 Y1.8196
G0 Z0.0625
G1 F4.0 Z-0.02
G3 F8.0 X2.1305 Y1.8147 I0.0116 J-0.0105
G1 X2.0395 Y1.5776
G3 X2.0541 Y1.5564 I0.0146 J-0.0056
G1 X2.2381
G3 X2.2526 Y1.5777 I0.0 J0.0156
G1 X2.1597 Y1.8148
G3 X2.1335 Y1.8196 I-0.0145 J-0.0057
G0 Z0.125
G0 X1.711 Y1.8856
G0 Z0.0625
G1 F4.0 Z-0.02
G3 F8.0 X1.7028 Y1.8677 I0.051 J-0.0342
G3 X1.7006 Y1.8571 I0.0788 J-0.022
G1 Y1.8861
G1 X1.711 Y1.8856
G0 Z0.125
G0 X1.7006 Y1.397
G0 Z0.0625
G1 F4.0 Z-0.02
G3 F8.0 X1.7054 Y1.3806 I0.0641 J0.0102
G1 X1.6972
G3 X1.7006 Y1.397 I-0.0519 J0.019
G1 F4.0 X1.7129 Y1.3989
G3 F8.0 X1.7267 Y1.371 I0.0518 J0.0082
G3 X1.7286 Y1.3692 I0.0204 J0.0194
G3 X1.7299 Y1.3681 I0.0323 J0.0372
G1 X1.6743
G3 X1.6755 Y1.3693 I-0.0186 J0.0211
G3 X1.6881 Y1.4012 I-0.0302 J0.0303
G1 Y1.8992
G1 X1.7419 Y1.8967
G3 X1.7299 Y1.8883 I0.0348 J-0.0628
G3 X1.7296 Y1.888 I0.0183 J-0.0213
G3 X1.7149 Y1.8644 I0.0324 J-0.0367
G3 X1.7123 Y1.8449 I0.0668 J-0.0186
G1 Y1.4095
G3 X1.7129 Y1.3989 I0.0524 J-0.0024
G1 F4.0 X1.7252 Y1.4009
G3 F8.0 X1.7357 Y1.3796 I0.0394 J0.0063
G3 X1.7368 Y1.3786 I0.0113 J0.0108
G3 X1.7538 Y1.3703 I0.0241 J0.0277
G3 X1.7679 Y1.3689 I0.0134 J0.0636
G1 X1.7955
G1 Y1.3556
G1 X1.6076
G1 Y1.3689
G1 X1.6381
G3 X1.6643 Y1.3762 I0.0018 J0.0441
G3 X1.6667 Y1.3781 I-0.0086 J0.013
G3 X1.6756 Y1.401 I-0.0214 J0.0215
G1 Y1.9123
G1 X1.8021 Y1.9063
G1 Y1.8931
G1 X1.7781
G3 X1.7381 Y1.8788 I-0.0014 J-0.0593
G3 X1.7379 Y1.8787 I0.0102 J-0.0118
G3 X1.7269 Y1.861 I0.0241 J-0.0273
G3 X1.7248 Y1.845 I0.0547 J-0.0153
G1 Y1.4092
G3 X1.7252 Y1.4009 I0.0399 J-0.0021
G0 Z0.125
G0 X1.5503 Y2.2091
G0 Z0.0625
G1 F4.0 Z-0.02
G1 F8.0 Y2.2342
G3 X1.5645 Y2.2224 I0.1752 J0.1972
G3 X1.5503 Y2.2091 I0.011 J-0.0259
G1 F4.0 X1.5378
G1 F8.0 Y2.2643
G3 X1.577 Y2.2287 I0.1877 J0.1671
G3 X1.621 Y2.2014 I0.1958 J0.2671
G1 Y2.1875
G1 X1.5835 Y2.21
G3 X1.5599 Y2.1966 I-0.008 J-0.0134
G1 Y1.9956
G1 X1.5378
G1 Y2.2091
G0 Z0.125
G0 X1.2758 Y2.2324
G0 Z0.0625
G1 F4.0 Z-0.02
G3 F8.0 X1.2731 Y2.2251 I0.0535 J-0.0244
G3 X1.2707 Y2.2151 I0.0785 J-0.024
G2 X1.2741 Y2.2289 I0.0534 J-0.0059
G2 X1.2758 Y2.2324 I0.0341 J-0.0145
G1 F4.0 X1.2872 Y2.2272
G3 F8.0 X1.285 Y2.2214 I0.0421 J-0.0192
G3 X1.282 Y2.2003 I0.0665 J-0.0203
G3 X1.2871 Y2.1751 I0.0591 J-0.0012
G3 X1.2873 Y2.1748 I0.0143 J0.0064
G3 X1.3075 Y2.1539 I0.0412 J0.0196
G3 X1.3237 Y2.1482 I0.0284 J0.0546
G3 X1.3359 Y2.1465 I0.019 J0.095
G1 Y2.1335
G3 X1.3163 Y2.1299 I0.0053 J-0.0853
G3 X1.2918 Y2.1158 I0.019 J-0.0612
G3 X1.2766 Y2.0942 I0.04 J-0.0442
G3 X1.2765 Y2.094 I0.0145 J-0.0059
G3 X1.2719 Y2.0691 I0.0619 J-0.0243
G3 X1.2764 Y2.0417 I0.0773 J-0.0013
G3 X1.2765 Y2.0416 I0.0147 J0.0053
G3 X1.2963 Y2.0165 I0.0485 J0.0178
G3 X1.2964 Y2.0164 I0.0087 J0.013
G3 X1.315 Y2.0083 I0.0332 J0.051
G3 X1.3385 Y2.0056 I0.0224 J0.0917
G3 X1.3743 Y2.0146 I-0.0002 J0.0765
G3 X1.3744 I-0.0073 J0.0138
G3 X1.3869 Y2.0226 I-0.0497 J0.0918
G1 X1.396 Y2.0086
G2 X1.3753 Y1.9977 I-0.054 J0.0777
G2 X1.3392 Y1.9915 I-0.0352 J0.0971
G3 X1.3389 I-0.0001 J-0.0156
G2 X1.3017 Y1.996 I-0.0016 J0.1439
G1 X1.3016
G2 X1.2706 Y2.0116 I0.0198 J0.0781
G2 X1.2532 Y2.0351 I0.0373 J0.0457
G2 X1.2478 Y2.0657 I0.0761 J0.0292
G3 Y2.0662 I-0.0156 J0.0003
G2 X1.2531 Y2.0944 I0.0717 J0.0011
G2 X1.2698 Y2.1163 I0.0526 J-0.0228
G2 X1.2867 Y2.1269 I0.0525 J-0.065
G3 X1.2878 Y2.1545 I-0.0067 J0.0141
G2 X1.2653 Y2.1768 I0.0315 J0.0543
G2 X1.2579 Y2.2075 I0.0544 J0.0294
G3 Y2.2081 I-0.0156 J0.0003
G2 X1.2625 Y2.2336 I0.0662 J0.0011
G2 X1.2772 Y2.2531 I0.0456 J-0.0192
G2 X1.3044 Y2.2663 I0.0437 J-0.0548
G1 Y2.2664
G2 X1.3372 Y2.2701 I0.0313 J-0.1274
G1 X1.3373
G2 X1.3721 Y2.2627 I-0.0006 J-0.0876
G3 X1.3723 Y2.2626 I0.0063 J0.0143
G2 X1.3863 Y2.2552 I-0.0357 J-0.0846
G2 X1.3881 Y2.254 I-0.0237 J-0.0374
G1 X1.3804 Y2.2426
G3 X1.3716 Y2.248 I-0.0558 J-0.0804
G3 X1.3408 Y2.2561 I-0.0315 J-0.0578
G3 X1.3098 Y2.25 I-0.0021 J-0.0716
G3 X1.3094 Y2.2498 I0.0063 J-0.0143
G3 X1.2872 Y2.2272 I0.0199 J-0.0418
( Pocket2 )
S10000
G0 Z0.125
G0 X2.2923 Y0.698
G0 Z0.0625
G1 F4.0 Z-0.02
G1 F8.0 X2.2847
G3 X2.2876 Y0.7049 I-0.0148 J0.0102
G1 X2.2923 Y0.698
G1 F4.0 X2.2989 Y0.7025
G1 F8.0 X2.3074 Y0.69
G1 X2.2128
G1 Y0.6982
G1 X2.2699
G3 X2.2783 Y0.7137 I0.0 J0.01
G1 X2.2416 Y0.7695
G2 X2.2318 Y0.7864 I0.1453 J0.096
G2 X2.225 Y0.8037 I0.0807 J0.0417
G2 X2.2234 Y0.8149 I0.0424 J0.0117
G2 X2.2262 Y0.8301 I0.0385 J0.0006
G2 X2.2351 Y0.8416 I0.0272 J-0.0118
G2 X2.2517 Y0.8497 I0.0269 J-0.034
G2 X2.2717 Y0.852 I0.0192 J-0.0777
G3 X2.2719 I0.0001 J0.01
G2 X2.2967 Y0.845 I0.0004 J-0.0458
G3 X2.2969 Y0.8449 I0.0053 J0.0085
G2 X2.3086 Y0.8345 I-0.0216 J-0.0364
G1 X2.3026 Y0.8298
G3 X2.2944 Y0.8374 I-0.0407 J-0.0355
G3 X2.2942 Y0.8376 I-0.006 J-0.008
G3 X2.2707 Y0.845 I-0.0232 J-0.0324
G3 X2.2541 Y0.8423 I-0.001 J-0.0462
G3 X2.2386 Y0.8275 I0.0089 J-0.0248
G3 X2.2385 Y0.8273 I0.0093 J-0.0038
G3 X2.2363 Y0.8146 I0.0316 J-0.012
G3 X2.2383 Y0.8007 I0.054 J0.0007
G3 X2.2428 Y0.7884 I0.0799 J0.0222
G1 X2.2429 Y0.7883
G3 X2.2551 Y0.767 I0.1313 J0.061
G1 X2.2989 Y0.7025
G0 Z0.125
G0 X2.1525 Y0.726
G0 Z0.0625
G1 F4.0 Z-0.02
G3 F8.0 X2.1533 Y0.737 I-0.0657 J0.0106
G3 X2.1495 Y0.7579 I-0.052 J0.0013
G3 X2.1494 Y0.7581 I-0.0093 J-0.0038
G3 X2.1308 Y0.7753 I-0.0287 J-0.0122
G1 X2.1307 Y0.7754
G3 X2.116 Y0.7776 I-0.0142 J-0.0426
G3 X2.09 Y0.765 I-0.0005 J-0.032
G3 X2.0826 Y0.7502 I0.0311 J-0.0247
G3 X2.0808 Y0.7353 I0.0558 J-0.0144
G3 X2.0825 Y0.721 I0.0571 J-0.0005
G3 X2.0897 Y0.7063 I0.0369 J0.0091
G3 X2.0898 I0.0078 J0.0062
G3 X2.1016 Y0.6973 I0.0245 J0.02
G3 X2.1018 Y0.6972 I0.004 J0.0092
G3 X2.1156 Y0.6945 I0.0134 J0.0323
G3 X2.133 Y0.6979 I0.0008 J0.042
G3 X2.1332 Y0.698 I-0.0039 J0.0092
G3 X2.1478 Y0.7118 I-0.0131 J0.0286
G3 X2.1519 Y0.7231 I-0.037 J0.0199
G3 X2.1525 Y0.726 I-0.0652 J0.0135
G0 Z0.125
G0 X2.1582 Y0.7573
G0 Z0.0625
G1 F4.0 Z-0.02
G3 F8.0 X2.1569 Y0.7609 I-0.0569 J-0.019
G3 X2.1568 Y0.7612 I-0.0167 J-0.0068
G3 X2.1473 Y0.7746 I-0.036 J-0.0154
G3 X2.1532 Y0.7826 I-0.011 J0.0143
G2 X2.1582 Y0.7573 I-0.0736 J-0.0277
G1 F4.0 X2.1662 Y0.7576
G2 F8.0 X2.1663 Y0.7555 I-0.0866 J-0.0026
G2 X2.1647 Y0.7333 I-0.1418 J-0.0009
G2 X2.1588 Y0.713 I-0.0767 J0.0113
G2 X2.1518 Y0.702 I-0.0422 J0.0192
G2 X2.1381 Y0.692 I-0.0289 J0.0252
G2 X2.114 Y0.6876 I-0.0229 J0.0559
G3 X2.1137 I-0.0002 J-0.01
G2 X2.096 Y0.6908 I-0.0006 J0.0473
G2 X2.0815 Y0.7007 I0.0157 J0.0385
G1 X2.0814
G2 X2.0715 Y0.7168 I0.0314 J0.0304
G2 X2.0685 Y0.7364 I0.0563 J0.0189
G3 Y0.7366 I-0.01 J0.0001
G2 X2.0714 Y0.7562 I0.0611 J0.0008
G2 X2.081 Y0.7719 I0.0386 J-0.0128
G3 X2.0811 I-0.0071 J0.007
G2 X2.0958 Y0.7816 I0.0284 J-0.0273
G2 X2.1142 Y0.7846 I0.0177 J-0.0501
G2 X2.1228 Y0.7833 I-0.0006 J-0.0319
G1 X2.1229
G2 X2.1322 Y0.7798 I-0.019 J-0.0652
G3 X2.1457 Y0.7925 I0.0042 J0.0091
G3 X2.1358 Y0.811 I-0.0791 J-0.0302
G3 X2.1231 Y0.8265 I-0.1032 J-0.0723
G3 X2.0986 Y0.8468 I-0.1 J-0.0953
G1 X2.1026 Y0.851
G2 X2.123 Y0.8391 I-0.0224 J-0.0618
G2 X2.144 Y0.816 I-0.08 J-0.094
G3 X2.1442 Y0.8158 I0.0082 J0.0057
G2 X2.1602 Y0.7869 I-0.1053 J-0.0772
G2 X2.1662 Y0.7576 I-0.0806 J-0.0319
G0 Z0.125
G0 X2.0065 Y0.6975
G0 Z0.0625
G1 F4.0 Z-0.02
G2 F8.0 X2.0067 Y0.6963 I-0.0029 J-0.0011
G3 Y0.6957 I0.018 J-0.0004
G2 X2.0056 Y0.6931 I-0.0035 J-0.0001
G3 X2.0054 Y0.6929 I0.0127 J-0.0128
G2 X2.003 Y0.6919 I-0.0024 J0.0023
G3 X2.0024 I-0.0003 J-0.018
G2 X2.0002 Y0.6928 I-0.0001 J0.0029
G3 X1.9997 Y0.6933 I-0.013 J-0.0124
G2 X1.9987 Y0.6957 I0.0023 J0.0024
G3 Y0.6963 I-0.018 J0.0003
G2 X1.9996 Y0.6985 I0.0029 J0.0001
G3 X2.0002 Y0.6991 I-0.0124 J0.013
G2 X2.0024 Y0.7 I0.0021 J-0.002
G3 X2.003 I0.0003 J0.018
G2 X2.0054 Y0.699 I0.0001 J-0.0033
G3 X2.0057 Y0.6986 I0.0129 J0.0125
G2 X2.0065 Y0.6975 I-0.0022 J-0.0022
G1 F4.0 X2.014 Y0.7003
G2 F8.0 X2.0147 Y0.6962 I-0.0104 J-0.0039
G3 Y0.6958 I0.01 J-0.0002
G2 X2.0113 Y0.6875 I-0.0115 J-0.0002
G3 X2.0111 Y0.6873 I0.007 J-0.0071
G2 X2.0028 Y0.6839 I-0.0081 J0.0079
G3 X2.0025 I-0.0002 J-0.01
G2 X1.9944 Y0.6873 I-0.0002 J0.0109
G3 X1.9941 Y0.6875 I-0.0072 J-0.0069
G2 X1.9907 Y0.6958 I0.0079 J0.0081
G3 Y0.6962 I-0.01 J0.0002
G2 X1.9941 Y0.7043 I0.0109 J0.0002
G3 X1.9944 Y0.7046 I-0.0069 J0.0072
G2 X2.0025 Y0.708 I0.0079 J-0.0075
G3 X2.0028 I0.0002 J0.01
G2 X2.0111 Y0.7045 I0.0002 J-0.0113
G3 X2.0113 Y0.7043 I0.0072 J0.007
G2 X2.014 Y0.7003 I-0.0078 J-0.0079
G0 Z0.125
G0 X1.9096 Y0.7754
G0 Z0.0625
G1 F4.0 Z-0.02
G3 F8.0 X1.9158 Y0.7887 I-0.0322 J0.0232
G3 X1.9176 Y0.8037 I-0.0564 J0.0144
G3 X1.9159 Y0.8181 I-0.058 J0.0005
G3 X1.9087 Y0.8328 I-0.0375 J-0.0092
G3 X1.8828 Y0.845 I-0.0251 J-0.0196
G3 X1.8652 Y0.8415 I-0.0007 J-0.0414
G3 X1.8649 Y0.8413 I0.0041 J-0.0091
G3 X1.8505 Y0.8273 I0.0137 J-0.0286
G3 X1.8464 Y0.8159 I0.0383 J-0.0199
G3 X1.8451 Y0.8019 I0.0674 J-0.0135
G3 X1.8489 Y0.7811 I0.052 J-0.0013
G3 X1.849 Y0.7809 I0.0093 J0.0038
G3 X1.8676 Y0.7636 I0.0287 J0.0122
G1 X1.8677
G3 X1.8824 Y0.7613 I0.0142 J0.0426
G3 X1.9084 Y0.7738 I0.0004 J0.0323
G3 X1.9096 Y0.7754 I-0.0311 J0.0247
G0 Z0.125
G0 X1.8529 Y0.7628
G0 Z0.0625
G1 F4.0 Z-0.02
G3 F8.0 X1.8462 Y0.7539 I0.0103 J-0.0148
G2 X1.8457 Y0.755 I0.1141 J0.0468
G2 X1.8402 Y0.7816 I0.073 J0.029
G3 X1.8415 Y0.7781 I0.0569 J0.019
G3 X1.8416 Y0.7778 I0.0167 J0.0068
G3 X1.8529 Y0.7628 I0.036 J0.0154
G1 F4.0 X1.8575 Y0.7562
G3 F8.0 X1.8541 Y0.7438 I0.0057 J-0.0082
G3 X1.878 Y0.7098 I0.1063 J0.0496
G1 X1.8781
G3 X1.8998 Y0.6922 I0.103 J0.1053
G1 X1.8958 Y0.688
G2 X1.8755 Y0.6998 I0.0223 J0.0617
G2 X1.8545 Y0.7229 I0.0793 J0.0933
G3 X1.8544 Y0.723 I-0.0082 J-0.0057
G2 X1.8383 Y0.752 I0.1059 J0.0777
G2 X1.8321 Y0.7835 I0.0804 J0.032
G2 X1.8344 Y0.8094 I0.1375 J0.0012
G2 X1.8428 Y0.8321 I0.066 J-0.0115
G2 X1.8528 Y0.8431 I0.0341 J-0.021
G2 X1.8718 Y0.8509 I0.026 J-0.0361
G3 X1.8719 Y0.851 I-0.0016 J0.0099
G2 X1.8846 Y0.852 I0.0124 J-0.0721
G3 X1.8849 I0.0 J0.01
G2 X1.9169 Y0.8387 I0.0011 J-0.0424
G1 X1.917 Y0.8386
G2 X1.9269 Y0.8224 I-0.0319 J-0.0306
G2 X1.9299 Y0.8026 I-0.0575 J-0.0191
G3 Y0.8023 I0.01 J-0.0001
G2 X1.927 Y0.7827 I-0.0616 J-0.0008
G2 X1.9174 Y0.767 I-0.0386 J0.0127
G1 Y0.7669
G2 X1.9025 Y0.7573 I-0.0286 J0.028
G2 X1.8842 Y0.7543 I-0.0177 J0.0504
G3 X1.884 I-0.0001 J-0.01
G2 X1.8749 Y0.755 I-0.0003 J0.059
G1 X1.8748
G2 X1.8671 Y0.7572 I0.0044 J0.0302
G3 X1.8575 Y0.7562 I-0.004 J-0.0092
G0 Z0.125
G0 X1.7785 Y0.7384
G0 Z0.0625
G1 F4.0 Z-0.02
G2 F8.0 X1.7793 Y0.731 I-0.0351 J-0.0079
G1 Y0.7309
G2 X1.7768 Y0.714 I-0.0525 J-0.0008
G2 X1.7689 Y0.7017 I-0.028 J0.0093
G2 X1.7545 Y0.694 I-0.0238 J0.0268
G2 X1.7494 Y0.6928 I-0.018 J0.0663
G3 X1.7644 Y0.7023 I-0.0131 J0.0369
G3 X1.7646 Y0.7025 I-0.01 J0.0098
G3 X1.7756 Y0.7313 I-0.0295 J0.0278
G3 X1.7667 Y0.7587 I-0.0467 J0.0001
G2 X1.7735 Y0.7502 I-0.0324 J-0.0325
G3 X1.7736 Y0.7499 I0.0119 J0.0073
G2 X1.7785 Y0.7384 I-0.0303 J-0.0195
G0 Z0.125
G0 X1.7514 Y0.7735
G0 Z0.0625
G1 F4.0 Z-0.02
G3 F8.0 X1.7449 Y0.7774 I-0.0383 J-0.0555
G3 X1.7409 Y0.7788 I-0.0066 J-0.0123
G3 X1.758 Y0.7919 I-0.0251 J0.0506
G3 X1.7652 Y0.8021 I-0.0352 J0.0326
G3 X1.7691 Y0.8169 I-0.0292 J0.0155
G3 X1.7639 Y0.8359 I-0.0327 J0.0012
G3 X1.7632 Y0.8368 I-0.0117 J-0.0076
G3 X1.7548 Y0.8443 I-0.0237 J-0.0181
G2 X1.7634 Y0.839 I-0.0145 J-0.0332
G3 X1.7635 I0.0089 J0.0108
G2 X1.7705 Y0.8297 I-0.0157 J-0.0192
G2 X1.7729 Y0.8173 I-0.0291 J-0.0119
G2 X1.7686 Y0.8026 I-0.0295 J0.0005
G3 X1.7684 Y0.8022 I0.012 J-0.0072
G2 X1.7568 Y0.7895 I-0.0329 J0.0184
G3 X1.7514 Y0.7735 I0.0079 J-0.0116
G0 Z0.125
G0 X1.7297 Y0.7763
G0 Z0.0625
G1 F4.0 Z-0.02
G3 F8.0 X1.7189 Y0.7691 I0.0644 J-0.1088
G3 X1.7208 Y0.7804 I-0.0116 J0.0079
G3 X1.7259 Y0.7775 I0.0214 J0.0312
G3 X1.7297 Y0.7763 I0.006 J0.0126
G0 Z0.125
G0 X1.7121 Y0.7637
G0 Z0.0625
G1 F4.0 Z-0.02
G3 F8.0 X1.6989 Y0.7478 I0.0421 J-0.0482
G3 X1.6988 Y0.7476 I0.0121 J-0.0071
G3 X1.6938 Y0.729 I0.0339 J-0.0192
G3 X1.7065 Y0.7005 I0.036 J-0.001
G3 X1.7182 Y0.6935 I0.026 J0.0305
G2 X1.7162 Y0.6941 I0.0163 J0.0658
G2 X1.7012 Y0.7021 I0.0107 J0.0379
G2 X1.6928 Y0.7144 I0.0204 J0.0231
G2 X1.69 Y0.7309 I0.0441 J0.0158
G2 X1.6918 Y0.7396 I0.0231 J-0.0003
G1 X1.6919 Y0.7397
G2 X1.6973 Y0.7493 I0.0453 J-0.019
G3 X1.6975 Y0.7496 I-0.0114 J0.0082
G2 X1.705 Y0.7585 I0.0473 J-0.0324
G1 Y0.7586
G2 X1.7121 Y0.7637 I0.0216 J-0.0224
G0 Z0.125
G0 X1.7089 Y0.793
G0 Z0.0625
G1 F4.0 Z-0.02
G2 F8.0 X1.708 Y0.7939 I0.0166 J0.0171
G2 X1.7023 Y0.8013 I0.0356 J0.0333
G3 X1.7022 Y0.8015 I-0.0119 J-0.0074
G2 X1.6981 Y0.8097 I0.0357 J0.0229
G2 X1.6967 Y0.8171 I0.0205 J0.0076
G1 Y0.8172
G2 X1.699 Y0.8298 I0.0341 J0.0005
G2 X1.7057 Y0.8392 I0.0228 J-0.0093
G2 X1.7182 Y0.8459 I0.0209 J-0.0241
G2 X1.7206 Y0.8465 I0.0157 J-0.0579
G3 X1.7115 Y0.8412 I0.0132 J-0.0332
G3 X1.7112 Y0.8409 I0.0088 J-0.0109
G3 X1.7006 Y0.8171 I0.0194 J-0.0228
G3 X1.7031 Y0.8043 I0.0379 J0.0008
G3 X1.7079 Y0.7945 I0.0535 J0.0202
G3 X1.7089 Y0.793 I0.0442 J0.0267
G1 F4.0 X1.7061 Y0.7901
G2 F8.0 X1.7051 Y0.7911 I0.0194 J0.0199
G1 Y0.7912
G2 X1.6989 Y0.7992 I0.0385 J0.036
G3 X1.6988 Y0.7993 I-0.0085 J-0.0053
G2 X1.6944 Y0.8083 I0.039 J0.025
G1 X1.6943 Y0.8084
G2 X1.6927 Y0.8171 I0.0243 J0.009
G2 X1.6952 Y0.8313 I0.0381 J0.0006
G2 X1.7031 Y0.8422 I0.0266 J-0.0107
G2 X1.7172 Y0.8498 I0.0235 J-0.0271
G2 X1.7347 Y0.852 I0.0168 J-0.0618
G3 X1.735 I0.0001 J0.01
G2 X1.7518 Y0.8497 I0.0006 J-0.0577
G2 X1.766 Y0.8421 I-0.0116 J-0.0385
G2 X1.7742 Y0.8312 I-0.0182 J-0.0223
G2 X1.7769 Y0.8172 I-0.0328 J-0.0135
G2 X1.7721 Y0.8005 I-0.0335 J0.0005
G3 X1.7719 Y0.8002 I0.0086 J-0.0052
G2 X1.759 Y0.7862 I-0.0364 J0.0204
G3 X1.7596 Y0.7693 I0.0056 J-0.0083
G2 X1.7769 Y0.7523 I-0.0253 J-0.043
G3 X1.777 Y0.7521 I0.0085 J0.0052
G2 X1.7833 Y0.731 I-0.0337 J-0.0216
G2 X1.7806 Y0.7128 I-0.0565 J-0.0008
G2 X1.7716 Y0.6988 I-0.0318 J0.0106
G2 X1.7556 Y0.6901 I-0.0265 J0.0298
G2 X1.7356 Y0.6876 I-0.0191 J0.0702
G3 X1.7354 I-0.0001 J-0.01
G2 X1.7152 Y0.6902 I-0.0009 J0.0718
G2 X1.6986 Y0.6991 I0.0118 J0.0417
G2 X1.689 Y0.713 I0.0231 J0.0262
G2 X1.686 Y0.731 I0.0479 J0.0172
G2 X1.6882 Y0.7412 I0.0271 J-0.0004
G2 X1.694 Y0.7517 I0.049 J-0.0205
G3 X1.6942 Y0.7519 I-0.0081 J0.0058
G2 X1.7023 Y0.7614 I0.0506 J-0.0347
G2 X1.7116 Y0.7679 I0.0244 J-0.0252
G3 X1.7121 Y0.7857 I-0.0043 J0.009
G2 X1.7061 Y0.7901 I0.0134 J0.0244
G1 F4.0 X1.7126 Y0.7946
G3 F8.0 X1.7178 Y0.7881 I0.0395 J0.0267
G3 X1.7276 Y0.7811 I0.0244 J0.0235
G3 X1.7357 Y0.7809 I0.0043 J0.009
G3 X1.7551 Y0.7946 I-0.02 J0.0486
G3 X1.7617 Y0.804 I-0.0323 J0.0299
G3 X1.7651 Y0.817 I-0.0256 J0.0137
G3 X1.7605 Y0.8338 I-0.0287 J0.0011
G3 X1.7601 Y0.8344 I-0.0084 J-0.0054
G3 X1.7444 Y0.8441 I-0.0205 J-0.0157
G3 X1.735 Y0.845 I-0.0092 J-0.0431
G3 X1.714 Y0.8381 I-0.0012 J-0.0317
G3 X1.7137 Y0.8379 I0.0063 J-0.0078
G3 X1.7046 Y0.8172 I0.0168 J-0.0198
G3 X1.7068 Y0.8057 I0.0339 J0.0007
G3 X1.7113 Y0.7966 I0.0498 J0.0188
G3 X1.7126 Y0.7946 I0.0408 J0.0246
G0 Z0.125
G0 X1.728 Y0.7706
G0 Z0.0625
G1 F4.0 Z-0.02
G3 F8.0 X1.7168 Y0.7624 I0.0662 J-0.103
G3 X1.7024 Y0.7458 I0.0373 J-0.047
G3 X1.7023 Y0.7457 I0.0086 J-0.0051
G3 X1.6978 Y0.7289 I0.0305 J-0.0173
G3 X1.7091 Y0.7035 I0.0321 J-0.0009
G3 X1.722 Y0.6964 I0.0234 J0.0274
G1 X1.7221
G3 X1.7354 Y0.6945 I0.013 J0.0437
G3 X1.7615 Y0.7051 I0.001 J0.0352
G3 X1.7617 Y0.7053 I-0.0072 J0.007
G3 X1.7716 Y0.7313 I-0.0266 J0.0251
G3 X1.7627 Y0.7575 I-0.0427 J0.0001
G3 X1.7625 Y0.7577 I-0.0079 J-0.0061
G3 X1.743 Y0.7739 I-0.0495 J-0.0397
G3 X1.7333 Y0.7738 I-0.0047 J-0.0088
G3 X1.728 Y0.7706 I0.0609 J-0.1062
( Pocket4 )
S10000
G0 Z0.125
G0 X2.5528 Y0.9898
G0 Z0.0625
G1 F4.0 Z-0.02
G1 F8.0 X2.5485
G1 Y1.1793
G1 X2.5528
G1 Y0.9898
G1 F4.0 Y0.981
G1 F8.0 X2.5397
G1 Y1.1881
G1 X2.5616
G1 Y0.981
G1 X2.5528
G0 Z0.125
G0 X2.4623 Y1.0071
G0 Z0.0625
G1 F4.0 Z-0.02
G2 F8.0 X2.4605 Y1.0021 I-0.0457 J0.0132
G2 X2.4501 Y0.9911 I-0.0214 J0.0098
G3 X2.45 Y0.991 I0.0093 J-0.0175
G2 X2.4393 Y0.987 I-0.0196 J0.0363
G3 X2.4403 Y0.9877 I-0.025 J0.0403
G3 X2.4411 Y0.9882 I-0.0109 J0.0165
G3 X2.4573 Y1.0109 I-0.0259 J0.0356
G3 X2.4577 Y1.0123 I-0.0189 J0.0058
G3 X2.4596 Y1.0262 I-0.0799 J0.0184
G3 X2.4602 Y1.0376 I-0.2829 J0.02
G3 X2.4605 Y1.0597 I-0.6934 J0.0207
G1 Y1.1161
G1 X2.4648
G1 Y1.0309
G3 Y1.0308 I0.0198 J0.0
G2 X2.4638 Y1.0148 I-0.1185 J-0.0007
G3 Y1.0147 I0.0196 J-0.0025
G2 X2.4623 Y1.0071 I-0.0472 J0.0057
G1 F4.0 X2.4707 Y1.0047
G2 F8.0 X2.4686 Y0.9986 I-0.0542 J0.0156
G2 X2.4543 Y0.9833 I-0.0295 J0.0133
G1 X2.4542
G2 X2.4296 Y0.9772 I-0.0238 J0.044
G3 X2.4294 I-0.0002 J-0.011
G2 X2.4035 Y0.9836 I-0.0001 J0.0553
G3 X2.4033 Y0.9837 I-0.0051 J-0.0097
G2 X2.3869 Y0.9967 I0.0238 J0.0471
G3 X2.4131 Y0.9887 I0.0259 J0.0379
G3 X2.4355 Y0.995 I0.0012 J0.0387
G3 X2.4359 Y0.9953 I-0.006 J0.0092
G3 X2.4489 Y1.0135 I-0.0207 J0.0285
G3 X2.4491 Y1.0143 I-0.0105 J0.0032
G3 X2.4508 Y1.0267 I-0.0714 J0.0164
G3 X2.4514 Y1.0378 I-0.2741 J0.0195
G3 X2.4517 Y1.0597 I-0.6846 J0.0204
G1 Y1.1249
G1 X2.4736
G1 Y1.0309
G2 X2.4726 Y1.0137 I-0.1273 J-0.0008
G3 X2.4725 Y1.0136 I0.0109 J-0.0014
G2 X2.4707 Y1.0047 I-0.056 J0.0068
G0 Z0.125
G0 X2.3582 Y1.0127
G0 Z0.0625
G1 F4.0 Z-0.02
G3 F8.0 X2.3579 Y1.0125 I0.0163 J-0.0179
G1 Y1.0135
G3 X2.3582 Y1.0127 I0.023 J0.0076
G1 F4.0 X2.3611 Y1.0095
G3 F8.0 X2.3547 Y0.9948 I0.0133 J-0.0146
G1 Y0.9898
G1 X2.3535
G1 Y1.1161
G1 X2.3578
G1 Y1.066
G3 X2.3591 Y1.0306 I0.3855 J-0.0036
G3 X2.3619 Y1.0155 I0.0741 J0.0059
G3 X2.3623 Y1.0141 I0.019 J0.0056
G3 X2.3635 Y1.0113 I0.0484 J0.0183
G3 X2.3611 Y1.0095 I0.011 J-0.0165
G1 F4.0 X2.367 Y1.003
G2 F8.0 X2.3773 Y1.0055 I0.0074 J-0.0081
G2 X2.3706 Y1.0172 I0.0335 J0.0269
G2 X2.3703 Y1.018 I0.0103 J0.0039
G2 X2.3678 Y1.0313 I0.0628 J0.0185
G2 X2.3666 Y1.066 I0.3754 J0.0311
G1 Y1.1249
G1 X2.3447
G1 Y0.981
G1 X2.3635
G1 Y0.9948
G2 X2.367 Y1.003 I0.011 J0.0
G0 Z0.125
G0 X2.2673 Y1.0919
G0 Z0.0625
G1 F4.0 Z-0.02
G3 F8.0 X2.2672 Y1.0922 I-0.0231 J-0.0071
G3 X2.2664 Y1.0946 I-0.052 J-0.0167
G3 X2.2673 Y1.0954 I-0.0154 J0.0187
G1 Y1.0919
G1 F4.0 X2.2631 Y1.0906
G3 F8.0 X2.263 Y1.0909 I-0.0189 J-0.0058
G3 X2.261 Y1.0962 I-0.0479 J-0.0153
G3 X2.2708 Y1.1133 I-0.01 J0.0171
G1 Y1.1161
G1 X2.2717
G1 Y0.9898
G1 X2.2674
G1 Y1.0506
G3 X2.2668 Y1.0691 I-0.2511 J0.001
G3 X2.2632 Y1.0903 I-0.096 J-0.0054
G3 X2.2631 Y1.0906 I-0.019 J-0.0055
G1 F4.0 X2.2547 Y1.0881
G2 F8.0 Y1.0879 I-0.0105 J-0.0032
G2 X2.258 Y1.0685 I-0.0839 J-0.0242
G2 X2.2586 Y1.0506 I-0.2417 J-0.017
G1 Y0.981
G1 X2.2805
G1 Y1.1249
G1 X2.262
G1 Y1.1133
G2 X2.2455 Y1.1038 I-0.011 J0.0
G2 X2.2546 Y1.0882 I-0.0304 J-0.0282
G2 X2.2547 Y1.0881 I-0.0105 J-0.0034
G0 Z0.125
G0 X2.1695 Y1.0962
G0 Z0.0625
G1 F4.0 Z-0.02
G3 F8.0 X2.168 Y1.0868 I0.0635 J-0.0153
G1 Y1.0867
G3 X2.1669 Y1.0907 I-0.0981 J-0.0245
G3 X2.1661 Y1.0933 I-0.0533 J-0.0157
G3 X2.1695 Y1.0962 I-0.0136 J0.02
G1 F4.0 X2.1664 Y1.0993
G3 F8.0 X2.1699 Y1.1039 I-0.014 J0.014
G2 X2.1813 Y1.1158 I0.0271 J-0.0145
G2 X2.1896 Y1.1189 I0.0167 J-0.032
G3 X2.1892 Y1.1186 I0.0113 J-0.0163
G3 X2.1745 Y1.0977 I0.0234 J-0.032
G3 Y1.0976 I0.019 J-0.0056
G3 X2.1724 Y1.0864 I0.0585 J-0.0168
G3 X2.1717 Y1.0775 I0.1547 J-0.0159
G3 X2.1714 Y1.0609 I0.3501 J-0.0156
G1 Y0.9898
G1 X2.1671
G1 Y1.0496
G3 X2.1664 Y1.0683 I-0.2353 J0.001
G3 X2.1627 Y1.0895 I-0.0965 J-0.0061
G3 X2.1606 Y1.0952 I-0.049 J-0.0144
G3 X2.1664 Y1.0993 I-0.0082 J0.018
G0 Z0.125
G0 X2.0901 Y1.1187
G0 Z0.0625
G1 F4.0 Z-0.02
G3 F8.0 X2.0793 Y1.1076 I0.0231 J-0.0334
G3 X2.0786 Y1.1063 I0.0166 J-0.0109
G3 X2.0737 Y1.0928 I0.0388 J-0.0216
G3 X2.0723 Y1.0828 I0.0918 J-0.0183
G1 X2.0722 Y1.0827
G3 X2.0715 Y1.0648 I0.1951 J-0.0168
G1 Y0.9898
G1 X2.0672
G1 Y1.0761
G3 Y1.0762 I-0.0198 J0.0
G2 X2.0679 Y1.0916 I0.1546 J0.0008
G3 Y1.092 I-0.0197 J0.0019
G2 X2.0704 Y1.1032 I0.0418 J-0.0032
G2 X2.0809 Y1.1151 I0.0232 J-0.0099
G2 X2.09 Y1.1187 I0.0159 J-0.0273
G2 X2.0901 I0.0112 J-0.0516
G1 F4.0 X2.0883 Y1.1273
G2 F8.0 X2.1017 Y1.1287 I0.013 J-0.0602
G3 X2.1018 I0.0001 J0.011
G2 X2.1237 Y1.1234 I0.0002 J-0.0469
G2 X2.1438 Y1.1065 I-0.0316 J-0.058
G3 X2.1621 Y1.1081 I0.0086 J0.0068
G2 X2.177 Y1.1235 I0.0348 J-0.0187
G2 X2.199 Y1.1287 I0.021 J-0.0397
G3 X2.1994 I0.0003 J0.011
G2 X2.223 Y1.1229 I0.0004 J-0.0495
G2 X2.2415 Y1.1075 I-0.0318 J-0.0573
G3 X2.2387 Y1.1097 I-0.0264 J-0.032
G3 X2.2386 I-0.0062 J-0.0091
G3 X2.2143 Y1.1171 I-0.024 J-0.0357
G3 X2.1951 Y1.112 I-0.0013 J-0.034
G3 X2.1944 Y1.1115 I0.0058 J-0.0093
G3 X2.183 Y1.0953 I0.0182 J-0.0249
G1 X2.1829 Y1.0952
G3 X2.1811 Y1.0855 I0.0501 J-0.0143
G3 X2.1805 Y1.0771 I0.146 J-0.0151
G3 X2.1802 Y1.0609 I0.3413 J-0.0152
G1 Y0.981
G1 X2.1583
G1 Y1.0497
G3 X2.1576 Y1.0677 I-0.2265 J0.001
G3 X2.1542 Y1.087 I-0.0877 J-0.0055
G3 X2.1384 Y1.1094 I-0.0406 J-0.0119
G3 X2.115 Y1.1171 I-0.0239 J-0.0333
G3 X2.0867 Y1.1028 I-0.0017 J-0.0318
G3 X2.0862 Y1.1021 I0.0092 J-0.006
G3 X2.0823 Y1.0911 I0.0311 J-0.0173
G3 X2.081 Y1.082 I0.0832 J-0.0166
G3 X2.0803 Y1.0648 I0.1863 J-0.0161
G1 Y0.981
G1 X2.0584
G1 Y1.0761
G1 Y1.0762
G2 X2.0591 Y1.0924 I0.1634 J0.0009
G3 X2.0592 Y1.0926 I-0.011 J0.001
G2 X2.0622 Y1.1064 I0.0505 J-0.0039
G2 X2.0764 Y1.1227 I0.0314 J-0.0131
G2 X2.0882 Y1.1273 I0.0204 J-0.0349
G2 X2.0883 I0.0131 J-0.0602
G0 Z0.125
G0 X1.9839 Y1.1161
G0 Z0.0625
G1 F4.0 Z-0.02
G1 F8.0 Y0.9898
G1 X1.9796
G1 Y1.1161
G1 X1.9839
G1 F4.0 Y1.1249
G1 F8.0 X1.9927
G1 Y0.981
G1 X1.9708
G1 Y1.1249
G1 X1.9839
G0 Z0.125
G0 Y1.1782
G0 Z0.0625
G1 F4.0 Z-0.02
G1 F8.0 X1.9796
G1 Y1.1793
G1 X1.9839
G1 Y1.1782
G1 F4.0 X1.9927
G1 F8.0 Y1.1694
G1 X1.9708
G1 Y1.1881
G1 X1.9927
G1 Y1.1782
G0 Z0.125
G0 X1.8909 Y1.0939
G0 Z0.0625
G1 F4.0 Z-0.02
G1 F8.0 Y1.0908
G3 X1.8901 Y1.0932 I-0.0533 J-0.0175
G3 X1.8909 Y1.0939 I-0.0158 J0.0184
G1 F4.0 X1.8953
G1 F8.0 Y0.9898
G1 X1.891
G1 Y1.0451
G3 X1.8904 Y1.0652 I-0.3384 J0.0012
G3 X1.8871 Y1.0882 I-0.1084 J-0.0042
G3 X1.8867 Y1.0894 I-0.0192 J-0.005
G3 X1.8847 Y1.0947 I-0.0492 J-0.016
G3 X1.8941 Y1.1116 I-0.0104 J0.0169
G1 Y1.1161
G1 X1.8953
G1 Y1.0939
G1 F4.0 X1.9041
G1 F8.0 Y0.981
G1 X1.8822
G1 Y1.0451
G3 X1.8817 Y1.0648 I-0.3296 J0.0012
G3 X1.8785 Y1.086 I-0.0996 J-0.0038
G3 X1.8783 Y1.0867 I-0.0106 J-0.0028
G3 X1.87 Y1.1014 I-0.0408 J-0.0133
G3 X1.8853 Y1.1116 I0.0043 J0.0101
G1 Y1.1249
G1 X1.9041
G1 Y1.0939
G0 Z0.125
G0 X1.8101 Y1.119
G0 Z0.0625
G1 F4.0 Z-0.02
G3 F8.0 X1.8087 Y1.1182 I0.0241 J-0.0388
G3 X1.8085 Y1.118 I0.011 J-0.0164
G3 X1.7917 Y1.0956 I0.0251 J-0.0362
G3 X1.7916 Y1.0952 I0.0188 J-0.0062
G3 X1.7891 Y1.0829 I0.0595 J-0.0185
G3 X1.7884 Y1.0731 I0.1595 J-0.0177
G3 X1.7879 Y1.0547 I0.3569 J-0.0173
G1 Y0.9898
G1 X1.7836
G1 Y1.0731
G1 Y1.0732
G2 X1.784 Y1.0867 I0.1975 J0.0006
G3 X1.7841 Y1.0868 I-0.0198 J0.0013
G2 X1.7857 Y1.0984 I0.072 J-0.0041
G2 X1.7905 Y1.1088 I0.0265 J-0.0059
G2 X1.8002 Y1.1159 I0.0185 J-0.0152
G3 X1.8009 Y1.1162 I-0.0072 J0.0184
G2 X1.8101 Y1.119 I0.0179 J-0.0416
G1 F4.0 X1.8084 Y1.1277
G3 F8.0 X1.7974 Y1.1243 I0.0104 J-0.0531
G2 X1.797 Y1.1241 I-0.0044 J0.0101
G3 X1.7836 Y1.1143 I0.0119 J-0.0304
G3 X1.7771 Y1.1003 I0.0286 J-0.0218
G3 X1.7753 Y1.0873 I0.079 J-0.0176
G1 Y1.0872
G3 X1.7748 Y1.0732 I0.2058 J-0.0134
G1 Y1.0731
G1 Y0.981
G1 X1.7967
G1 Y1.0547
G2 X1.7971 Y1.0726 I0.3485 J0.0011
G1 Y1.0727
G2 X1.7979 Y1.082 I0.1515 J-0.0075
G2 X1.8 Y1.0926 I0.0533 J-0.0052
G2 X1.8001 Y1.0928 I0.0105 J-0.0033
G2 X1.8135 Y1.1108 I0.0335 J-0.011
G2 X1.8136 Y1.1109 I0.0063 J-0.009
G2 X1.835 Y1.1171 I0.0205 J-0.0306
G2 X1.8616 Y1.1089 I0.0004 J-0.0462
G2 X1.8634 Y1.1077 I-0.024 J-0.0355
G3 X1.8452 Y1.1226 I-0.0487 J-0.0406
G3 X1.8197 Y1.1287 I-0.0248 J-0.0478
G2 X1.8195 I-0.0001 J0.011
G3 X1.8084 Y1.1277 I-0.0007 J-0.0541
G0 Z0.125
G0 X1.6995 Y1.1161
G0 Z0.0625
G1 F4.0 Z-0.02
G1 F8.0 Y0.9898
G1 X1.6952
G1 Y1.1161
G1 X1.6995
G1 F4.0 Y1.1249
G1 F8.0 X1.7083
G1 Y0.981
G1 X1.6864
G1 Y1.1249
G1 X1.6995
G0 Z0.125
G0 Y1.1782
G0 Z0.0625
G1 F4.0 Z-0.02
G1 F8.0 X1.6952
G1 Y1.1793
G1 X1.6995
G1 Y1.1782
G1 F4.0 X1.7083
G1 F8.0 Y1.1694
G1 X1.6864
G1 Y1.1881
G1 X1.7083
G1 Y1.1782
G0 Z0.125
G0 X1.6115 Y1.1161
G0 Z0.0625
G1 F4.0 Z-0.02
G1 F8.0 Y1.0309
G3 Y1.0308 I0.0198 J0.0
G2 X1.6105 Y1.0148 I-0.1185 J-0.0007
G3 Y1.0147 I0.0196 J-0.0025
G2 X1.6072 Y1.0021 I-0.0472 J0.0057
G2 X1.5969 Y0.9911 I-0.0214 J0.0098
G3 X1.5968 Y0.991 I0.0093 J-0.0175
G2 X1.586 Y0.987 I-0.0196 J0.0363
G3 X1.5871 Y0.9877 I-0.025 J0.0403
G3 X1.5878 Y0.9882 I-0.0109 J0.0165
G3 X1.604 Y1.0109 I-0.0259 J0.0356
G3 X1.6044 Y1.0123 I-0.0189 J0.0058
G3 X1.6063 Y1.0262 I-0.0799 J0.0184
G3 X1.6069 Y1.0376 I-0.2829 J0.02
G3 X1.6072 Y1.0597 I-0.6934 J0.0207
G1 Y1.1161
G1 X1.6115
G1 F4.0 Y1.1249
G1 F8.0 X1.6203
G1 Y1.0309
G2 X1.6193 Y1.0137 I-0.1273 J-0.0008
G3 Y1.0136 I0.0109 J-0.0014
G2 X1.6153 Y0.9986 I-0.056 J0.0068
G2 X1.601 Y0.9833 I-0.0295 J0.0133
G1 X1.6009
G2 X1.5763 Y0.9772 I-0.0238 J0.044
G3 X1.5761 I-0.0002 J-0.011
G2 X1.5502 Y0.9836 I-0.0001 J0.0553
G3 X1.55 Y0.9837 I-0.0051 J-0.0097
G2 X1.5336 Y0.9967 I0.0238 J0.0471
G3 X1.5598 Y0.9887 I0.0259 J0.0379
G3 X1.5822 Y0.995 I0.0012 J0.0387
G3 X1.5826 Y0.9953 I-0.006 J0.0092
G3 X1.5956 Y1.0135 I-0.0207 J0.0285
G3 X1.5958 Y1.0143 I-0.0105 J0.0032
G3 X1.5976 Y1.0267 I-0.0714 J0.0164
G3 X1.5981 Y1.0378 I-0.2741 J0.0195
G3 X1.5984 Y1.0597 I-0.6846 J0.0204
G1 Y1.1249
G1 X1.6115
G0 Z0.125
G0 X1.5046 Y1.0135
G0 Z0.0625
G1 F4.0 Z-0.02
G3 F8.0 X1.5049 Y1.0127 I0.023 J0.0076
G3 X1.5046 Y1.0125 I0.0163 J-0.0179
G1 Y1.0135
G1 F4.0 X1.5088 Y1.0149
G3 F8.0 X1.5091 Y1.0141 I0.0188 J0.0062
G3 X1.5102 Y1.0113 I0.0484 J0.0183
G3 X1.5014 Y0.9948 I0.011 J-0.0165
G1 Y0.9898
G1 X1.5002
G1 Y1.1161
G1 X1.5045
G1 Y1.066
G3 X1.5058 Y1.0306 I0.3855 J-0.0036
G3 X1.5086 Y1.0155 I0.0741 J0.0059
G3 X1.5088 Y1.0149 I0.019 J0.0056
G1 F4.0 X1.5171 Y1.0177
G2 F8.0 X1.517 Y1.018 I0.0104 J0.0034
G2 X1.5146 Y1.0313 I0.0628 J0.0185
G2 X1.5133 Y1.066 I0.3754 J0.0311
G1 Y1.1249
G1 X1.4914
G1 Y0.981
G1 X1.5102
G1 Y0.9948
G2 X1.524 Y1.0055 I0.011 J0.0
G2 X1.5173 Y1.0172 I0.0335 J0.0269
G2 X1.5171 Y1.0177 I0.0103 J0.0039
G0 Z0.125
G0 X1.414 Y1.0919
G0 Z0.0625
G1 F4.0 Z-0.02
G3 F8.0 X1.4139 Y1.0922 I-0.0231 J-0.0071
G3 X1.4131 Y1.0946 I-0.052 J-0.0167
G3 X1.414 Y1.0954 I-0.0154 J0.0187
G1 Y1.0919
G1 F4.0 X1.4098 Y1.0906
G3 F8.0 X1.4097 Y1.0909 I-0.0189 J-0.0058
G3 X1.4077 Y1.0962 I-0.0479 J-0.0153
G3 X1.4175 Y1.1133 I-0.01 J0.0171
G1 Y1.1161
G1 X1.4184
G1 Y0.9898
G1 X1.4141
G1 Y1.0506
G3 X1.4135 Y1.0691 I-0.2511 J0.001
G3 X1.4099 Y1.0903 I-0.096 J-0.0054
G3 X1.4098 Y1.0906 I-0.019 J-0.0055
G1 F4.0 X1.4014 Y1.0881
G2 F8.0 Y1.0879 I-0.0105 J-0.0032
G2 X1.4047 Y1.0685 I-0.0839 J-0.0242
G2 X1.4053 Y1.0506 I-0.2417 J-0.017
G1 Y0.981
G1 X1.4272
G1 Y1.1249
G1 X1.4087
G1 Y1.1133
G2 X1.3922 Y1.1038 I-0.011 J0.0
G2 X1.4013 Y1.0882 I-0.0304 J-0.0282
G2 X1.4014 Y1.0881 I-0.0105 J-0.0034
G0 Z0.125
G0 X1.3163 Y1.0962
G0 Z0.0625
G1 F4.0 Z-0.02
G3 F8.0 X1.3147 Y1.0868 I0.0635 J-0.0153
G1 Y1.0867
G3 X1.3136 Y1.0907 I-0.0981 J-0.0245
G3 X1.3128 Y1.0933 I-0.0533 J-0.0157
G3 X1.3163 Y1.0962 I-0.0136 J0.02
G1 F4.0 X1.3205 Y1.0952
G3 F8.0 X1.3191 Y1.0864 I0.0592 J-0.0143
G3 X1.3184 Y1.0775 I0.1547 J-0.0159
G3 X1.3181 Y1.0609 I0.3501 J-0.0156
G1 Y0.9898
G1 X1.3138
G1 Y1.0496
G3 X1.3131 Y1.0683 I-0.2353 J0.001
G3 X1.3094 Y1.0895 I-0.0965 J-0.0061
G3 X1.3073 Y1.0952 I-0.049 J-0.0144
G3 X1.3166 Y1.1039 I-0.0082 J0.018
G2 X1.328 Y1.1158 I0.0271 J-0.0145
G2 X1.3363 Y1.1189 I0.0167 J-0.032
G3 X1.3359 Y1.1186 I0.0113 J-0.0163
G3 X1.3212 Y1.0977 I0.0234 J-0.032
G3 Y1.0976 I0.019 J-0.0056
G3 X1.3205 Y1.0952 I0.0585 J-0.0168
G0 Z0.125
G0 X1.2369 Y1.1187
G0 Z0.0625
G1 F4.0 Z-0.02
G3 F8.0 X1.226 Y1.1076 I0.0231 J-0.0334
G3 X1.2253 Y1.1063 I0.0166 J-0.0109
G3 X1.2204 Y1.0928 I0.0388 J-0.0216
G3 X1.219 Y1.0828 I0.0918 J-0.0183
G1 Y1.0827
G3 X1.2182 Y1.0648 I0.1951 J-0.0168
G1 Y0.9898
G1 X1.2139
G1 Y1.0761
G3 Y1.0762 I-0.0198 J0.0
G2 X1.2146 Y1.0916 I0.1546 J0.0008
G3 X1.2147 Y1.092 I-0.0197 J0.0019
G2 X1.2171 Y1.1032 I0.0418 J-0.0032
G2 X1.2276 Y1.1151 I0.0232 J-0.0099
G2 X1.2368 Y1.1187 I0.0159 J-0.0273
G2 X1.2369 I0.0112 J-0.0516
G1 F4.0 X1.2419 Y1.1115
G3 F8.0 X1.2334 Y1.1028 I0.0181 J-0.0262
G3 X1.233 Y1.1021 I0.0092 J-0.006
G3 X1.229 Y1.0911 I0.0311 J-0.0173
G3 X1.2277 Y1.082 I0.0832 J-0.0166
G3 X1.227 Y1.0648 I0.1863 J-0.0161
G1 Y0.981
G1 X1.2051
G1 Y1.0761
G1 Y1.0762
G2 X1.2059 Y1.0924 I0.1634 J0.0009
G3 Y1.0926 I-0.011 J0.001
G2 X1.2089 Y1.1064 I0.0505 J-0.0039
G2 X1.2231 Y1.1227 I0.0314 J-0.0131
G2 X1.2349 Y1.1273 I0.0204 J-0.0349
G2 X1.2484 Y1.1287 I0.0131 J-0.0602
G3 X1.2486 I0.0001 J0.011
G2 X1.2704 Y1.1234 I0.0002 J-0.0469
G2 X1.2905 Y1.1065 I-0.0316 J-0.058
G3 X1.3088 Y1.1081 I0.0086 J0.0068
G2 X1.3237 Y1.1235 I0.0348 J-0.0187
G2 X1.3458 Y1.1287 I0.021 J-0.0397
G3 X1.3461 I0.0003 J0.011
G2 X1.3697 Y1.1229 I0.0004 J-0.0495
G2 X1.3882 Y1.1075 I-0.0318 J-0.0573
G3 X1.3854 Y1.1097 I-0.0264 J-0.032
G3 X1.3853 I-0.0062 J-0.0091
G3 X1.3611 Y1.1171 I-0.024 J-0.0357
G3 X1.3418 Y1.112 I-0.0013 J-0.034
G3 X1.3411 Y1.1115 I0.0058 J-0.0093
G3 X1.3297 Y1.0953 I0.0182 J-0.0249
G1 Y1.0952
G3 X1.3279 Y1.0855 I0.0501 J-0.0143
G3 X1.3272 Y1.0771 I0.146 J-0.0151
G3 X1.3269 Y1.0609 I0.3413 J-0.0152
G1 Y0.981
G1 X1.305
G1 Y1.0497
G3 X1.3043 Y1.0677 I-0.2265 J0.001
G3 X1.3009 Y1.087 I-0.0877 J-0.0055
G3 X1.2851 Y1.1094 I-0.0406 J-0.0119
G3 X1.2617 Y1.1171 I-0.0239 J-0.0333
G3 X1.2419 Y1.1115 I-0.0017 J-0.0318
G0 Z0.125
G0 X2.6509 Y1.04
G0 Z0.0625
G1 F4.0 Z-0.02
G1 F8.0 X2.658 Y1.0576
G3 X2.6628 Y1.0458 I0.024 J0.003
G3 X2.6509 Y1.04 I0.0043 J-0.0238
G0 Z0.125
G0 X2.7635 Y1.0457
G0 Z0.0625
G1 F4.0 Z-0.02
G3 F8.0 X2.7678 Y1.0544 I-0.0191 J0.0149
G1 X2.7727 Y1.0417
G3 X2.7635 Y1.0457 I-0.0141 J-0.0197
G0 Z0.125
G0 X2.7237 Y1.1675
G0 Z0.0625
G1 F4.0 Z-0.02
G3 F8.0 X2.7016 Y1.1667 I-0.0102 J-0.0219
G1 X2.7049 Y1.1749
G1 X2.7209
G1 X2.7237 Y1.1675
G1 F4.0 X2.7278 Y1.1691
G1 F8.0 X2.7977 Y0.9898
G1 X2.7915
G1 X2.7773 Y1.0288
G3 X2.7587 Y1.0418 I-0.0186 J-0.0068
G1 X2.7506
G3 X2.763 Y1.0674 I-0.0062 J0.0188
G1 X2.7321 Y1.1524
G3 X2.695 Y1.1525 I-0.0186 J-0.0068
G1 X2.6634 Y1.0675
G3 X2.6758 Y1.0418 I0.0185 J-0.0069
G1 X2.6671
G3 X2.6486 Y1.0291 I0.0 J-0.0198
G1 X2.6335 Y0.9898
G1 X2.6261
G1 X2.7019 Y1.1793
G1 X2.7239
G1 X2.7278 Y1.1691
G1 F4.0 X2.736 Y1.1723
G1 F8.0 X2.8106 Y0.981
G1 X2.7853
G1 X2.769 Y1.0258
G3 X2.7587 Y1.033 I-0.0103 J-0.0038
G1 X2.6671
G3 X2.6568 Y1.026 I0.0 J-0.011
G1 X2.6396 Y0.981
G1 X2.6131
G1 X2.696 Y1.1881
G1 X2.7299
G1 X2.736 Y1.1723
G0 Z0.125
G0 X2.7206 Y1.154
G0 Z0.0625
G1 F4.0 Z-0.02
G3 F8.0 X2.7032 Y1.1495 I-0.0071 J-0.0084
G1 X2.6716 Y1.0645
G3 X2.682 Y1.0496 I0.0103 J-0.0038
G1 X2.7445
G3 X2.7548 Y1.0644 I0.0 J0.011
G1 X2.7239 Y1.1494
G3 X2.7206 Y1.154 I-0.0103 J-0.0038
G0 Z0.125
M5
M30
