( Made using CamBam - http://www.cambam.co.uk )
( 016-sulfur 1/20/2014 10:49:48 AM )
( T0 : 0.0313 )
G20 G90 G91.1 G64 G40
G0 Z0.125
( T0 : 0.0313 )
T0 M6
( Pocket1 )
G17
M3 S10000
G0 X0.7531 Y2.75
G0 Z0.0625
G1 F4.0 Z-0.0313
G2 F8.0 X0.7484 Y2.7473 I-0.0031 J0.0
G2 Y2.7527 I0.0016 J0.0027
G2 X0.7531 Y2.75 I0.0016 J-0.0027
G1 F4.0 X0.7594
G2 F8.0 X0.7453 Y2.7419 I-0.0094 J0.0
G2 Y2.7581 I0.0047 J0.0081
G2 X0.7594 Y2.75 I0.0047 J-0.0081
G1 F4.0 X0.7719
G2 F8.0 X0.7391 Y2.7311 I-0.0219 J0.0
G2 Y2.7689 I0.0109 J0.0189
G2 X0.7719 Y2.75 I0.0109 J-0.0189
G1 F4.0 X0.7844
G2 F8.0 X0.7328 Y2.7202 I-0.0344 J0.0
G2 Y2.7798 I0.0172 J0.0298
G2 X0.7844 Y2.75 I0.0172 J-0.0298
G1 F4.0 X0.7969
G2 F8.0 X0.7266 Y2.7094 I-0.0469 J0.0
G2 Y2.7906 I0.0234 J0.0406
G2 X0.7969 Y2.75 I0.0234 J-0.0406
G0 Z0.125
G0 X0.7531
G0 Z0.0312
G1 F4.0 Z-0.0625
G2 F8.0 X0.7484 Y2.7473 I-0.0031 J0.0
G2 Y2.7527 I0.0016 J0.0027
G2 X0.7531 Y2.75 I0.0016 J-0.0027
G1 F4.0 X0.7594
G2 F8.0 X0.7453 Y2.7419 I-0.0094 J0.0
G2 Y2.7581 I0.0047 J0.0081
G2 X0.7594 Y2.75 I0.0047 J-0.0081
G1 F4.0 X0.7719
G2 F8.0 X0.7391 Y2.7311 I-0.0219 J0.0
G2 Y2.7689 I0.0109 J0.0189
G2 X0.7719 Y2.75 I0.0109 J-0.0189
G1 F4.0 X0.7844
G2 F8.0 X0.7328 Y2.7202 I-0.0344 J0.0
G2 Y2.7798 I0.0172 J0.0298
G2 X0.7844 Y2.75 I0.0172 J-0.0298
G1 F4.0 X0.7969
G2 F8.0 X0.7266 Y2.7094 I-0.0469 J0.0
G2 Y2.7906 I0.0234 J0.0406
G2 X0.7969 Y2.75 I0.0234 J-0.0406
G0 Z0.125
G0 X0.7531
G0 Z0.0
G1 F4.0 Z-0.0938
G2 F8.0 X0.7484 Y2.7473 I-0.0031 J0.0
G2 Y2.7527 I0.0016 J0.0027
G2 X0.7531 Y2.75 I0.0016 J-0.0027
G1 F4.0 X0.7594
G2 F8.0 X0.7453 Y2.7419 I-0.0094 J0.0
G2 Y2.7581 I0.0047 J0.0081
G2 X0.7594 Y2.75 I0.0047 J-0.0081
G1 F4.0 X0.7719
G2 F8.0 X0.7391 Y2.7311 I-0.0219 J0.0
G2 Y2.7689 I0.0109 J0.0189
G2 X0.7719 Y2.75 I0.0109 J-0.0189
G1 F4.0 X0.7844
G2 F8.0 X0.7328 Y2.7202 I-0.0344 J0.0
G2 Y2.7798 I0.0172 J0.0298
G2 X0.7844 Y2.75 I0.0172 J-0.0298
G1 F4.0 X0.7969
G2 F8.0 X0.7266 Y2.7094 I-0.0469 J0.0
G2 Y2.7906 I0.0234 J0.0406
G2 X0.7969 Y2.75 I0.0234 J-0.0406
G0 Z0.125
G0 X0.7531
G0 Z-0.0313
G1 F4.0 Z-0.125
G2 F8.0 X0.7484 Y2.7473 I-0.0031 J0.0
G2 Y2.7527 I0.0016 J0.0027
G2 X0.7531 Y2.75 I0.0016 J-0.0027
G1 F4.0 X0.7594
G2 F8.0 X0.7453 Y2.7419 I-0.0094 J0.0
G2 Y2.7581 I0.0047 J0.0081
G2 X0.7594 Y2.75 I0.0047 J-0.0081
G1 F4.0 X0.7719
G2 F8.0 X0.7391 Y2.7311 I-0.0219 J0.0
G2 Y2.7689 I0.0109 J0.0189
G2 X0.7719 Y2.75 I0.0109 J-0.0189
G1 F4.0 X0.7844
G2 F8.0 X0.7328 Y2.7202 I-0.0344 J0.0
G2 Y2.7798 I0.0172 J0.0298
G2 X0.7844 Y2.75 I0.0172 J-0.0298
G1 F4.0 X0.7969
G2 F8.0 X0.7266 Y2.7094 I-0.0469 J0.0
G2 Y2.7906 I0.0234 J0.0406
G2 X0.7969 Y2.75 I0.0234 J-0.0406
G0 Z0.125
G0 X3.2469
G0 Z0.0625
G1 F4.0 Z-0.0313
G2 F8.0 X3.2484 Y2.7527 I0.0031 J0.0
G2 X3.2531 Y2.75 I0.0016 J-0.0027
G2 X3.2484 Y2.7473 I-0.0031 J0.0
G2 X3.2469 Y2.75 I0.0016 J0.0027
G1 F4.0 X3.2406
G2 F8.0 X3.2453 Y2.7581 I0.0094 J0.0
G2 X3.2594 Y2.75 I0.0047 J-0.0081
G2 X3.2453 Y2.7419 I-0.0094 J0.0
G2 X3.2406 Y2.75 I0.0047 J0.0081
G1 F4.0 X3.2281
G2 F8.0 X3.2391 Y2.7689 I0.0219 J0.0
G2 X3.2719 Y2.75 I0.0109 J-0.0189
G2 X3.2391 Y2.7311 I-0.0219 J0.0
G2 X3.2281 Y2.75 I0.0109 J0.0189
G1 F4.0 X3.2156
G2 F8.0 X3.2328 Y2.7798 I0.0344 J0.0
G2 X3.2844 Y2.75 I0.0172 J-0.0298
G2 X3.2328 Y2.7202 I-0.0344 J0.0
G2 X3.2156 Y2.75 I0.0172 J0.0298
G1 F4.0 X3.2031
G2 F8.0 X3.2266 Y2.7906 I0.0469 J0.0
G2 X3.2969 Y2.75 I0.0234 J-0.0406
G2 X3.2266 Y2.7094 I-0.0469 J0.0
G2 X3.2031 Y2.75 I0.0234 J0.0406
G0 Z0.125
G0 X3.2469
G0 Z0.0312
G1 F4.0 Z-0.0625
G2 F8.0 X3.2484 Y2.7527 I0.0031 J0.0
G2 X3.2531 Y2.75 I0.0016 J-0.0027
G2 X3.2484 Y2.7473 I-0.0031 J0.0
G2 X3.2469 Y2.75 I0.0016 J0.0027
G1 F4.0 X3.2406
G2 F8.0 X3.2453 Y2.7581 I0.0094 J0.0
G2 X3.2594 Y2.75 I0.0047 J-0.0081
G2 X3.2453 Y2.7419 I-0.0094 J0.0
G2 X3.2406 Y2.75 I0.0047 J0.0081
G1 F4.0 X3.2281
G2 F8.0 X3.2391 Y2.7689 I0.0219 J0.0
G2 X3.2719 Y2.75 I0.0109 J-0.0189
G2 X3.2391 Y2.7311 I-0.0219 J0.0
G2 X3.2281 Y2.75 I0.0109 J0.0189
G1 F4.0 X3.2156
G2 F8.0 X3.2328 Y2.7798 I0.0344 J0.0
G2 X3.2844 Y2.75 I0.0172 J-0.0298
G2 X3.2328 Y2.7202 I-0.0344 J0.0
G2 X3.2156 Y2.75 I0.0172 J0.0298
G1 F4.0 X3.2031
G2 F8.0 X3.2266 Y2.7906 I0.0469 J0.0
G2 X3.2969 Y2.75 I0.0234 J-0.0406
G2 X3.2266 Y2.7094 I-0.0469 J0.0
G2 X3.2031 Y2.75 I0.0234 J0.0406
G0 Z0.125
G0 X3.2469
G0 Z0.0
G1 F4.0 Z-0.0938
G2 F8.0 X3.2484 Y2.7527 I0.0031 J0.0
G2 X3.2531 Y2.75 I0.0016 J-0.0027
G2 X3.2484 Y2.7473 I-0.0031 J0.0
G2 X3.2469 Y2.75 I0.0016 J0.0027
G1 F4.0 X3.2406
G2 F8.0 X3.2453 Y2.7581 I0.0094 J0.0
G2 X3.2594 Y2.75 I0.0047 J-0.0081
G2 X3.2453 Y2.7419 I-0.0094 J0.0
G2 X3.2406 Y2.75 I0.0047 J0.0081
G1 F4.0 X3.2281
G2 F8.0 X3.2391 Y2.7689 I0.0219 J0.0
G2 X3.2719 Y2.75 I0.0109 J-0.0189
G2 X3.2391 Y2.7311 I-0.0219 J0.0
G2 X3.2281 Y2.75 I0.0109 J0.0189
G1 F4.0 X3.2156
G2 F8.0 X3.2328 Y2.7798 I0.0344 J0.0
G2 X3.2844 Y2.75 I0.0172 J-0.0298
G2 X3.2328 Y2.7202 I-0.0344 J0.0
G2 X3.2156 Y2.75 I0.0172 J0.0298
G1 F4.0 X3.2031
G2 F8.0 X3.2266 Y2.7906 I0.0469 J0.0
G2 X3.2969 Y2.75 I0.0234 J-0.0406
G2 X3.2266 Y2.7094 I-0.0469 J0.0
G2 X3.2031 Y2.75 I0.0234 J0.0406
G0 Z0.125
G0 X3.2469
G0 Z-0.0313
G1 F4.0 Z-0.125
G2 F8.0 X3.2484 Y2.7527 I0.0031 J0.0
G2 X3.2531 Y2.75 I0.0016 J-0.0027
G2 X3.2484 Y2.7473 I-0.0031 J0.0
G2 X3.2469 Y2.75 I0.0016 J0.0027
G1 F4.0 X3.2406
G2 F8.0 X3.2453 Y2.7581 I0.0094 J0.0
G2 X3.2594 Y2.75 I0.0047 J-0.0081
G2 X3.2453 Y2.7419 I-0.0094 J0.0
G2 X3.2406 Y2.75 I0.0047 J0.0081
G1 F4.0 X3.2281
G2 F8.0 X3.2391 Y2.7689 I0.0219 J0.0
G2 X3.2719 Y2.75 I0.0109 J-0.0189
G2 X3.2391 Y2.7311 I-0.0219 J0.0
G2 X3.2281 Y2.75 I0.0109 J0.0189
G1 F4.0 X3.2156
G2 F8.0 X3.2328 Y2.7798 I0.0344 J0.0
G2 X3.2844 Y2.75 I0.0172 J-0.0298
G2 X3.2328 Y2.7202 I-0.0344 J0.0
G2 X3.2156 Y2.75 I0.0172 J0.0298
G1 F4.0 X3.2031
G2 F8.0 X3.2266 Y2.7906 I0.0469 J0.0
G2 X3.2969 Y2.75 I0.0234 J-0.0406
G2 X3.2266 Y2.7094 I-0.0469 J0.0
G2 X3.2031 Y2.75 I0.0234 J0.0406
G0 Z0.125
G0 X3.2499 Y0.2531
G0 Z0.0625
G1 F4.0 Z-0.0313
G2 F8.0 X3.2531 Y0.25 I0.0001 J-0.0031
G2 X3.2484 Y0.2473 I-0.0031 J0.0
G2 Y0.2527 I0.0016 J0.0027
G2 X3.2499 Y0.2531 I0.0016 J-0.0027
G1 F4.0 X3.2498 Y0.2594
G2 F8.0 X3.2594 Y0.25 I0.0002 J-0.0094
G2 X3.2453 Y0.2419 I-0.0094 J0.0
G2 Y0.2581 I0.0047 J0.0081
G2 X3.2498 Y0.2594 I0.0047 J-0.0081
G1 F4.0 X3.2496 Y0.2719
G2 F8.0 X3.2719 Y0.25 I0.0004 J-0.0219
G2 X3.2391 Y0.2311 I-0.0219 J0.0
G2 Y0.2689 I0.0109 J0.0189
G2 X3.2496 Y0.2719 I0.0109 J-0.0189
G1 F4.0 X3.2494 Y0.2844
G2 F8.0 X3.2844 Y0.25 I0.0006 J-0.0344
G2 X3.2328 Y0.2202 I-0.0344 J0.0
G2 Y0.2798 I0.0172 J0.0298
G2 X3.2494 Y0.2844 I0.0172 J-0.0298
G1 F4.0 X3.2491 Y0.2969
G2 F8.0 X3.2969 Y0.25 I0.0009 J-0.0469
G2 X3.2266 Y0.2094 I-0.0469 J0.0
G2 Y0.2906 I0.0234 J0.0406
G2 X3.2491 Y0.2969 I0.0234 J-0.0406
G0 Z0.125
G0 X3.2499 Y0.2531
G0 Z0.0312
G1 F4.0 Z-0.0625
G2 F8.0 X3.2531 Y0.25 I0.0001 J-0.0031
G2 X3.2484 Y0.2473 I-0.0031 J0.0
G2 Y0.2527 I0.0016 J0.0027
G2 X3.2499 Y0.2531 I0.0016 J-0.0027
G1 F4.0 X3.2498 Y0.2594
G2 F8.0 X3.2594 Y0.25 I0.0002 J-0.0094
G2 X3.2453 Y0.2419 I-0.0094 J0.0
G2 Y0.2581 I0.0047 J0.0081
G2 X3.2498 Y0.2594 I0.0047 J-0.0081
G1 F4.0 X3.2496 Y0.2719
G2 F8.0 X3.2719 Y0.25 I0.0004 J-0.0219
G2 X3.2391 Y0.2311 I-0.0219 J0.0
G2 Y0.2689 I0.0109 J0.0189
G2 X3.2496 Y0.2719 I0.0109 J-0.0189
G1 F4.0 X3.2494 Y0.2844
G2 F8.0 X3.2844 Y0.25 I0.0006 J-0.0344
G2 X3.2328 Y0.2202 I-0.0344 J0.0
G2 Y0.2798 I0.0172 J0.0298
G2 X3.2494 Y0.2844 I0.0172 J-0.0298
G1 F4.0 X3.2491 Y0.2969
G2 F8.0 X3.2969 Y0.25 I0.0009 J-0.0469
G2 X3.2266 Y0.2094 I-0.0469 J0.0
G2 Y0.2906 I0.0234 J0.0406
G2 X3.2491 Y0.2969 I0.0234 J-0.0406
G0 Z0.125
G0 X3.2499 Y0.2531
G0 Z0.0
G1 F4.0 Z-0.0938
G2 F8.0 X3.2531 Y0.25 I0.0001 J-0.0031
G2 X3.2484 Y0.2473 I-0.0031 J0.0
G2 Y0.2527 I0.0016 J0.0027
G2 X3.2499 Y0.2531 I0.0016 J-0.0027
G1 F4.0 X3.2498 Y0.2594
G2 F8.0 X3.2594 Y0.25 I0.0002 J-0.0094
G2 X3.2453 Y0.2419 I-0.0094 J0.0
G2 Y0.2581 I0.0047 J0.0081
G2 X3.2498 Y0.2594 I0.0047 J-0.0081
G1 F4.0 X3.2496 Y0.2719
G2 F8.0 X3.2719 Y0.25 I0.0004 J-0.0219
G2 X3.2391 Y0.2311 I-0.0219 J0.0
G2 Y0.2689 I0.0109 J0.0189
G2 X3.2496 Y0.2719 I0.0109 J-0.0189
G1 F4.0 X3.2494 Y0.2844
G2 F8.0 X3.2844 Y0.25 I0.0006 J-0.0344
G2 X3.2328 Y0.2202 I-0.0344 J0.0
G2 Y0.2798 I0.0172 J0.0298
G2 X3.2494 Y0.2844 I0.0172 J-0.0298
G1 F4.0 X3.2491 Y0.2969
G2 F8.0 X3.2969 Y0.25 I0.0009 J-0.0469
G2 X3.2266 Y0.2094 I-0.0469 J0.0
G2 Y0.2906 I0.0234 J0.0406
G2 X3.2491 Y0.2969 I0.0234 J-0.0406
G0 Z0.125
G0 X3.2499 Y0.2531
G0 Z-0.0313
G1 F4.0 Z-0.125
G2 F8.0 X3.2531 Y0.25 I0.0001 J-0.0031
G2 X3.2484 Y0.2473 I-0.0031 J0.0
G2 Y0.2527 I0.0016 J0.0027
G2 X3.2499 Y0.2531 I0.0016 J-0.0027
G1 F4.0 X3.2498 Y0.2594
G2 F8.0 X3.2594 Y0.25 I0.0002 J-0.0094
G2 X3.2453 Y0.2419 I-0.0094 J0.0
G2 Y0.2581 I0.0047 J0.0081
G2 X3.2498 Y0.2594 I0.0047 J-0.0081
G1 F4.0 X3.2496 Y0.2719
G2 F8.0 X3.2719 Y0.25 I0.0004 J-0.0219
G2 X3.2391 Y0.2311 I-0.0219 J0.0
G2 Y0.2689 I0.0109 J0.0189
G2 X3.2496 Y0.2719 I0.0109 J-0.0189
G1 F4.0 X3.2494 Y0.2844
G2 F8.0 X3.2844 Y0.25 I0.0006 J-0.0344
G2 X3.2328 Y0.2202 I-0.0344 J0.0
G2 Y0.2798 I0.0172 J0.0298
G2 X3.2494 Y0.2844 I0.0172 J-0.0298
G1 F4.0 X3.2491 Y0.2969
G2 F8.0 X3.2969 Y0.25 I0.0009 J-0.0469
G2 X3.2266 Y0.2094 I-0.0469 J0.0
G2 Y0.2906 I0.0234 J0.0406
G2 X3.2491 Y0.2969 I0.0234 J-0.0406
G0 Z0.125
G0 X0.7531 Y0.2501
G0 Z0.0625
G1 F4.0 Z-0.0313
G1 F8.0 Y0.25
G2 X0.7484 Y0.2473 I-0.0031 J0.0
G2 Y0.2527 I0.0016 J0.0027
G2 X0.7531 Y0.2501 I0.0016 J-0.0027
G1 F4.0 X0.7594 Y0.2502
G2 F8.0 Y0.25 I-0.0094 J-0.0002
G2 X0.7453 Y0.2419 I-0.0094 J0.0
G2 Y0.2581 I0.0047 J0.0081
G2 X0.7594 Y0.2502 I0.0047 J-0.0081
G1 F4.0 X0.7719 Y0.2504
G2 F8.0 Y0.25 I-0.0219 J-0.0004
G2 X0.7391 Y0.2311 I-0.0219 J0.0
G2 Y0.2689 I0.0109 J0.0189
G2 X0.7719 Y0.2504 I0.0109 J-0.0189
G1 F4.0 X0.7844 Y0.2506
G2 F8.0 Y0.25 I-0.0344 J-0.0006
G2 X0.7328 Y0.2202 I-0.0344 J0.0
G2 Y0.2798 I0.0172 J0.0298
G2 X0.7844 Y0.2506 I0.0172 J-0.0298
G1 F4.0 X0.7969 Y0.2509
G2 F8.0 Y0.25 I-0.0469 J-0.0009
G2 X0.7266 Y0.2094 I-0.0469 J0.0
G2 Y0.2906 I0.0234 J0.0406
G2 X0.7969 Y0.2509 I0.0234 J-0.0406
G0 Z0.125
G0 X0.7531 Y0.2501
G0 Z0.0312
G1 F4.0 Z-0.0625
G1 F8.0 Y0.25
G2 X0.7484 Y0.2473 I-0.0031 J0.0
G2 Y0.2527 I0.0016 J0.0027
G2 X0.7531 Y0.2501 I0.0016 J-0.0027
G1 F4.0 X0.7594 Y0.2502
G2 F8.0 Y0.25 I-0.0094 J-0.0002
G2 X0.7453 Y0.2419 I-0.0094 J0.0
G2 Y0.2581 I0.0047 J0.0081
G2 X0.7594 Y0.2502 I0.0047 J-0.0081
G1 F4.0 X0.7719 Y0.2504
G2 F8.0 Y0.25 I-0.0219 J-0.0004
G2 X0.7391 Y0.2311 I-0.0219 J0.0
G2 Y0.2689 I0.0109 J0.0189
G2 X0.7719 Y0.2504 I0.0109 J-0.0189
G1 F4.0 X0.7844 Y0.2506
G2 F8.0 Y0.25 I-0.0344 J-0.0006
G2 X0.7328 Y0.2202 I-0.0344 J0.0
G2 Y0.2798 I0.0172 J0.0298
G2 X0.7844 Y0.2506 I0.0172 J-0.0298
G1 F4.0 X0.7969 Y0.2509
G2 F8.0 Y0.25 I-0.0469 J-0.0009
G2 X0.7266 Y0.2094 I-0.0469 J0.0
G2 Y0.2906 I0.0234 J0.0406
G2 X0.7969 Y0.2509 I0.0234 J-0.0406
G0 Z0.125
G0 X0.7531 Y0.2501
G0 Z0.0
G1 F4.0 Z-0.0938
G1 F8.0 Y0.25
G2 X0.7484 Y0.2473 I-0.0031 J0.0
G2 Y0.2527 I0.0016 J0.0027
G2 X0.7531 Y0.2501 I0.0016 J-0.0027
G1 F4.0 X0.7594 Y0.2502
G2 F8.0 Y0.25 I-0.0094 J-0.0002
G2 X0.7453 Y0.2419 I-0.0094 J0.0
G2 Y0.2581 I0.0047 J0.0081
G2 X0.7594 Y0.2502 I0.0047 J-0.0081
G1 F4.0 X0.7719 Y0.2504
G2 F8.0 Y0.25 I-0.0219 J-0.0004
G2 X0.7391 Y0.2311 I-0.0219 J0.0
G2 Y0.2689 I0.0109 J0.0189
G2 X0.7719 Y0.2504 I0.0109 J-0.0189
G1 F4.0 X0.7844 Y0.2506
G2 F8.0 Y0.25 I-0.0344 J-0.0006
G2 X0.7328 Y0.2202 I-0.0344 J0.0
G2 Y0.2798 I0.0172 J0.0298
G2 X0.7844 Y0.2506 I0.0172 J-0.0298
G1 F4.0 X0.7969 Y0.2509
G2 F8.0 Y0.25 I-0.0469 J-0.0009
G2 X0.7266 Y0.2094 I-0.0469 J0.0
G2 Y0.2906 I0.0234 J0.0406
G2 X0.7969 Y0.2509 I0.0234 J-0.0406
G0 Z0.125
G0 X0.7531 Y0.2501
G0 Z-0.0313
G1 F4.0 Z-0.125
G1 F8.0 Y0.25
G2 X0.7484 Y0.2473 I-0.0031 J0.0
G2 Y0.2527 I0.0016 J0.0027
G2 X0.7531 Y0.2501 I0.0016 J-0.0027
G1 F4.0 X0.7594 Y0.2502
G2 F8.0 Y0.25 I-0.0094 J-0.0002
G2 X0.7453 Y0.2419 I-0.0094 J0.0
G2 Y0.2581 I0.0047 J0.0081
G2 X0.7594 Y0.2502 I0.0047 J-0.0081
G1 F4.0 X0.7719 Y0.2504
G2 F8.0 Y0.25 I-0.0219 J-0.0004
G2 X0.7391 Y0.2311 I-0.0219 J0.0
G2 Y0.2689 I0.0109 J0.0189
G2 X0.7719 Y0.2504 I0.0109 J-0.0189
G1 F4.0 X0.7844 Y0.2506
G2 F8.0 Y0.25 I-0.0344 J-0.0006
G2 X0.7328 Y0.2202 I-0.0344 J0.0
G2 Y0.2798 I0.0172 J0.0298
G2 X0.7844 Y0.2506 I0.0172 J-0.0298
G1 F4.0 X0.7969 Y0.2509
G2 F8.0 Y0.25 I-0.0469 J-0.0009
G2 X0.7266 Y0.2094 I-0.0469 J0.0
G2 Y0.2906 I0.0234 J0.0406
G2 X0.7969 Y0.2509 I0.0234 J-0.0406
( Pocket3 )
S10000
G0 Z0.125
G0 X1.8624 Y1.8341
G0 Z0.0625
G1 F4.0 Z-0.02
G3 F8.0 X1.8584 Y1.828 I0.1713 J-0.1187
G3 X1.8507 Y1.8154 I0.2518 J-0.1627
G1 X1.851 Y1.8441
G3 X1.8624 Y1.8341 I0.032 J0.025
G1 F4.0 X1.8727 Y1.8269
G3 F8.0 X1.8689 Y1.8213 I0.161 J-0.1116
G3 X1.8479 Y1.7827 I0.2413 J-0.1559
G3 Y1.7825 I0.0257 J-0.0115
G3 X1.8376 Y1.7571 I0.4406 J-0.1938
G1 X1.8389 Y1.8856
G1 X1.8593 Y1.8539
G3 X1.8833 Y1.8409 I0.0237 J0.0152
G3 X1.8727 Y1.8269 I0.1504 J-0.1256
G0 Z0.125
G0 X1.9322 Y1.618
G0 Z0.0625
G1 F4.0 Z-0.02
G2 F8.0 X1.9356 Y1.619 I0.0832 J-0.292
G3 X1.9363 Y1.6191 I-0.0123 J0.0452
G2 X2.0021 Y1.6357 I0.2766 J-0.9607
G3 X2.0494 Y1.6469 I-0.1897 J0.9093
G3 X2.1015 Y1.6652 I-0.0694 J0.2809
G3 X2.1028 Y1.6658 I-0.0197 J0.0425
G3 X2.1314 Y1.6852 I-0.0585 J0.1171
G2 X2.1141 Y1.666 I-0.0693 J0.0451
G2 X2.0931 Y1.6532 I-0.0673 J0.0868
G3 X2.0927 Y1.653 I0.0198 J-0.0425
G2 X2.0646 Y1.6415 I-0.121 J0.2545
G2 X2.0014 Y1.6233 I-0.2034 J0.5898
G3 X1.9432 Y1.6089 I0.3461 J-1.5185
G3 X1.8811 Y1.588 I0.1062 J-0.4182
G3 X1.8795 Y1.5873 I0.0183 J-0.0432
G3 X1.8492 Y1.5691 I0.0731 J-0.1559
G3 X1.8377 Y1.5593 I0.0733 J-0.098
G2 X1.8783 Y1.5969 I0.0893 J-0.0556
G2 X1.9322 Y1.618 I0.1371 J-0.2709
G1 F4.0 X1.9305 Y1.624
G2 F8.0 X1.934 Y1.625 I0.0849 J-0.298
G3 X1.9345 Y1.6252 I-0.0107 J0.0392
G2 X2.0008 Y1.6418 I0.2784 J-0.9667
G3 X2.0478 Y1.6529 I-0.1884 J0.9031
G3 X2.0989 Y1.6709 I-0.0679 J0.2748
G3 X2.1 Y1.6714 I-0.0171 J0.0369
G3 X2.1498 Y1.7166 I-0.0557 J0.1115
G3 X2.1505 Y1.7176 I-0.0344 J0.0216
G2 X2.1443 Y1.6965 I-0.1262 J0.0252
G2 X2.1179 Y1.6611 I-0.0823 J0.0338
G2 X2.0957 Y1.6475 I-0.0712 J0.0917
G3 X2.0954 Y1.6474 I0.0171 J-0.0368
G2 X2.0667 Y1.6356 I-0.1237 J0.2602
G2 X2.0028 Y1.6173 I-0.2054 J0.5957
G3 X1.9447 Y1.6028 I0.3448 J-1.5124
G3 X1.8836 Y1.5823 I0.1046 J-0.4122
G3 X1.8822 Y1.5816 I0.0158 J-0.0374
G3 X1.853 Y1.5641 I0.0705 J-0.1503
G3 X1.8257 Y1.5353 I0.0695 J-0.093
G3 X1.8256 Y1.5351 I0.0338 J-0.0225
G3 X1.8189 Y1.5234 I0.0979 J-0.0642
G2 X1.8321 Y1.5621 I0.1097 J-0.0158
G2 X1.8754 Y1.6025 I0.0949 J-0.0584
G2 X1.9305 Y1.624 I0.14 J-0.2765
G1 F4.0 X1.9271 Y1.636
G2 F8.0 X1.9307 Y1.6371 I0.0883 J-0.3101
G3 X1.9311 Y1.6372 I-0.0074 J0.0271
G2 X1.9982 Y1.654 I0.2818 J-0.9787
G3 X2.0448 Y1.665 I-0.1858 J0.8909
G3 X2.0937 Y1.6822 I-0.0648 J0.2627
G3 X2.0944 Y1.6826 I-0.0118 J0.0255
G3 X2.1392 Y1.7232 I-0.0501 J0.1003
G3 X2.1399 Y1.7243 I-0.0238 J0.015
G3 X2.1545 Y1.7821 I-0.0978 J0.0554
G3 X2.1485 Y1.8206 I-0.118 J0.0015
G2 X2.1555 Y1.8051 I-0.1209 J-0.0634
G2 X2.1654 Y1.746 I-0.1588 J-0.0571
G3 Y1.7452 I0.0281 J-0.0003
G2 X2.1559 Y1.6919 I-0.1412 J-0.0023
G2 X2.1257 Y1.6513 I-0.0939 J0.0384
G2 X2.101 Y1.6362 I-0.0789 J0.1015
G3 X2.1008 Y1.6361 I0.0119 J-0.0255
G2 X2.0708 Y1.6238 I-0.129 J0.2714
G2 X2.0056 Y1.6051 I-0.2095 J0.6075
G3 X1.9479 Y1.5907 I0.342 J-1.5002
G3 X1.8885 Y1.5707 I0.1014 J-0.4001
G3 X1.8875 Y1.5703 I0.011 J-0.0259
G3 X1.8604 Y1.5541 I0.0652 J-0.139
G3 X1.8361 Y1.5284 I0.062 J-0.083
G3 Y1.5282 I0.0234 J-0.0156
G3 X1.8189 Y1.4694 I0.0874 J-0.0573
G3 X1.829 Y1.4186 I0.1278 J-0.001
G2 X1.8164 Y1.4427 I0.1232 J0.0796
G2 X1.8053 Y1.5039 I0.1519 J0.0593
G3 Y1.5048 I-0.0281 J0.0003
G2 X1.8213 Y1.5684 I0.1233 J0.0027
G2 X1.8697 Y1.6136 I0.1057 J-0.0648
G2 X1.9271 Y1.636 I0.1457 J-0.2876
G0 Z0.125
G0 X2.1545 Y1.4179
G0 Z0.0625
G1 F4.0 Z-0.02
G1 F8.0 Y1.4096
G3 X2.1509 Y1.4128 I-0.0328 J-0.0335
G3 X2.1545 Y1.4179 I-0.2075 J0.1517
G1 F4.0 X2.1494 Y1.4214
G3 F8.0 X2.1607 Y1.4394 I-0.206 J0.1431
G1 Y1.3919
G1 X2.154 Y1.4007
G3 X2.1419 Y1.4113 I-0.0323 J-0.0246
G3 X2.1494 Y1.4214 I-0.1986 J0.1532
G1 F4.0 X2.1391 Y1.4286
G3 F8.0 X2.1615 Y1.4687 I-0.1958 J0.1359
G3 X2.1732 Y1.4989 I-0.3269 J0.1437
G1 Y1.3549
G1 X2.144 Y1.3932
G3 X2.1197 Y1.4041 I-0.0224 J-0.0171
G3 X2.1391 Y1.4286 I-0.1763 J0.1603
G1 F4.0 X2.1288 Y1.4357
G3 F8.0 X2.1501 Y1.4737 I-0.1855 J0.1288
G3 X2.1722 Y1.5429 I-0.3154 J0.1387
G1 X2.1857
G1 Y1.339
G1 X2.1696
G1 X2.1341 Y1.3856
G3 X2.111 Y1.3875 I-0.0124 J-0.0095
G2 X2.0462 Y1.3476 I-0.1286 J0.1362
G2 X1.9703 Y1.3351 I-0.0736 J0.2099
G3 X1.9699 I-0.0002 J-0.0156
G2 X1.9007 Y1.3464 I-0.0024 J0.203
G2 X1.8424 Y1.383 I0.055 J0.1525
G3 X1.8422 Y1.3831 I-0.0109 J-0.0112
G2 X1.8048 Y1.4381 I0.11 J0.1151
G2 X1.7928 Y1.504 I0.1636 J0.064
G3 Y1.5046 I-0.0156 J0.0002
G2 X1.8105 Y1.5748 I0.1358 J0.003
G2 X1.864 Y1.6247 I0.1164 J-0.0711
G2 X1.9274 Y1.6491 I0.1514 J-0.2987
G3 X1.9276 Y1.6492 I-0.0041 J0.0151
G2 X1.9956 Y1.6663 I0.2853 J-0.9907
G3 X2.0417 Y1.6772 I-0.1832 J0.8787
G3 X2.0884 Y1.6936 I-0.0617 J0.2506
G3 X2.0888 Y1.6938 I-0.0066 J0.0142
G3 X2.1287 Y1.7299 I-0.0445 J0.0891
G3 X2.129 Y1.7305 I-0.0132 J0.0083
G3 X2.142 Y1.782 I-0.0869 J0.0493
G3 X2.1073 Y1.8618 I-0.1055 J0.0015
G3 X2.0661 Y1.8868 I-0.0782 J-0.0825
G3 X2.0659 I-0.0051 J-0.0148
G3 X2.0197 Y1.8941 I-0.0447 J-0.1339
G3 X1.9586 Y1.882 I-0.0008 J-0.157
G3 X1.9585 I0.006 J-0.0144
G3 X1.907 Y1.8479 I0.068 J-0.1588
G3 X1.8794 Y1.8145 I0.1267 J-0.1326
G3 X1.8594 Y1.7776 I0.2308 J-0.1491
G1 X1.8593 Y1.7775
G3 X1.8361 Y1.712 I0.4292 J-0.1888
G1 X1.8246
G1 X1.8266 Y1.9027
G1 X1.8428
G1 X1.8699 Y1.8606
G3 X1.894 Y1.858 I0.0131 J0.0084
G2 X1.9513 Y1.896 I0.123 J-0.1234
G2 X2.0161 Y1.9081 I0.0641 J-0.1628
G3 X2.0164 I0.0001 J0.0156
G2 X2.0798 Y1.8973 I0.0021 J-0.1784
G2 X2.1328 Y1.8628 I-0.053 J-0.1394
G1 X2.1329 Y1.8627
G2 X2.1672 Y1.8094 I-0.1053 J-0.1055
G2 X2.1779 Y1.7458 I-0.1706 J-0.0614
G3 Y1.7454 I0.0156 J-0.0002
G2 X2.1676 Y1.6873 I-0.1537 J-0.0025
G2 X2.1335 Y1.6415 I-0.1055 J0.043
G2 X2.1063 Y1.6248 I-0.0867 J0.1113
G3 X2.1062 I0.0066 J-0.0142
G2 X2.0749 Y1.6119 I-0.1344 J0.2827
G2 X2.0084 Y1.5929 I-0.2136 J0.6193
G3 X1.9511 Y1.5786 I0.3392 J-1.488
G3 X1.8933 Y1.5592 I0.0983 J-0.388
G3 X1.8928 Y1.559 I0.0061 J-0.0144
G3 X1.8679 Y1.5441 I0.0599 J-0.1277
G3 X1.8466 Y1.5215 I0.0545 J-0.073
G1 X1.8465 Y1.5214
G3 X1.8314 Y1.4694 I0.077 J-0.0505
G3 X1.8702 Y1.3821 I0.1153 J-0.0011
G3 X1.9163 Y1.355 I0.086 J0.0938
G3 X1.9165 I0.0049 J0.0148
G3 X1.9678 Y1.3472 I0.0496 J0.1542
G3 X2.0393 Y1.3616 I0.0007 J0.1813
G3 X2.0395 I-0.0061 J0.0144
G3 X2.0996 Y1.4015 I-0.0834 J0.1914
G3 X2.0997 I-0.0107 J0.0113
G3 X2.1288 Y1.4357 I-0.1564 J0.1629
G0 Z0.125
G0 X1.3655 Y2.0267
G0 Z0.0625
G1 F4.0 Z-0.02
G3 F8.0 X1.3702 Y2.0339 I-0.0409 J0.0317
G3 X1.377 Y2.0527 I-0.061 J0.0328
G3 X1.3793 Y2.0758 I-0.1083 J0.0224
G3 X1.373 Y2.1104 I-0.0861 J0.0022
G3 X1.3729 Y2.1107 I-0.0145 J-0.0059
G3 X1.3422 Y2.1391 I-0.0471 J-0.0201
G1 X1.3421
G3 X1.3177 Y2.1429 I-0.0234 J-0.0704
G3 X1.275 Y2.1221 I-0.0008 J-0.0525
G3 X1.2629 Y2.0976 I0.0513 J-0.0408
G3 X1.2598 Y2.0729 I0.0925 J-0.0238
G3 X1.2627 Y2.0491 I0.0948 J-0.0009
G3 X1.2745 Y2.025 I0.0608 J0.015
G3 X1.2746 Y2.0249 I0.0122 J0.0098
G3 X1.2941 Y2.0101 I0.0403 J0.0329
G3 X1.2943 Y2.01 I0.0063 J0.0143
G3 X1.317 Y2.0056 I0.0221 J0.0531
G3 X1.3458 Y2.0112 I0.0014 J0.0694
G3 X1.3462 Y2.0114 I-0.0062 J0.0144
G3 X1.3655 Y2.0267 I-0.0215 J0.047
G0 Z0.125
G0 X1.3819 Y2.1323
G0 Z0.0625
G1 F4.0 Z-0.02
G3 F8.0 X1.3764 Y2.1388 I-0.0561 J-0.0417
G3 X1.3794 Y2.1422 I-0.0245 J0.0241
G2 X1.3819 Y2.1323 I-0.1228 J-0.0363
G1 F4.0 X1.388 Y2.1336
G2 F8.0 X1.3909 Y2.1068 I-0.1314 J-0.0277
G2 X1.3906 Y2.0934 I-0.2269 J-0.0014
G3 X1.3845 Y2.1151 I-0.0974 J-0.0153
G3 X1.3844 Y2.1156 I-0.026 J-0.0106
G3 X1.367 Y2.1391 I-0.0586 J-0.025
G3 X1.3799 Y2.1593 I-0.015 J0.0238
G2 X1.3815 Y2.1553 I-0.1918 J-0.0808
G2 X1.388 Y2.1336 I-0.1248 J-0.0494
G1 F4.0 X1.4002 Y2.1362
G2 F8.0 X1.4034 Y2.1068 I-0.1436 J-0.0303
G2 X1.4007 Y2.0694 I-0.2394 J-0.0015
G1 Y2.0693
G2 X1.3907 Y2.035 I-0.1301 J0.0191
G2 X1.3787 Y2.0162 I-0.072 J0.0327
G2 X1.3554 Y1.9991 I-0.0495 J0.0431
G2 X1.3144 Y1.9915 I-0.0388 J0.095
G3 X1.3138 I-0.0003 J-0.0156
G2 X1.2837 Y1.997 I-0.0009 J0.0806
G2 X1.2589 Y2.0139 I0.0268 J0.0658
G3 X1.2588 Y2.014 I-0.0113 J-0.0107
G2 X1.242 Y2.0415 I0.0537 J0.0519
G2 X1.2367 Y2.0748 I0.0958 J0.0321
G3 Y2.0752 I-0.0156 J0.0002
G2 X1.2417 Y2.1083 I0.1039 J0.0014
G2 X1.2581 Y2.1352 I0.0659 J-0.0218
G3 X1.2582 Y2.1353 I-0.0111 J0.0109
G2 X1.2835 Y2.1518 I0.0485 J-0.0467
G2 X1.3148 Y2.1569 I0.0301 J-0.0854
G2 X1.3295 Y2.1547 I-0.001 J-0.0548
G3 X1.3296 Y2.1546 I0.0045 J0.015
G2 X1.3454 Y2.1487 I-0.0323 J-0.1106
G3 X1.3666 Y2.1685 I0.0065 J0.0142
G3 X1.3501 Y2.1994 I-0.1318 J-0.0503
G3 X1.3288 Y2.2252 I-0.1725 J-0.1208
G3 X1.2868 Y2.26 I-0.1672 J-0.1592
G1 X1.2949 Y2.2686
G2 X1.3303 Y2.2481 I-0.0373 J-0.1051
G2 X1.3658 Y2.2091 I-0.1352 J-0.1589
G3 X1.366 Y2.2089 I0.0128 J0.009
G2 X1.3931 Y2.16 I-0.1779 J-0.1304
G2 X1.4002 Y2.1362 I-0.1364 J-0.054
G0 Z0.125
G0 X1.5503 Y2.2091
G0 Z0.0625
G1 F4.0 Z-0.02
G1 F8.0 Y2.2342
G3 X1.5645 Y2.2224 I0.1752 J0.1972
G3 X1.5503 Y2.2091 I0.011 J-0.0259
G1 F4.0 X1.5378
G1 F8.0 Y2.2643
G3 X1.577 Y2.2287 I0.1877 J0.1671
G3 X1.621 Y2.2014 I0.1958 J0.2671
G1 Y2.1875
G1 X1.5835 Y2.21
G3 X1.5599 Y2.1966 I-0.008 J-0.0134
G1 Y1.9956
G1 X1.5378
G1 Y2.2091
( Pocket2 )
S10000
G0 Z0.125
G0 X2.3025 Y0.6984
G0 Z0.0625
G1 F4.0 Z-0.02
G2 F8.0 X2.2963 Y0.6954 I-0.0256 J0.0448
G3 X2.2983 Y0.6964 I-0.0216 J0.0453
G3 X2.2984 Y0.6965 I-0.0066 J0.0124
G3 X2.3023 Y0.6988 I-0.0318 J0.0588
G1 X2.3025 Y0.6984
G0 Z0.125
G0 X2.2545 Y0.694
G0 Z0.0625
G1 F4.0 Z-0.02
G2 F8.0 X2.2541 Y0.6941 I0.0196 J0.0785
G1 X2.254
G2 X2.2374 Y0.7024 I0.0106 J0.042
G2 X2.2284 Y0.7145 I0.0192 J0.0235
G2 X2.2255 Y0.7309 I0.0409 J0.0157
G3 Y0.7314 I-0.014 J0.0002
G2 X2.2283 Y0.7463 I0.038 J0.0006
G2 X2.2369 Y0.7575 I0.027 J-0.0117
G2 X2.239 Y0.7591 I0.0283 J-0.0351
G3 X2.2336 Y0.7497 I0.0318 J-0.0246
G3 Y0.7496 I0.013 J-0.0053
G3 X2.2305 Y0.733 I0.0412 J-0.0162
G3 X2.2335 Y0.7152 I0.0507 J-0.0008
G3 Y0.715 I0.0132 J0.0047
G3 X2.2471 Y0.6978 I0.0333 J0.0122
G3 X2.2472 Y0.6977 I0.0078 J0.0116
G3 X2.2545 Y0.694 I0.0223 J0.0343
G0 Z0.125
G0 X2.253 Y0.7708
G0 Z0.0625
G1 F4.0 Z-0.02
G3 F8.0 X2.2534 Y0.7797 I-0.0131 J0.005
G3 X2.2542 Y0.7793 I0.0154 J0.0279
G3 X2.2651 Y0.7755 I0.019 J0.0367
G3 X2.2664 Y0.7752 I0.0123 J0.0612
G3 X2.2603 Y0.7737 I0.01 J-0.0547
G1 X2.2602
G3 X2.253 Y0.7708 I0.0127 J-0.0409
G0 Z0.125
G0 X2.2407 Y0.7928
G0 Z0.0625
G1 F4.0 Z-0.02
G2 F8.0 X2.2354 Y0.7995 I0.0228 J0.0235
G2 X2.2315 Y0.8153 I0.0283 J0.0152
G3 Y0.8158 I-0.014 J0.0003
G2 X2.234 Y0.8292 I0.0347 J0.0006
G2 X2.2413 Y0.8389 I0.0228 J-0.0097
G2 X2.2556 Y0.8459 I0.0231 J-0.029
G1 X2.2557
G2 X2.2614 Y0.8471 I0.0175 J-0.0713
G3 X2.2559 Y0.845 I0.0136 J-0.0453
G3 X2.2555 Y0.8448 I0.0056 J-0.0128
G3 X2.2385 Y0.8251 I0.0139 J-0.0291
G3 X2.2365 Y0.8112 I0.0441 J-0.0135
G3 X2.2399 Y0.7942 I0.0399 J-0.0007
G3 X2.2401 Y0.7939 I0.0128 J0.0057
G3 X2.2407 Y0.7928 I0.0287 J0.0137
G1 F4.0 X2.2379 Y0.7899
G2 F8.0 X2.2319 Y0.7975 I0.0256 J0.0263
G2 X2.2275 Y0.8154 I0.0318 J0.0172
G3 Y0.8158 I-0.01 J0.0002
G2 X2.2303 Y0.8307 I0.0387 J0.0006
G2 X2.2388 Y0.842 I0.0265 J-0.0112
G2 X2.2547 Y0.8498 I0.0256 J-0.0321
G2 X2.2741 Y0.852 I0.0185 J-0.0752
G2 X2.2945 Y0.8476 I-0.0004 J-0.0514
G3 X2.2947 Y0.8475 I0.004 J0.0091
G2 X2.3029 Y0.8432 I-0.021 J-0.0497
G2 X2.3034 Y0.8429 I-0.0137 J-0.0217
G1 X2.2996 Y0.8373
G3 X2.2949 Y0.8401 I-0.033 J-0.0488
G1 Y0.8402
G3 X2.2762 Y0.845 I-0.0191 J-0.035
G3 X2.2575 Y0.8414 I-0.0013 J-0.0433
G3 X2.2572 Y0.8412 I0.004 J-0.0092
G3 X2.2423 Y0.8239 I0.0122 J-0.0255
G3 X2.2405 Y0.8111 I0.0403 J-0.0123
G3 X2.2436 Y0.7959 I0.0359 J-0.0007
G3 X2.2437 Y0.7956 I0.0091 J0.0041
G3 X2.256 Y0.7829 I0.0251 J0.012
G3 X2.2659 Y0.7794 I0.0172 J0.0331
G3 X2.2726 Y0.7785 I0.0115 J0.0573
G1 Y0.772
G3 X2.2614 Y0.7699 I0.0039 J-0.0514
G3 X2.2466 Y0.7614 I0.0115 J-0.0371
G3 X2.2373 Y0.7482 I0.0243 J-0.0268
G3 Y0.7481 I0.0093 J-0.0038
G3 X2.2345 Y0.733 I0.0375 J-0.0147
G3 X2.2372 Y0.7165 I0.0467 J-0.0008
G1 X2.2373 Y0.7164
G3 X2.2493 Y0.7011 I0.0295 J0.0109
G3 X2.2494 I0.0056 J0.0083
G3 X2.2607 Y0.6962 I0.0201 J0.0309
G3 X2.2748 Y0.6945 I0.0135 J0.0553
G3 X2.2965 Y0.7 I-0.0001 J0.0462
G3 X2.3035 Y0.7044 I-0.0299 J0.0553
G1 X2.3081 Y0.6972
G2 X2.2965 Y0.6912 I-0.0312 J0.0461
G2 X2.2752 Y0.6876 I-0.0207 J0.0571
G3 X2.275 I-0.0001 J-0.01
G2 X2.2531 Y0.6902 I-0.001 J0.0849
G2 X2.2348 Y0.6993 I0.0116 J0.0458
G2 X2.2247 Y0.7131 I0.0218 J0.0266
G2 X2.2215 Y0.731 I0.0446 J0.0171
G3 Y0.7313 I-0.01 J0.0002
G2 X2.2247 Y0.7478 I0.042 J0.0007
G2 X2.2344 Y0.7606 I0.0307 J-0.0133
G2 X2.2443 Y0.7668 I0.0308 J-0.0382
G3 X2.245 Y0.7845 I-0.0043 J0.009
G2 X2.2379 Y0.7899 I0.0184 J0.0317
G0 Z0.125
G0 X2.1411 Y0.7049
G0 Z0.0625
G1 F4.0 Z-0.02
G1 F8.0 X2.1458 Y0.698
G1 X2.1382
G3 X2.1411 Y0.7049 I-0.0148 J0.0102
G1 F4.0 X2.1477 Y0.7094
G1 F8.0 X2.1609 Y0.69
G1 X2.0663
G1 Y0.6982
G1 X2.1234
G3 X2.1318 Y0.7137 I0.0 J0.01
G1 X2.0952 Y0.7695
G1 X2.0951
G2 X2.0853 Y0.7864 I0.1453 J0.096
G2 X2.0785 Y0.8037 I0.0807 J0.0417
G2 X2.0769 Y0.8149 I0.0424 J0.0117
G2 X2.0797 Y0.8301 I0.0385 J0.0006
G2 X2.0886 Y0.8416 I0.0272 J-0.0118
G2 X2.1052 Y0.8497 I0.0269 J-0.034
G2 X2.1253 Y0.852 I0.0192 J-0.0777
G3 X2.1255 I0.0001 J0.01
G2 X2.1502 Y0.845 I0.0004 J-0.0458
G3 X2.1504 Y0.8449 I0.0053 J0.0085
G2 X2.1622 Y0.8345 I-0.0216 J-0.0364
G1 X2.1561 Y0.8298
G3 X2.1479 Y0.8374 I-0.0407 J-0.0355
G3 X2.1477 Y0.8376 I-0.006 J-0.008
G3 X2.1242 Y0.845 I-0.0232 J-0.0324
G3 X2.1076 Y0.8423 I-0.001 J-0.0462
G3 X2.0921 Y0.8275 I0.0089 J-0.0248
G3 Y0.8273 I0.0093 J-0.0038
G3 X2.0899 Y0.8146 I0.0316 J-0.012
G3 X2.0919 Y0.8007 I0.054 J0.0007
G3 X2.0963 Y0.7884 I0.0799 J0.0222
G1 X2.0964 Y0.7883
G3 X2.1086 Y0.767 I0.1313 J0.061
G1 X2.1477 Y0.7094
G0 Z0.125
G0 X2.0066 Y0.6967
G0 Z0.0625
G1 F4.0 Z-0.02
G2 F8.0 X2.0067 Y0.6963 I-0.0031 J-0.0003
G3 Y0.6957 I0.018 J-0.0004
G2 X2.0056 Y0.6931 I-0.0035 J-0.0001
G3 X2.0054 Y0.6929 I0.0127 J-0.0128
G2 X2.003 Y0.6919 I-0.0024 J0.0023
G3 X2.0024 I-0.0003 J-0.018
G2 X2.0002 Y0.6928 I-0.0001 J0.0029
G3 X1.9997 Y0.6933 I-0.013 J-0.0124
G2 X1.9987 Y0.6957 I0.0023 J0.0024
G3 Y0.6963 I-0.018 J0.0003
G2 X1.9996 Y0.6985 I0.0029 J0.0001
G3 X2.0002 Y0.6991 I-0.0124 J0.013
G2 X2.0024 Y0.7 I0.0021 J-0.002
G3 X2.003 I0.0003 J0.018
G2 X2.0054 Y0.699 I0.0001 J-0.0033
G3 X2.0057 Y0.6986 I0.0129 J0.0125
G2 X2.0066 Y0.6967 I-0.0022 J-0.0022
G1 F4.0 X2.0146 Y0.6974
G2 F8.0 X2.0147 Y0.6962 I-0.011 J-0.001
G3 Y0.6958 I0.01 J-0.0002
G2 X2.0113 Y0.6875 I-0.0115 J-0.0002
G3 X2.0111 Y0.6873 I0.007 J-0.0071
G2 X2.0028 Y0.6839 I-0.0081 J0.0079
G3 X2.0025 I-0.0002 J-0.01
G2 X1.9944 Y0.6873 I-0.0002 J0.0109
G3 X1.9941 Y0.6875 I-0.0072 J-0.0069
G2 X1.9907 Y0.6958 I0.0079 J0.0081
G3 Y0.6962 I-0.01 J0.0002
G2 X1.9941 Y0.7043 I0.0109 J0.0002
G3 X1.9944 Y0.7046 I-0.0069 J0.0072
G2 X2.0025 Y0.708 I0.0079 J-0.0075
G3 X2.0028 I0.0002 J0.01
G2 X2.0111 Y0.7045 I0.0002 J-0.0113
G3 X2.0113 Y0.7043 I0.0072 J0.007
G2 X2.0146 Y0.6974 I-0.0078 J-0.0079
G0 Z0.125
G0 X1.9249 Y0.7246
G0 Z0.0625
G1 F4.0 Z-0.02
G2 F8.0 X1.9242 Y0.7226 I-0.1185 J0.0359
G2 X1.9176 Y0.7086 I-0.0565 J0.0184
G2 X1.9052 Y0.697 I-0.0299 J0.0194
G3 X1.9181 Y0.715 I-0.0277 J0.0334
G3 X1.9225 Y0.7301 I-0.08 J0.0317
G3 X1.9247 Y0.7446 I-0.1473 J0.0295
G1 Y0.7447
G3 X1.926 Y0.7727 I-0.2732 J0.0265
G3 X1.9247 Y0.796 I-0.2031 J0.001
G3 X1.9191 Y0.8206 I-0.1035 J-0.0106
G3 X1.9143 Y0.8306 I-0.0499 J-0.018
G2 X1.9156 Y0.8288 I-0.0372 J-0.0281
G3 X1.9157 Y0.8287 I0.0116 J0.0079
G2 X1.9274 Y0.8036 I-0.065 J-0.0456
G2 X1.9309 Y0.775 I-0.1054 J-0.0277
G3 Y0.7748 I0.014 J-0.0001
G2 X1.9295 Y0.7478 I-0.2388 J-0.0011
G1 Y0.7477
G2 X1.9249 Y0.7246 I-0.1231 J0.0128
G0 Z0.125
G0 X1.8451 Y0.7112
G0 Z0.0625
G1 F4.0 Z-0.02
G2 F8.0 X1.8341 Y0.7385 I0.0698 J0.0439
G1 Y0.7386
G2 X1.8309 Y0.7708 I0.1473 J0.0309
G3 Y0.771 I-0.014 J0.0001
G2 X1.8328 Y0.7992 I0.1875 J0.0012
G3 X1.8329 Y0.7993 I-0.0139 J0.002
G2 X1.8402 Y0.8246 I0.0902 J-0.0124
G2 X1.849 Y0.8373 I0.041 J-0.0191
G2 X1.8541 Y0.8414 I0.025 J-0.0256
G3 X1.8443 Y0.8285 I0.0244 J-0.0288
G3 X1.8392 Y0.8133 I0.0583 J-0.0279
G3 X1.8371 Y0.7993 I0.1287 J-0.0269
G1 Y0.7992
G3 X1.8359 Y0.7725 I0.2646 J-0.0252
G3 X1.8365 Y0.7511 I0.3289 J-0.0009
G3 X1.8393 Y0.7288 I0.1672 J0.0097
G3 X1.8444 Y0.7126 I0.0714 J0.0136
G3 X1.8451 Y0.7112 I0.0367 J0.0166
G1 F4.0 X1.8417 Y0.7091
G2 F8.0 X1.8302 Y0.7377 I0.0732 J0.0461
G1 Y0.7378
G2 X1.8269 Y0.7709 I0.1512 J0.0317
G3 Y0.771 I-0.01 J0.0001
G2 X1.8289 Y0.7998 I0.1915 J0.0012
G1 Y0.7999
G2 X1.8365 Y0.8263 I0.0942 J-0.013
G2 X1.8461 Y0.8401 I0.0446 J-0.0208
G2 X1.8655 Y0.8505 I0.0278 J-0.0284
G2 X1.8792 Y0.852 I0.0133 J-0.0591
G3 X1.8794 I0.0001 J0.01
G2 X1.9017 Y0.8467 I0.0007 J-0.0467
G2 X1.9189 Y0.8311 I-0.0246 J-0.0442
G3 Y0.831 I0.0083 J0.0056
G2 X1.9312 Y0.8046 I-0.0683 J-0.0479
G2 X1.9349 Y0.7749 I-0.1093 J-0.0288
G3 Y0.7748 I0.01 J-0.0001
G2 X1.9335 Y0.7474 I-0.2428 J-0.0011
G1 Y0.7473
G2 X1.928 Y0.7214 I-0.1271 J0.0132
G2 X1.9209 Y0.7064 I-0.0603 J0.0196
G2 X1.9042 Y0.692 I-0.0332 J0.0216
G2 X1.8812 Y0.6876 I-0.0219 J0.0513
G3 X1.8808 I-0.0002 J-0.01
G2 X1.8587 Y0.6927 I-0.0008 J0.0463
G2 X1.8422 Y0.7083 I0.0227 J0.0406
G1 Y0.7084
G2 X1.8417 Y0.7091 I0.0727 J0.0468
G1 F4.0 X1.8488 Y0.7127
G3 F8.0 X1.8619 Y0.6984 I0.0323 J0.0165
G3 X1.8623 Y0.6982 I0.0053 J0.0085
G3 X1.882 Y0.6932 I0.0189 J0.0333
G3 X1.9023 Y0.6998 I0.0006 J0.0327
G3 X1.9027 Y0.7001 I-0.006 J0.008
G3 X1.9144 Y0.7164 I-0.0251 J0.0303
G3 X1.9186 Y0.7309 I-0.0763 J0.0302
G3 X1.9207 Y0.745 I-0.1434 J0.0288
G1 Y0.7451
G3 X1.922 Y0.7727 I-0.2692 J0.0262
G3 X1.9208 Y0.7956 I-0.1992 J0.001
G3 X1.9154 Y0.8192 I-0.0996 J-0.0102
G3 X1.906 Y0.8351 I-0.0462 J-0.0166
G3 X1.9059 Y0.8352 I-0.0075 J-0.0066
G3 X1.88 Y0.8464 I-0.0253 J-0.0231
G3 X1.8479 Y0.8268 I-0.0015 J-0.0338
G3 X1.8431 Y0.8125 I0.0547 J-0.0262
G3 X1.841 Y0.7989 I0.1248 J-0.0261
G1 Y0.7988
G3 X1.8399 Y0.7725 I0.2607 J-0.0248
G3 X1.8405 Y0.7513 I0.3249 J-0.0009
G3 X1.8432 Y0.7296 I0.1632 J0.0095
G3 X1.8481 Y0.7142 I0.0674 J0.0128
G3 X1.8488 Y0.7127 I0.033 J0.0149
G0 Z0.125
G0 X1.7696 Y0.6984
G0 Z0.0625
G1 F4.0 Z-0.02
G2 F8.0 X1.7614 Y0.6947 I-0.0266 J0.0493
G2 X1.7583 Y0.6938 I-0.0194 J0.0577
G3 X1.7658 Y0.6971 I-0.0231 J0.0625
G1 X1.7659 Y0.6972
G3 X1.7693 Y0.699 I-0.0526 J0.0998
G1 X1.7696 Y0.6984
G0 Z0.125
G0 X1.7252 Y0.6931
G0 Z0.0625
G1 F4.0 Z-0.02
G2 F8.0 X1.7171 Y0.6955 I0.0113 J0.0531
G3 X1.7169 I-0.005 J-0.0131
G2 X1.7005 Y0.7086 I0.0119 J0.0319
G2 X1.6944 Y0.7228 I0.0397 J0.0254
G2 X1.6919 Y0.7456 I0.0901 J0.0217
G3 Y0.746 I-0.014 J0.0002
G2 X1.6943 Y0.765 I0.0673 J0.0009
G2 X1.7024 Y0.7795 I0.0345 J-0.0097
G2 X1.7151 Y0.7877 I0.0225 J-0.0211
G2 X1.7293 Y0.7902 I0.0165 J-0.051
G3 X1.7247 Y0.7891 I0.0111 J-0.0567
G3 X1.7072 Y0.778 I0.0095 J-0.0344
G3 X1.7067 Y0.7775 I0.0106 J-0.0091
G3 X1.6984 Y0.7588 I0.034 J-0.0265
G3 X1.6968 Y0.7425 I0.0792 J-0.0157
G3 X1.7007 Y0.7176 I0.0721 J-0.0015
G3 X1.7222 Y0.6942 I0.0372 J0.0126
G3 X1.7226 Y0.694 I0.0056 J0.0128
G3 X1.7252 Y0.6931 I0.0182 J0.0457
G0 Z0.125
G0 X1.7685 Y0.7823
G0 Z0.0625
G1 F4.0 Z-0.02
G3 F8.0 X1.7639 Y0.7851 I-0.0392 J-0.0577
G3 X1.758 Y0.788 I-0.0232 J-0.0405
G3 X1.766 Y0.8006 I-0.0061 J0.0126
G1 Y0.8326
G3 X1.7572 Y0.8456 I-0.014 J0.0
G1 X1.7685
G1 Y0.7823
G1 F4.0 X1.7662 Y0.779
G3 F8.0 X1.762 Y0.7816 I-0.037 J-0.0544
G1 X1.7619
G3 X1.7412 Y0.7873 I-0.0212 J-0.037
G3 X1.7258 Y0.7853 I-0.0008 J-0.0538
G3 X1.7102 Y0.7754 I0.0084 J-0.0306
G3 X1.7099 Y0.775 I0.0076 J-0.0065
G3 X1.7023 Y0.7581 I0.0309 J-0.024
G3 X1.7008 Y0.7424 I0.0753 J-0.0149
G3 X1.7045 Y0.7189 I0.0681 J-0.0015
G3 X1.7238 Y0.6979 I0.0334 J0.0113
G3 X1.7241 Y0.6978 I0.004 J0.0092
G3 X1.7417 Y0.6945 I0.0168 J0.042
G3 X1.7538 Y0.6965 I-0.0006 J0.042
G3 X1.764 Y0.7007 I-0.0186 J0.0598
G1 X1.7641
G3 X1.771 Y0.7047 I-0.0508 J0.0963
G1 X1.7748 Y0.6968
G2 X1.7627 Y0.6909 I-0.0318 J0.0509
G2 X1.7415 Y0.6876 I-0.0206 J0.0615
G3 X1.7414 I-0.0001 J-0.01
G2 X1.728 Y0.6885 I-0.0004 J0.0886
G2 X1.7156 Y0.6918 I0.0085 J0.0577
G1 X1.7155
G2 X1.6971 Y0.7065 I0.0133 J0.0356
G2 X1.6905 Y0.7219 I0.0431 J0.0275
G2 X1.6879 Y0.7457 I0.0939 J0.0227
G3 Y0.7459 I-0.01 J0.0001
G2 X1.6905 Y0.7661 I0.0713 J0.0009
G2 X1.6995 Y0.7822 I0.0383 J-0.0108
G2 X1.7139 Y0.7915 I0.0254 J-0.0238
G2 X1.7325 Y0.7943 I0.0178 J-0.0548
G3 X1.7329 I0.0001 J0.01
G2 X1.7481 Y0.7914 I0.0009 J-0.0367
G3 X1.762 Y0.8006 I0.0039 J0.0092
G1 Y0.8326
G3 X1.752 Y0.8426 I-0.01 J0.0
G1 X1.6962
G1 Y0.8496
G1 X1.7725
G1 Y0.7764
G1 X1.771 Y0.7754
G3 X1.7662 Y0.779 I-0.0418 J-0.0508
( Pocket4 )
S10000
G0 Z0.125
G0 X2.3176 Y1.0779
G0 Z0.0625
G1 F4.0 Z-0.02
G3 F8.0 X2.307 Y1.0687 I0.0282 J-0.0429
G3 X2.3069 Y1.0685 I0.0183 J-0.0158
G3 X2.2986 Y1.0539 I0.0344 J-0.0293
G2 X2.3027 Y1.0636 I0.034 J-0.0088
G1 X2.3028 Y1.0637
G2 X2.3176 Y1.0779 I0.0347 J-0.0213
G1 F4.0 X2.32 Y1.0743
G3 F8.0 X2.3104 Y1.0658 I0.0258 J-0.0392
G3 X2.3102 Y1.0656 I0.015 J-0.013
G3 X2.3005 Y1.0384 I0.0311 J-0.0264
G3 X2.3062 Y1.0163 I0.0462 J0.0001
G3 X2.3063 Y1.0161 I0.0174 J0.0095
G3 X2.3196 Y1.0004 I0.0479 J0.027
G3 X2.3198 Y1.0003 I0.0124 J0.0154
G3 X2.3444 Y0.9886 I0.0371 J0.0468
G3 X2.3667 Y0.9863 I0.0215 J0.0967
G3 X2.3903 Y0.9894 I0.0008 J0.0859
G3 X2.4141 Y1.0019 I-0.0169 J0.061
G3 X2.4145 Y1.0022 I-0.0127 J0.0152
G3 X2.4309 Y1.0249 I-0.0429 J0.0483
G3 X2.433 Y1.03 I-0.0905 J0.0396
G1 X2.4408 Y1.0293
G2 X2.4379 Y1.0218 I-0.0893 J0.0295
G2 X2.4232 Y1.0015 I-0.0528 J0.023
G2 X2.3988 Y0.9893 I-0.0389 J0.0471
G1 X2.3987 Y0.9892
G2 X2.3675 Y0.9856 I-0.0298 J0.1199
G3 X2.3671 I-0.0002 J-0.0198
G2 X2.3439 Y0.9872 I-0.0008 J0.1571
G2 X2.3232 Y0.9927 I0.0123 J0.0876
G2 X2.3006 Y1.0115 I0.018 J0.0448
G3 X2.3005 Y1.0116 I-0.0167 J-0.0107
G2 X2.2924 Y1.0388 I0.0417 J0.0272
G3 Y1.039 I-0.0198 J0.0
G2 X2.294 Y1.0539 I0.0653 J0.0005
G2 X2.299 Y1.0659 I0.0386 J-0.0088
G1 Y1.066
G2 X2.3172 Y1.0827 I0.0384 J-0.0236
G2 X2.3391 Y1.0914 I0.0599 J-0.1188
G3 X2.3393 I-0.0056 J0.019
G2 X2.364 Y1.0981 I0.1074 J-0.3487
G3 X2.4003 Y1.109 I-0.0545 J0.2473
G1 X2.4004 Y1.1091
G3 X2.4154 Y1.1174 I-0.0226 J0.0582
G3 X2.4156 Y1.1175 I-0.0119 J0.0158
G3 X2.4304 Y1.1473 I-0.0232 J0.0301
G3 X2.4142 Y1.1785 I-0.037 J0.0007
G3 X2.3916 Y1.1884 I-0.0357 J-0.0513
G3 X2.3825 Y1.1899 I-0.0204 J-0.0934
G2 X2.3906 Y1.1889 I-0.0118 J-0.1276
G2 X2.4089 Y1.1837 I-0.0122 J-0.0785
G3 X2.4091 I0.0076 J0.0183
G2 X2.4295 Y1.167 I-0.0168 J-0.0415
G2 X2.4364 Y1.1444 I-0.0341 J-0.0226
G3 Y1.1441 I0.0198 J0.0
G2 X2.4327 Y1.1265 I-0.0417 J-0.0004
G2 X2.4214 Y1.1117 I-0.0417 J0.0201
G2 X2.4129 Y1.1059 I-0.03 J0.0345
G3 X2.4128 Y1.1058 I0.0093 J-0.0175
G2 X2.4016 Y1.1007 I-0.0472 J0.0874
G2 X2.376 Y1.0927 I-0.074 J0.193
G3 X2.3367 Y1.0821 I0.163 J-0.6816
G3 X2.3359 Y1.0818 I0.0057 J-0.019
G3 X2.3239 Y1.0765 I0.0264 J-0.0763
G3 X2.32 Y1.0743 I0.022 J-0.0415
G0 Z0.125
G0 X2.3124 Y1.1571
G0 Z0.0625
G1 F4.0 Z-0.02
G1 F8.0 X2.303 Y1.1575
G2 X2.3037 Y1.1594 I0.0534 J-0.0204
G2 X2.3158 Y1.1756 I0.0421 J-0.0188
G2 X2.3392 Y1.1871 I0.0356 J-0.0429
G3 X2.3393 I-0.0044 J0.0193
G2 X2.3636 Y1.1904 I0.0289 J-0.1233
G3 X2.3507 Y1.1886 I0.0061 J-0.0919
G3 X2.3283 Y1.1785 I0.0108 J-0.0537
G3 X2.3279 Y1.1781 I0.012 J-0.0157
G3 X2.3132 Y1.1589 I0.032 J-0.0397
G3 X2.3124 Y1.1571 I0.0702 J-0.031
G1 F4.0 X2.3205 Y1.1537
G3 F8.0 X2.3185 Y1.148 I0.0628 J-0.0258
G1 X2.2915 Y1.1492
G2 X2.2957 Y1.1629 I0.0648 J-0.0121
G2 X2.3102 Y1.1823 I0.0502 J-0.0223
G2 X2.3372 Y1.1957 I0.0413 J-0.0496
G1 X2.3373
G2 X2.3698 Y1.1992 I0.0309 J-0.1319
G3 X2.37 I0.0001 J0.011
G2 X2.3919 Y1.1976 I0.0007 J-0.137
G1 X2.392
G2 X2.4123 Y1.1919 I-0.0135 J-0.0872
G3 X2.4124 Y1.1918 I0.0042 J0.0102
G2 X2.4369 Y1.1719 I-0.0201 J-0.0496
G2 X2.4452 Y1.1444 I-0.0414 J-0.0275
G3 Y1.1442 I0.011 J0.0
G2 X2.4406 Y1.1228 I-0.0505 J-0.0005
G2 X2.4272 Y1.1051 I-0.0497 J0.0238
G2 X2.417 Y1.0981 I-0.0358 J0.0411
G2 X2.4048 Y1.0925 I-0.0514 J0.0952
G2 X2.378 Y1.0841 I-0.0772 J0.2012
G3 X2.3392 Y1.0737 I0.161 J-0.6731
G3 X2.3388 Y1.0735 I0.0032 J-0.0105
G3 X2.328 Y1.0688 I0.0235 J-0.0679
G3 X2.317 Y1.06 I0.0178 J-0.0337
G1 X2.3169 Y1.0599
G3 X2.3093 Y1.0385 I0.0244 J-0.0207
G3 X2.3139 Y1.0206 I0.0374 J0.0
G3 X2.314 Y1.0204 I0.0097 J0.0053
G3 X2.3252 Y1.0072 I0.0403 J0.0227
G1 X2.3253 Y1.0071
G3 X2.3463 Y0.9972 I0.0317 J0.0399
G3 X2.3667 Y0.9951 I0.0196 J0.0881
G3 X2.388 Y0.9979 I0.0008 J0.0771
G3 X2.4084 Y1.0086 I-0.0146 J0.0526
G3 X2.4087 Y1.0088 I-0.0071 J0.0084
G3 X2.4228 Y1.0284 I-0.0371 J0.0418
G3 X2.4269 Y1.0395 I-0.0824 J0.0361
G1 X2.452 Y1.037
G2 X2.446 Y1.0183 I-0.1005 J0.0218
G2 X2.4289 Y0.9948 I-0.0609 J0.0264
G2 X2.4008 Y0.9807 I-0.0446 J0.0538
G2 X2.3674 Y0.9768 I-0.0319 J0.1285
G3 X2.3672 I-0.0001 J-0.011
G2 X2.3427 Y0.9785 I-0.0009 J0.1659
G1 X2.3426
G2 X2.3199 Y0.9846 I0.0135 J0.0963
G2 X2.2932 Y1.0067 I0.0213 J0.053
G1 X2.2931 Y1.0068
G2 X2.2836 Y1.0388 I0.0491 J0.032
G1 Y1.0389
G2 X2.2855 Y1.0558 I0.0741 J0.0006
G2 X2.2915 Y1.0706 I0.0472 J-0.0107
G2 X2.3132 Y1.0905 I0.0459 J-0.0282
G2 X2.3366 Y1.0998 I0.0638 J-0.1267
G3 X2.3367 Y1.0999 I-0.0031 J0.0105
G2 X2.3621 Y1.1067 I0.11 J-0.3571
G3 X2.3972 Y1.1173 I-0.0526 J0.2387
G3 X2.4101 Y1.1244 I-0.0194 J0.05
G3 X2.4102 Y1.1245 I-0.0066 J0.0088
G3 X2.4216 Y1.1474 I-0.0178 J0.0231
G3 X2.4092 Y1.1713 I-0.0282 J0.0005
G3 X2.3897 Y1.1798 I-0.0307 J-0.044
G3 X2.3704 Y1.1818 I-0.0185 J-0.0848
G3 X2.3525 Y1.18 I-0.0008 J-0.0833
G3 X2.3336 Y1.1715 I0.009 J-0.0451
G3 X2.3334 Y1.1713 I0.0067 J-0.0087
G3 X2.3212 Y1.1553 I0.0264 J-0.0329
G3 X2.3205 Y1.1537 I0.0622 J-0.0274
G0 Z0.125
G0 X2.214 Y1.1213
G0 Z0.0625
G1 F4.0 Z-0.02
G1 F8.0 Y1.0328
G3 Y1.0327 I0.0198 J0.0
G2 X2.213 Y1.0162 I-0.1228 J-0.0008
G3 Y1.016 I0.0196 J-0.0025
G2 X2.2095 Y1.0029 I-0.0493 J0.0059
G2 X2.1985 Y0.9912 I-0.0227 J0.0103
G3 X2.1984 Y0.9911 I0.0093 J-0.0175
G2 X2.1837 Y0.9863 I-0.0205 J0.0379
G3 X2.1878 Y0.9887 I-0.0224 J0.0428
G3 X2.1886 Y0.9893 I-0.0109 J0.0165
G3 X2.205 Y1.0124 I-0.0263 J0.0362
G3 X2.2054 Y1.0137 I-0.0189 J0.0058
G3 X2.2074 Y1.0279 I-0.0818 J0.0188
G3 X2.208 Y1.0397 I-0.2911 J0.0206
G3 X2.2083 Y1.0625 I-0.7145 J0.0213
G1 Y1.1213
G1 X2.214
G1 F4.0 X2.2228
G1 F8.0 Y1.0328
G2 X2.2217 Y1.015 I-0.1316 J-0.0008
G3 Y1.0149 I0.0109 J-0.0014
G2 X2.2176 Y0.9993 I-0.0581 J0.007
G2 X2.2027 Y0.9834 I-0.0308 J0.0138
G1 X2.2026
G2 X2.1771 Y0.9771 I-0.0247 J0.0457
G3 X2.1769 I-0.0002 J-0.011
G2 X2.15 Y0.9838 I-0.0001 J0.0574
G3 X2.1498 I-0.0051 J-0.0097
G2 X2.1312 Y0.9992 I0.0247 J0.0489
G3 X2.1332 Y0.9978 I0.0265 J0.0351
G3 X2.16 Y0.9896 I0.0265 J0.0388
G3 X2.183 Y0.9961 I0.0012 J0.0395
G3 X2.1834 Y0.9964 I-0.006 J0.0092
G3 X2.1966 Y1.015 I-0.0212 J0.0291
G3 X2.1968 Y1.0157 I-0.0105 J0.0032
G3 X2.1986 Y1.0285 I-0.0733 J0.0169
G3 X2.1992 Y1.04 I-0.2823 J0.02
G3 X2.1995 Y1.0625 I-0.7057 J0.0211
G1 Y1.1301
G1 X2.2228
G1 Y1.1213
G0 Z0.125
G0 X2.1023 Y1.0206
G0 Z0.0625
G1 F4.0 Z-0.02
G3 F8.0 X2.1036 Y1.0159 I0.0784 J0.0179
G3 X2.1042 Y1.0141 I0.0232 J0.0068
G3 X2.1043 Y1.0138 I0.0534 J0.0202
G3 X2.1023 Y1.012 I0.0159 J-0.0182
G1 Y1.0206
G1 F4.0 X2.0979
G1 F8.0 Y1.1213
G1 X2.1036
G1 Y1.069
G3 X2.105 Y1.0325 I0.3969 J-0.0037
G3 X2.1078 Y1.0171 I0.0758 J0.006
G3 X2.1083 Y1.0157 I0.019 J0.0056
G3 X2.1097 Y1.0124 I0.0493 J0.0186
G3 X2.1004 Y0.9956 I0.0105 J-0.0168
G1 Y0.9898
G1 X2.0979
G1 Y1.0206
G1 F4.0 X2.0891
G1 F8.0 Y0.981
G1 X2.1092
G1 Y0.9956
G2 X2.1241 Y1.0059 I0.011 J0.0
G2 X2.1165 Y1.0188 I0.0335 J0.0284
G2 X2.1163 Y1.0196 I0.0103 J0.0039
G2 X2.1137 Y1.0332 I0.0645 J0.019
G2 X2.1124 Y1.069 I0.3868 J0.032
G1 Y1.1301
G1 X2.0891
G1 Y1.0206
G0 Z0.125
G0 X2.0115
G0 Z0.0625
G1 F4.0 Z-0.02
G1 F8.0 Y0.9898
G1 X2.0058
G1 Y1.1864
G1 X2.0115
G1 Y1.0206
G1 F4.0 X2.0203
G1 F8.0 Y0.981
G1 X1.997
G1 Y1.1952
G1 X2.0203
G1 Y1.0206
G0 Z0.125
G0 X1.9116 Y1.123
G0 Z0.0625
G1 F4.0 Z-0.02
G3 F8.0 X1.9114 Y1.1233 I-0.0226 J-0.0175
G3 X1.9116 Y1.1236 I-0.0224 J0.0178
G3 X1.9119 Y1.1233 I0.0226 J0.0175
G3 X1.9116 Y1.123 I0.0224 J-0.0178
G1 F4.0 X1.9186 Y1.1176
G3 F8.0 X1.9145 Y1.1055 I0.0157 J-0.0121
G1 Y0.9898
G1 X1.9088
G1 Y1.1055
G3 X1.8976 Y1.1233 I-0.0198 J0.0
G3 X1.9088 Y1.1411 I-0.0087 J0.0178
G1 Y1.1531
G3 X1.9079 Y1.1651 I-0.0738 J0.0007
G3 X1.9003 Y1.183 I-0.0364 J-0.0048
G3 X1.8989 Y1.1846 I-0.0156 J-0.0123
G3 X1.8929 Y1.1895 I-0.0241 J-0.0235
G2 X1.8939 Y1.1893 I-0.0107 J-0.0626
G1 X1.894
G2 X1.9035 Y1.186 I-0.0061 J-0.0327
G3 X1.9041 Y1.1857 I0.0093 J0.0175
G2 X1.9115 Y1.1784 I-0.0074 J-0.015
G2 X1.9137 Y1.1685 I-0.037 J-0.0134
G3 X1.9138 Y1.1683 I0.0197 J0.0018
G2 X1.9145 Y1.1541 I-0.1275 J-0.0134
G3 Y1.154 I0.0198 J-0.0001
G1 Y1.1411
G3 X1.9256 Y1.1233 I0.0198 J0.0
G3 X1.9186 Y1.1176 I0.0087 J-0.0178
G1 F4.0 X1.9256 Y1.1122
G3 F8.0 X1.9233 Y1.1055 I0.0087 J-0.0067
G1 Y0.981
G1 X1.9
G1 Y1.1055
G3 X1.889 Y1.1165 I-0.011 J0.0
G1 X1.8661
G1 Y1.1301
G1 X1.889
G3 X1.9 Y1.1411 I0.0 J0.011
G1 Y1.1532
G3 X1.8992 Y1.1639 I-0.065 J0.0006
G3 X1.8934 Y1.1776 I-0.0277 J-0.0036
G3 X1.8927 Y1.1785 I-0.0086 J-0.0068
G3 X1.8809 Y1.1852 I-0.0178 J-0.0174
G3 X1.8705 Y1.1864 I-0.0098 J-0.0386
G3 X1.8586 Y1.1857 I0.0007 J-0.1005
G1 X1.8564 Y1.1965
G2 X1.8816 Y1.1992 I0.025 J-0.1123
G2 X1.8956 Y1.198 I0.0005 J-0.0723
G2 X1.9077 Y1.1938 I-0.0077 J-0.0414
G3 X1.908 Y1.1936 I0.0052 J0.0097
G2 X1.9196 Y1.1819 I-0.0113 J-0.0229
G2 X1.9225 Y1.1693 I-0.0451 J-0.0169
G3 Y1.1692 I0.011 J0.001
G2 X1.9233 Y1.1541 I-0.1362 J-0.0143
G1 Y1.154
G1 Y1.1411
G3 X1.9343 Y1.1301 I0.011 J0.0
G1 X1.9484
G1 Y1.1165
G1 X1.9343
G3 X1.9256 Y1.1122 I0.0 J-0.011
G0 Z0.125
G0 X1.8108
G0 Z0.0625
G1 F4.0 Z-0.02
G1 F8.0 Y1.0328
G3 Y1.0327 I0.0198 J0.0
G2 X1.8098 Y1.0162 I-0.1228 J-0.0008
G3 Y1.016 I0.0196 J-0.0025
G2 X1.8064 Y1.0029 I-0.0493 J0.0059
G2 X1.7954 Y0.9912 I-0.0227 J0.0103
G3 X1.7953 Y0.9911 I0.0093 J-0.0175
G2 X1.7805 Y0.9863 I-0.0205 J0.0379
G3 X1.7846 Y0.9887 I-0.0224 J0.0428
G3 X1.7854 Y0.9893 I-0.0109 J0.0165
G3 X1.8019 Y1.0124 I-0.0263 J0.0362
G3 X1.8022 Y1.0137 I-0.0189 J0.0058
G3 X1.8043 Y1.0279 I-0.0818 J0.0188
G3 X1.8049 Y1.0397 I-0.2911 J0.0206
G3 X1.8052 Y1.0625 I-0.7145 J0.0213
G1 Y1.1213
G1 X1.8108
G1 Y1.1122
G1 F4.0 X1.8196
G1 F8.0 Y1.0328
G2 X1.8186 Y1.015 I-0.1316 J-0.0008
G3 X1.8185 Y1.0149 I0.0109 J-0.0014
G2 X1.8144 Y0.9993 I-0.0581 J0.007
G2 X1.7995 Y0.9834 I-0.0308 J0.0138
G2 X1.7739 Y0.9771 I-0.0247 J0.0457
G3 X1.7737 I-0.0002 J-0.011
G2 X1.7468 Y0.9838 I-0.0001 J0.0574
G3 X1.7467 I-0.0051 J-0.0097
G2 X1.728 Y0.9992 I0.0247 J0.0489
G3 X1.7301 Y0.9978 I0.0265 J0.0351
G3 X1.7569 Y0.9896 I0.0265 J0.0388
G3 X1.7798 Y0.9961 I0.0012 J0.0395
G3 X1.7802 Y0.9964 I-0.006 J0.0092
G3 X1.7935 Y1.015 I-0.0212 J0.0291
G3 X1.7937 Y1.0157 I-0.0105 J0.0032
G3 X1.7955 Y1.0285 I-0.0733 J0.0169
G3 X1.7961 Y1.04 I-0.2823 J0.02
G3 X1.7964 Y1.0625 I-0.7057 J0.0211
G1 Y1.1301
G1 X1.8196
G1 Y1.1122
G0 Z0.125
G0 X1.6992 Y1.0206
G0 Z0.0625
G1 F4.0 Z-0.02
G3 F8.0 X1.7004 Y1.0159 I0.0784 J0.0179
G3 X1.701 Y1.0141 I0.0232 J0.0068
G3 X1.7011 Y1.0138 I0.0534 J0.0202
G3 X1.6992 Y1.012 I0.0159 J-0.0182
G1 Y1.0206
G1 F4.0 X1.6948
G1 F8.0 Y1.1213
G1 X1.7005
G1 Y1.069
G3 X1.7018 Y1.0325 I0.3969 J-0.0037
G3 X1.7047 Y1.0171 I0.0758 J0.006
G3 X1.7051 Y1.0157 I0.019 J0.0056
G3 X1.7065 Y1.0124 I0.0493 J0.0186
G3 X1.6973 Y0.9956 I0.0105 J-0.0168
G1 Y0.9898
G1 X1.6948
G1 Y1.0206
G1 F4.0 X1.686
G1 F8.0 Y0.981
G1 X1.7061
G1 Y0.9956
G2 X1.721 Y1.0059 I0.011 J0.0
G2 X1.7134 Y1.0188 I0.0335 J0.0284
G2 X1.7131 Y1.0196 I0.0103 J0.0039
G2 X1.7106 Y1.0332 I0.0645 J0.019
G2 X1.7093 Y1.069 I0.3868 J0.032
G1 Y1.1301
G1 X1.686
G1 Y1.0206
G0 Z0.125
G0 X1.6058 Y1.0799
G0 Z0.0625
G1 F4.0 Z-0.02
G3 F8.0 X1.6046 Y1.0858 I-0.1153 J-0.0212
G3 X1.6044 Y1.0866 I-0.0235 J-0.0056
G3 X1.601 Y1.0964 I-0.0793 J-0.0216
G3 X1.6058 Y1.1005 I-0.0131 J0.0204
G1 Y1.0799
G1 F4.0 X1.6015 Y1.0791
G3 F8.0 X1.6003 Y1.0848 I-0.111 J-0.0204
G3 X1.6002 Y1.0854 I-0.0193 J-0.0046
G3 X1.5953 Y1.0984 I-0.0751 J-0.0204
G3 X1.6078 Y1.1168 I-0.0074 J0.0184
G1 Y1.1213
G1 X1.6102
G1 Y0.9898
G1 X1.6046
G1 Y1.0228
G3 X1.603 Y1.0675 I-0.5253 J0.0044
G3 X1.6015 Y1.0791 I-0.1125 J-0.0088
G0 Z0.125
G0 X1.5551 Y1.1242
G0 Z0.0625
G1 F4.0 Z-0.02
G3 F8.0 X1.5541 I0.0 J-0.0447
G3 X1.5449 Y1.1232 I0.0008 J-0.0515
G1 X1.5443 Y1.1249
G2 X1.5491 Y1.1252 I0.005 J-0.0374
G3 X1.5493 I-0.0001 J0.0198
G2 X1.5551 Y1.1242 I0.0002 J-0.0163
G1 F4.0 Y1.1154
G3 F8.0 X1.5542 I0.0 J-0.0359
G3 X1.5394 Y1.1125 I0.0007 J-0.0427
G1 X1.5328 Y1.131
G2 X1.5491 Y1.134 I0.0165 J-0.0435
G2 X1.5626 Y1.1303 I0.0004 J-0.0251
G2 X1.5706 Y1.1225 I-0.022 J-0.0305
G3 X1.5708 Y1.1223 I0.0088 J0.0066
G2 X1.5786 Y1.111 I-0.0968 J-0.0759
G3 X1.599 Y1.1168 I0.0094 J0.0058
G1 Y1.1301
G1 X1.619
G1 Y0.981
G1 X1.5958
G1 Y1.0228
G3 X1.5943 Y1.0668 I-0.5165 J0.0044
G3 X1.5918 Y1.0828 I-0.1037 J-0.0081
G3 X1.5917 Y1.0831 I-0.0107 J-0.0025
G3 X1.5871 Y1.0952 I-0.0666 J-0.0181
G3 X1.5777 Y1.1075 I-0.0328 J-0.0154
G3 X1.5774 Y1.1077 I-0.0071 J-0.0084
G3 X1.5551 Y1.1154 I-0.0222 J-0.0283
G0 Z0.125
M5
M30
