( Made using CamBam - http://www.cambam.co.uk )
( 026-iron 11/26/2013 7:21:29 PM )
( T0 : 0.0313 )
G20 G90 G91.1 G64 G40
G0 Z0.125
( T0 : 0.0313 )
T0 M6
( Pocket1 )
G17
M3 S10000
G0 X0.7531 Y2.75
G0 Z0.0625
G1 F4.0 Z-0.0313
G2 F8.0 X0.7484 Y2.7473 I-0.0031 J0.0
G2 Y2.7527 I0.0016 J0.0027
G2 X0.7531 Y2.75 I0.0016 J-0.0027
G1 F4.0 X0.7594
G2 F8.0 X0.7453 Y2.7419 I-0.0094 J0.0
G2 Y2.7581 I0.0047 J0.0081
G2 X0.7594 Y2.75 I0.0047 J-0.0081
G1 F4.0 X0.7719
G2 F8.0 X0.7391 Y2.7311 I-0.0219 J0.0
G2 Y2.7689 I0.0109 J0.0189
G2 X0.7719 Y2.75 I0.0109 J-0.0189
G1 F4.0 X0.7844
G2 F8.0 X0.7328 Y2.7202 I-0.0344 J0.0
G2 Y2.7798 I0.0172 J0.0298
G2 X0.7844 Y2.75 I0.0172 J-0.0298
G1 F4.0 X0.7969
G2 F8.0 X0.7266 Y2.7094 I-0.0469 J0.0
G2 Y2.7906 I0.0234 J0.0406
G2 X0.7969 Y2.75 I0.0234 J-0.0406
G0 Z0.125
G0 X0.7531
G0 Z0.0312
G1 F4.0 Z-0.0625
G2 F8.0 X0.7484 Y2.7473 I-0.0031 J0.0
G2 Y2.7527 I0.0016 J0.0027
G2 X0.7531 Y2.75 I0.0016 J-0.0027
G1 F4.0 X0.7594
G2 F8.0 X0.7453 Y2.7419 I-0.0094 J0.0
G2 Y2.7581 I0.0047 J0.0081
G2 X0.7594 Y2.75 I0.0047 J-0.0081
G1 F4.0 X0.7719
G2 F8.0 X0.7391 Y2.7311 I-0.0219 J0.0
G2 Y2.7689 I0.0109 J0.0189
G2 X0.7719 Y2.75 I0.0109 J-0.0189
G1 F4.0 X0.7844
G2 F8.0 X0.7328 Y2.7202 I-0.0344 J0.0
G2 Y2.7798 I0.0172 J0.0298
G2 X0.7844 Y2.75 I0.0172 J-0.0298
G1 F4.0 X0.7969
G2 F8.0 X0.7266 Y2.7094 I-0.0469 J0.0
G2 Y2.7906 I0.0234 J0.0406
G2 X0.7969 Y2.75 I0.0234 J-0.0406
G0 Z0.125
G0 X0.7531
G0 Z0.0
G1 F4.0 Z-0.0938
G2 F8.0 X0.7484 Y2.7473 I-0.0031 J0.0
G2 Y2.7527 I0.0016 J0.0027
G2 X0.7531 Y2.75 I0.0016 J-0.0027
G1 F4.0 X0.7594
G2 F8.0 X0.7453 Y2.7419 I-0.0094 J0.0
G2 Y2.7581 I0.0047 J0.0081
G2 X0.7594 Y2.75 I0.0047 J-0.0081
G1 F4.0 X0.7719
G2 F8.0 X0.7391 Y2.7311 I-0.0219 J0.0
G2 Y2.7689 I0.0109 J0.0189
G2 X0.7719 Y2.75 I0.0109 J-0.0189
G1 F4.0 X0.7844
G2 F8.0 X0.7328 Y2.7202 I-0.0344 J0.0
G2 Y2.7798 I0.0172 J0.0298
G2 X0.7844 Y2.75 I0.0172 J-0.0298
G1 F4.0 X0.7969
G2 F8.0 X0.7266 Y2.7094 I-0.0469 J0.0
G2 Y2.7906 I0.0234 J0.0406
G2 X0.7969 Y2.75 I0.0234 J-0.0406
G0 Z0.125
G0 X0.7531
G0 Z-0.0323
G1 F4.0 Z-0.126
G2 F8.0 X0.7484 Y2.7473 I-0.0031 J0.0
G2 Y2.7527 I0.0016 J0.0027
G2 X0.7531 Y2.75 I0.0016 J-0.0027
G1 F4.0 X0.7594
G2 F8.0 X0.7453 Y2.7419 I-0.0094 J0.0
G2 Y2.7581 I0.0047 J0.0081
G2 X0.7594 Y2.75 I0.0047 J-0.0081
G1 F4.0 X0.7719
G2 F8.0 X0.7391 Y2.7311 I-0.0219 J0.0
G2 Y2.7689 I0.0109 J0.0189
G2 X0.7719 Y2.75 I0.0109 J-0.0189
G1 F4.0 X0.7844
G2 F8.0 X0.7328 Y2.7202 I-0.0344 J0.0
G2 Y2.7798 I0.0172 J0.0298
G2 X0.7844 Y2.75 I0.0172 J-0.0298
G1 F4.0 X0.7969
G2 F8.0 X0.7266 Y2.7094 I-0.0469 J0.0
G2 Y2.7906 I0.0234 J0.0406
G2 X0.7969 Y2.75 I0.0234 J-0.0406
G0 Z0.125
G0 X3.2469
G0 Z0.0625
G1 F4.0 Z-0.0313
G2 F8.0 X3.2484 Y2.7527 I0.0031 J0.0
G2 X3.2531 Y2.75 I0.0016 J-0.0027
G2 X3.2484 Y2.7473 I-0.0031 J0.0
G2 X3.2469 Y2.75 I0.0016 J0.0027
G1 F4.0 X3.2406
G2 F8.0 X3.2453 Y2.7581 I0.0094 J0.0
G2 X3.2594 Y2.75 I0.0047 J-0.0081
G2 X3.2453 Y2.7419 I-0.0094 J0.0
G2 X3.2406 Y2.75 I0.0047 J0.0081
G1 F4.0 X3.2281
G2 F8.0 X3.2391 Y2.7689 I0.0219 J0.0
G2 X3.2719 Y2.75 I0.0109 J-0.0189
G2 X3.2391 Y2.7311 I-0.0219 J0.0
G2 X3.2281 Y2.75 I0.0109 J0.0189
G1 F4.0 X3.2156
G2 F8.0 X3.2328 Y2.7798 I0.0344 J0.0
G2 X3.2844 Y2.75 I0.0172 J-0.0298
G2 X3.2328 Y2.7202 I-0.0344 J0.0
G2 X3.2156 Y2.75 I0.0172 J0.0298
G1 F4.0 X3.2031
G2 F8.0 X3.2266 Y2.7906 I0.0469 J0.0
G2 X3.2969 Y2.75 I0.0234 J-0.0406
G2 X3.2266 Y2.7094 I-0.0469 J0.0
G2 X3.2031 Y2.75 I0.0234 J0.0406
G0 Z0.125
G0 X3.2469
G0 Z0.0312
G1 F4.0 Z-0.0625
G2 F8.0 X3.2484 Y2.7527 I0.0031 J0.0
G2 X3.2531 Y2.75 I0.0016 J-0.0027
G2 X3.2484 Y2.7473 I-0.0031 J0.0
G2 X3.2469 Y2.75 I0.0016 J0.0027
G1 F4.0 X3.2406
G2 F8.0 X3.2453 Y2.7581 I0.0094 J0.0
G2 X3.2594 Y2.75 I0.0047 J-0.0081
G2 X3.2453 Y2.7419 I-0.0094 J0.0
G2 X3.2406 Y2.75 I0.0047 J0.0081
G1 F4.0 X3.2281
G2 F8.0 X3.2391 Y2.7689 I0.0219 J0.0
G2 X3.2719 Y2.75 I0.0109 J-0.0189
G2 X3.2391 Y2.7311 I-0.0219 J0.0
G2 X3.2281 Y2.75 I0.0109 J0.0189
G1 F4.0 X3.2156
G2 F8.0 X3.2328 Y2.7798 I0.0344 J0.0
G2 X3.2844 Y2.75 I0.0172 J-0.0298
G2 X3.2328 Y2.7202 I-0.0344 J0.0
G2 X3.2156 Y2.75 I0.0172 J0.0298
G1 F4.0 X3.2031
G2 F8.0 X3.2266 Y2.7906 I0.0469 J0.0
G2 X3.2969 Y2.75 I0.0234 J-0.0406
G2 X3.2266 Y2.7094 I-0.0469 J0.0
G2 X3.2031 Y2.75 I0.0234 J0.0406
G0 Z0.125
G0 X3.2469
G0 Z0.0
G1 F4.0 Z-0.0938
G2 F8.0 X3.2484 Y2.7527 I0.0031 J0.0
G2 X3.2531 Y2.75 I0.0016 J-0.0027
G2 X3.2484 Y2.7473 I-0.0031 J0.0
G2 X3.2469 Y2.75 I0.0016 J0.0027
G1 F4.0 X3.2406
G2 F8.0 X3.2453 Y2.7581 I0.0094 J0.0
G2 X3.2594 Y2.75 I0.0047 J-0.0081
G2 X3.2453 Y2.7419 I-0.0094 J0.0
G2 X3.2406 Y2.75 I0.0047 J0.0081
G1 F4.0 X3.2281
G2 F8.0 X3.2391 Y2.7689 I0.0219 J0.0
G2 X3.2719 Y2.75 I0.0109 J-0.0189
G2 X3.2391 Y2.7311 I-0.0219 J0.0
G2 X3.2281 Y2.75 I0.0109 J0.0189
G1 F4.0 X3.2156
G2 F8.0 X3.2328 Y2.7798 I0.0344 J0.0
G2 X3.2844 Y2.75 I0.0172 J-0.0298
G2 X3.2328 Y2.7202 I-0.0344 J0.0
G2 X3.2156 Y2.75 I0.0172 J0.0298
G1 F4.0 X3.2031
G2 F8.0 X3.2266 Y2.7906 I0.0469 J0.0
G2 X3.2969 Y2.75 I0.0234 J-0.0406
G2 X3.2266 Y2.7094 I-0.0469 J0.0
G2 X3.2031 Y2.75 I0.0234 J0.0406
G0 Z0.125
G0 X3.2469
G0 Z-0.0323
G1 F4.0 Z-0.126
G2 F8.0 X3.2484 Y2.7527 I0.0031 J0.0
G2 X3.2531 Y2.75 I0.0016 J-0.0027
G2 X3.2484 Y2.7473 I-0.0031 J0.0
G2 X3.2469 Y2.75 I0.0016 J0.0027
G1 F4.0 X3.2406
G2 F8.0 X3.2453 Y2.7581 I0.0094 J0.0
G2 X3.2594 Y2.75 I0.0047 J-0.0081
G2 X3.2453 Y2.7419 I-0.0094 J0.0
G2 X3.2406 Y2.75 I0.0047 J0.0081
G1 F4.0 X3.2281
G2 F8.0 X3.2391 Y2.7689 I0.0219 J0.0
G2 X3.2719 Y2.75 I0.0109 J-0.0189
G2 X3.2391 Y2.7311 I-0.0219 J0.0
G2 X3.2281 Y2.75 I0.0109 J0.0189
G1 F4.0 X3.2156
G2 F8.0 X3.2328 Y2.7798 I0.0344 J0.0
G2 X3.2844 Y2.75 I0.0172 J-0.0298
G2 X3.2328 Y2.7202 I-0.0344 J0.0
G2 X3.2156 Y2.75 I0.0172 J0.0298
G1 F4.0 X3.2031
G2 F8.0 X3.2266 Y2.7906 I0.0469 J0.0
G2 X3.2969 Y2.75 I0.0234 J-0.0406
G2 X3.2266 Y2.7094 I-0.0469 J0.0
G2 X3.2031 Y2.75 I0.0234 J0.0406
G0 Z0.125
G0 X3.2499 Y0.2531
G0 Z0.0625
G1 F4.0 Z-0.0313
G2 F8.0 X3.2531 Y0.25 I0.0001 J-0.0031
G2 X3.2484 Y0.2473 I-0.0031 J0.0
G2 Y0.2527 I0.0016 J0.0027
G2 X3.2499 Y0.2531 I0.0016 J-0.0027
G1 F4.0 X3.2498 Y0.2594
G2 F8.0 X3.2594 Y0.25 I0.0002 J-0.0094
G2 X3.2453 Y0.2419 I-0.0094 J0.0
G2 Y0.2581 I0.0047 J0.0081
G2 X3.2498 Y0.2594 I0.0047 J-0.0081
G1 F4.0 X3.2496 Y0.2719
G2 F8.0 X3.2719 Y0.25 I0.0004 J-0.0219
G2 X3.2391 Y0.2311 I-0.0219 J0.0
G2 Y0.2689 I0.0109 J0.0189
G2 X3.2496 Y0.2719 I0.0109 J-0.0189
G1 F4.0 X3.2494 Y0.2844
G2 F8.0 X3.2844 Y0.25 I0.0006 J-0.0344
G2 X3.2328 Y0.2202 I-0.0344 J0.0
G2 Y0.2798 I0.0172 J0.0298
G2 X3.2494 Y0.2844 I0.0172 J-0.0298
G1 F4.0 X3.2491 Y0.2969
G2 F8.0 X3.2969 Y0.25 I0.0009 J-0.0469
G2 X3.2266 Y0.2094 I-0.0469 J0.0
G2 Y0.2906 I0.0234 J0.0406
G2 X3.2491 Y0.2969 I0.0234 J-0.0406
G0 Z0.125
G0 X3.2499 Y0.2531
G0 Z0.0312
G1 F4.0 Z-0.0625
G2 F8.0 X3.2531 Y0.25 I0.0001 J-0.0031
G2 X3.2484 Y0.2473 I-0.0031 J0.0
G2 Y0.2527 I0.0016 J0.0027
G2 X3.2499 Y0.2531 I0.0016 J-0.0027
G1 F4.0 X3.2498 Y0.2594
G2 F8.0 X3.2594 Y0.25 I0.0002 J-0.0094
G2 X3.2453 Y0.2419 I-0.0094 J0.0
G2 Y0.2581 I0.0047 J0.0081
G2 X3.2498 Y0.2594 I0.0047 J-0.0081
G1 F4.0 X3.2496 Y0.2719
G2 F8.0 X3.2719 Y0.25 I0.0004 J-0.0219
G2 X3.2391 Y0.2311 I-0.0219 J0.0
G2 Y0.2689 I0.0109 J0.0189
G2 X3.2496 Y0.2719 I0.0109 J-0.0189
G1 F4.0 X3.2494 Y0.2844
G2 F8.0 X3.2844 Y0.25 I0.0006 J-0.0344
G2 X3.2328 Y0.2202 I-0.0344 J0.0
G2 Y0.2798 I0.0172 J0.0298
G2 X3.2494 Y0.2844 I0.0172 J-0.0298
G1 F4.0 X3.2491 Y0.2969
G2 F8.0 X3.2969 Y0.25 I0.0009 J-0.0469
G2 X3.2266 Y0.2094 I-0.0469 J0.0
G2 Y0.2906 I0.0234 J0.0406
G2 X3.2491 Y0.2969 I0.0234 J-0.0406
G0 Z0.125
G0 X3.2499 Y0.2531
G0 Z0.0
G1 F4.0 Z-0.0938
G2 F8.0 X3.2531 Y0.25 I0.0001 J-0.0031
G2 X3.2484 Y0.2473 I-0.0031 J0.0
G2 Y0.2527 I0.0016 J0.0027
G2 X3.2499 Y0.2531 I0.0016 J-0.0027
G1 F4.0 X3.2498 Y0.2594
G2 F8.0 X3.2594 Y0.25 I0.0002 J-0.0094
G2 X3.2453 Y0.2419 I-0.0094 J0.0
G2 Y0.2581 I0.0047 J0.0081
G2 X3.2498 Y0.2594 I0.0047 J-0.0081
G1 F4.0 X3.2496 Y0.2719
G2 F8.0 X3.2719 Y0.25 I0.0004 J-0.0219
G2 X3.2391 Y0.2311 I-0.0219 J0.0
G2 Y0.2689 I0.0109 J0.0189
G2 X3.2496 Y0.2719 I0.0109 J-0.0189
G1 F4.0 X3.2494 Y0.2844
G2 F8.0 X3.2844 Y0.25 I0.0006 J-0.0344
G2 X3.2328 Y0.2202 I-0.0344 J0.0
G2 Y0.2798 I0.0172 J0.0298
G2 X3.2494 Y0.2844 I0.0172 J-0.0298
G1 F4.0 X3.2491 Y0.2969
G2 F8.0 X3.2969 Y0.25 I0.0009 J-0.0469
G2 X3.2266 Y0.2094 I-0.0469 J0.0
G2 Y0.2906 I0.0234 J0.0406
G2 X3.2491 Y0.2969 I0.0234 J-0.0406
G0 Z0.125
G0 X3.2499 Y0.2531
G0 Z-0.0323
G1 F4.0 Z-0.126
G2 F8.0 X3.2531 Y0.25 I0.0001 J-0.0031
G2 X3.2484 Y0.2473 I-0.0031 J0.0
G2 Y0.2527 I0.0016 J0.0027
G2 X3.2499 Y0.2531 I0.0016 J-0.0027
G1 F4.0 X3.2498 Y0.2594
G2 F8.0 X3.2594 Y0.25 I0.0002 J-0.0094
G2 X3.2453 Y0.2419 I-0.0094 J0.0
G2 Y0.2581 I0.0047 J0.0081
G2 X3.2498 Y0.2594 I0.0047 J-0.0081
G1 F4.0 X3.2496 Y0.2719
G2 F8.0 X3.2719 Y0.25 I0.0004 J-0.0219
G2 X3.2391 Y0.2311 I-0.0219 J0.0
G2 Y0.2689 I0.0109 J0.0189
G2 X3.2496 Y0.2719 I0.0109 J-0.0189
G1 F4.0 X3.2494 Y0.2844
G2 F8.0 X3.2844 Y0.25 I0.0006 J-0.0344
G2 X3.2328 Y0.2202 I-0.0344 J0.0
G2 Y0.2798 I0.0172 J0.0298
G2 X3.2494 Y0.2844 I0.0172 J-0.0298
G1 F4.0 X3.2491 Y0.2969
G2 F8.0 X3.2969 Y0.25 I0.0009 J-0.0469
G2 X3.2266 Y0.2094 I-0.0469 J0.0
G2 Y0.2906 I0.0234 J0.0406
G2 X3.2491 Y0.2969 I0.0234 J-0.0406
G0 Z0.125
G0 X0.7531 Y0.2501
G0 Z0.0625
G1 F4.0 Z-0.0313
G1 F8.0 Y0.25
G2 X0.7484 Y0.2473 I-0.0031 J0.0
G2 Y0.2527 I0.0016 J0.0027
G2 X0.7531 Y0.2501 I0.0016 J-0.0027
G1 F4.0 X0.7594 Y0.2502
G2 F8.0 Y0.25 I-0.0094 J-0.0002
G2 X0.7453 Y0.2419 I-0.0094 J0.0
G2 Y0.2581 I0.0047 J0.0081
G2 X0.7594 Y0.2502 I0.0047 J-0.0081
G1 F4.0 X0.7719 Y0.2504
G2 F8.0 Y0.25 I-0.0219 J-0.0004
G2 X0.7391 Y0.2311 I-0.0219 J0.0
G2 Y0.2689 I0.0109 J0.0189
G2 X0.7719 Y0.2504 I0.0109 J-0.0189
G1 F4.0 X0.7844 Y0.2506
G2 F8.0 Y0.25 I-0.0344 J-0.0006
G2 X0.7328 Y0.2202 I-0.0344 J0.0
G2 Y0.2798 I0.0172 J0.0298
G2 X0.7844 Y0.2506 I0.0172 J-0.0298
G1 F4.0 X0.7969 Y0.2509
G2 F8.0 Y0.25 I-0.0469 J-0.0009
G2 X0.7266 Y0.2094 I-0.0469 J0.0
G2 Y0.2906 I0.0234 J0.0406
G2 X0.7969 Y0.2509 I0.0234 J-0.0406
G0 Z0.125
G0 X0.7531 Y0.2501
G0 Z0.0312
G1 F4.0 Z-0.0625
G1 F8.0 Y0.25
G2 X0.7484 Y0.2473 I-0.0031 J0.0
G2 Y0.2527 I0.0016 J0.0027
G2 X0.7531 Y0.2501 I0.0016 J-0.0027
G1 F4.0 X0.7594 Y0.2502
G2 F8.0 Y0.25 I-0.0094 J-0.0002
G2 X0.7453 Y0.2419 I-0.0094 J0.0
G2 Y0.2581 I0.0047 J0.0081
G2 X0.7594 Y0.2502 I0.0047 J-0.0081
G1 F4.0 X0.7719 Y0.2504
G2 F8.0 Y0.25 I-0.0219 J-0.0004
G2 X0.7391 Y0.2311 I-0.0219 J0.0
G2 Y0.2689 I0.0109 J0.0189
G2 X0.7719 Y0.2504 I0.0109 J-0.0189
G1 F4.0 X0.7844 Y0.2506
G2 F8.0 Y0.25 I-0.0344 J-0.0006
G2 X0.7328 Y0.2202 I-0.0344 J0.0
G2 Y0.2798 I0.0172 J0.0298
G2 X0.7844 Y0.2506 I0.0172 J-0.0298
G1 F4.0 X0.7969 Y0.2509
G2 F8.0 Y0.25 I-0.0469 J-0.0009
G2 X0.7266 Y0.2094 I-0.0469 J0.0
G2 Y0.2906 I0.0234 J0.0406
G2 X0.7969 Y0.2509 I0.0234 J-0.0406
G0 Z0.125
G0 X0.7531 Y0.2501
G0 Z0.0
G1 F4.0 Z-0.0938
G1 F8.0 Y0.25
G2 X0.7484 Y0.2473 I-0.0031 J0.0
G2 Y0.2527 I0.0016 J0.0027
G2 X0.7531 Y0.2501 I0.0016 J-0.0027
G1 F4.0 X0.7594 Y0.2502
G2 F8.0 Y0.25 I-0.0094 J-0.0002
G2 X0.7453 Y0.2419 I-0.0094 J0.0
G2 Y0.2581 I0.0047 J0.0081
G2 X0.7594 Y0.2502 I0.0047 J-0.0081
G1 F4.0 X0.7719 Y0.2504
G2 F8.0 Y0.25 I-0.0219 J-0.0004
G2 X0.7391 Y0.2311 I-0.0219 J0.0
G2 Y0.2689 I0.0109 J0.0189
G2 X0.7719 Y0.2504 I0.0109 J-0.0189
G1 F4.0 X0.7844 Y0.2506
G2 F8.0 Y0.25 I-0.0344 J-0.0006
G2 X0.7328 Y0.2202 I-0.0344 J0.0
G2 Y0.2798 I0.0172 J0.0298
G2 X0.7844 Y0.2506 I0.0172 J-0.0298
G1 F4.0 X0.7969 Y0.2509
G2 F8.0 Y0.25 I-0.0469 J-0.0009
G2 X0.7266 Y0.2094 I-0.0469 J0.0
G2 Y0.2906 I0.0234 J0.0406
G2 X0.7969 Y0.2509 I0.0234 J-0.0406
G0 Z0.125
G0 X0.7531 Y0.2501
G0 Z-0.0323
G1 F4.0 Z-0.126
G1 F8.0 Y0.25
G2 X0.7484 Y0.2473 I-0.0031 J0.0
G2 Y0.2527 I0.0016 J0.0027
G2 X0.7531 Y0.2501 I0.0016 J-0.0027
G1 F4.0 X0.7594 Y0.2502
G2 F8.0 Y0.25 I-0.0094 J-0.0002
G2 X0.7453 Y0.2419 I-0.0094 J0.0
G2 Y0.2581 I0.0047 J0.0081
G2 X0.7594 Y0.2502 I0.0047 J-0.0081
G1 F4.0 X0.7719 Y0.2504
G2 F8.0 Y0.25 I-0.0219 J-0.0004
G2 X0.7391 Y0.2311 I-0.0219 J0.0
G2 Y0.2689 I0.0109 J0.0189
G2 X0.7719 Y0.2504 I0.0109 J-0.0189
G1 F4.0 X0.7844 Y0.2506
G2 F8.0 Y0.25 I-0.0344 J-0.0006
G2 X0.7328 Y0.2202 I-0.0344 J0.0
G2 Y0.2798 I0.0172 J0.0298
G2 X0.7844 Y0.2506 I0.0172 J-0.0298
G1 F4.0 X0.7969 Y0.2509
G2 F8.0 Y0.25 I-0.0469 J-0.0009
G2 X0.7266 Y0.2094 I-0.0469 J0.0
G2 Y0.2906 I0.0234 J0.0406
G2 X0.7969 Y0.2509 I0.0234 J-0.0406
( Pocket3 )
S10000
G0 Z0.125
G0 X1.0719 Y0.5719
G0 Z0.0625
G1 F4.0 Z-0.02
G1 F8.0 Y0.5766
G3 X1.0766 Y0.5719 I0.0531 J0.0484
G1 X1.0719
G1 F4.0 X1.0656
G1 F8.0 Y0.5971
G3 X1.0971 Y0.5656 I0.0594 J0.0279
G1 X1.0656
G1 Y0.5719
G0 Z0.125
G0 X1.0719 Y2.4234
G0 Z0.0625
G1 F4.0 Z-0.02
G1 F8.0 Y2.4281
G1 X1.0766
G3 X1.0719 Y2.4234 I0.0484 J-0.0531
G1 F4.0 X1.0765 Y2.4192
G3 F8.0 X1.0656 Y2.4029 I0.0485 J-0.0442
G1 Y2.4344
G1 X1.0971
G3 X1.0765 Y2.4192 I0.0279 J-0.0594
G0 Z0.125
G0 X2.9234 Y2.4281
G0 Z0.0625
G1 F4.0 Z-0.02
G1 F8.0 X2.9281
G1 Y2.4234
G3 X2.9234 Y2.4281 I-0.0531 J-0.0484
G1 F4.0 X2.9192 Y2.4235
G3 F8.0 X2.9029 Y2.4344 I-0.0442 J-0.0485
G1 X2.9344
G1 Y2.4029
G3 X2.9192 Y2.4235 I-0.0594 J-0.0279
G0 Z0.125
G0 X2.9281 Y0.5766
G0 Z0.0625
G1 F4.0 Z-0.02
G1 F8.0 Y0.5719
G1 X2.9234
G3 X2.9281 Y0.5766 I-0.0484 J0.0531
G1 F4.0 X2.9344
G1 F8.0 Y0.5656
G1 X2.9029
G3 X2.9344 Y0.5971 I-0.0279 J0.0594
G1 Y0.5766
G0 Z0.125
G0 X2.8968 Y0.6073
G0 Z0.0625
G1 F4.0 Z-0.02
G3 F8.0 X2.9031 Y0.625 I-0.0218 J0.0177
G1 Y2.375
G3 X2.875 Y2.4031 I-0.0281 J0.0
G1 X1.125
G3 X1.0969 Y2.375 I0.0 J-0.0281
G1 Y0.625
G3 X1.125 Y0.5969 I0.0281 J0.0
G1 X2.875
G3 X2.8968 Y0.6073 I0.0 J0.0281
G1 F4.0 X2.8871 Y0.6151
G3 F8.0 X2.8906 Y0.625 I-0.0121 J0.0099
G1 Y2.375
G3 X2.875 Y2.3906 I-0.0156 J0.0
G1 X1.125
G3 X1.1094 Y2.375 I0.0 J-0.0156
G1 Y0.625
G3 X1.125 Y0.6094 I0.0156 J0.0
G1 X2.875
G3 X2.8871 Y0.6151 I0.0 J0.0156
G0 Z0.125
G0 X2.9065 Y0.5994
G0 Z0.0625
G1 F4.0 Z-0.02
G2 F8.0 X2.875 Y0.5844 I-0.0315 J0.0256
G1 X1.125
G2 X1.0844 Y0.625 I0.0 J0.0406
G1 Y2.375
G2 X1.125 Y2.4156 I0.0406 J0.0
G1 X2.875
G2 X2.9156 Y2.375 I0.0 J-0.0406
G1 Y0.625
G2 X2.9065 Y0.5994 I-0.0406 J0.0
G1 F4.0 X2.9162 Y0.5915
G2 F8.0 X2.875 Y0.5719 I-0.0412 J0.0335
G1 X1.125
G2 X1.0719 Y0.625 I0.0 J0.0531
G1 Y2.375
G2 X1.125 Y2.4281 I0.0531 J0.0
G1 X2.875
G2 X2.9281 Y2.375 I0.0 J-0.0531
G1 Y0.625
G2 X2.9162 Y0.5915 I-0.0531 J0.0
G0 Z0.125
G0 X2.9469
G0 Z0.0625
G1 F4.0 Z-0.02
G1 F8.0 Y0.5531
G1 X1.0531
G1 Y2.4469
G1 X2.9469
G1 Y0.5915
G1 F4.0 X2.9594
G1 F8.0 Y0.5406
G1 X1.0406
G1 Y2.4594
G1 X2.9594
G1 Y0.5915
G1 F4.0 X2.9719
G1 F8.0 Y0.5281
G1 X1.0281
G1 Y2.4719
G1 X2.9719
G1 Y0.5915
G1 F4.0 X2.9844
G1 F8.0 Y0.5156
G1 X1.0156
G1 Y2.4844
G1 X2.9844
G1 Y0.5915
G0 Z0.125
G0 X2.2912 Y1.3969
G0 Z0.0625
G1 F4.0 Z-0.02
G1 F8.0 X2.2827
G3 X2.2837 Y1.4016 I-0.0634 J0.0163
G3 X2.2855 Y1.4217 I-0.0994 J0.0191
G1 Y1.6297
G3 X2.2801 Y1.6516 I-0.0469 J0.0
G3 X2.2855 Y1.6734 I-0.0415 J0.0219
G1 Y1.8686
G3 X2.2843 Y1.8852 I-0.0685 J0.0031
G1 X2.2911
G3 X2.2891 Y1.8665 I0.0784 J-0.0178
G1 Y1.4171
G3 X2.291 Y1.3978 I0.0875 J-0.0008
G3 X2.2912 Y1.3969 I0.061 J0.0125
G1 F4.0 X2.2973 Y1.3982
G3 F8.0 X2.2996 Y1.3906 I0.0547 J0.0121
G1 X2.274
G3 X2.2776 Y1.4028 I-0.0547 J0.0225
G3 X2.2793 Y1.4217 I-0.0932 J0.018
G1 Y1.6297
G3 X2.2729 Y1.6516 I-0.0406 J0.0
G3 X2.2793 Y1.6734 I-0.0342 J0.0219
G1 Y1.8687
G3 X2.2762 Y1.8914 I-0.0622 J0.0029
G1 X2.2994
G3 X2.2974 Y1.8848 I0.0509 J-0.019
G3 X2.2953 Y1.8665 I0.072 J-0.0175
G1 Y1.417
G3 X2.2971 Y1.3991 I0.0812 J-0.0008
G3 X2.2973 Y1.3982 I0.0548 J0.0112
G1 F4.0 X2.3095 Y1.4009
G3 F8.0 X2.3221 Y1.3788 I0.0425 J0.0094
G3 X2.3228 Y1.3781 I0.0194 J0.0204
G1 X2.2501
G3 X2.2523 Y1.3801 I-0.0177 J0.0219
G3 X2.2653 Y1.405 I-0.033 J0.033
G3 X2.2668 Y1.4216 I-0.0809 J0.0157
G1 Y1.6297
G3 X2.2563 Y1.6516 I-0.0281 J0.0
G3 X2.2668 Y1.6734 I-0.0177 J0.0219
G1 Y1.869
G3 X2.2586 Y1.8991 I-0.0497 J0.0026
G3 X2.2546 Y1.9039 I-0.0235 J-0.0155
G1 X2.3228
G3 X2.3096 Y1.8819 I0.0275 J-0.0315
G3 X2.3078 Y1.8666 I0.0599 J-0.0146
G1 Y1.417
G3 X2.3094 Y1.4017 I0.0687 J-0.0007
G3 X2.3095 Y1.4009 I0.0426 J0.0087
G0 Z0.125
G0 X2.1184 Y1.6495
G0 Z0.0625
G1 F4.0 Z-0.02
G1 F8.0 Y1.6533
G3 X2.1207 Y1.6514 I0.0734 J0.0911
G3 X2.1184 Y1.6495 I0.0701 J-0.0895
G1 F4.0 X2.1223 Y1.6447
G3 F8.0 X2.1121 Y1.6351 I0.0684 J-0.0828
G1 Y1.6674
G3 X2.1314 Y1.6515 I0.0797 J0.077
G3 X2.1223 Y1.6447 I0.0593 J-0.0896
G1 F4.0 X2.1303 Y1.6351
G3 F8.0 X2.1179 Y1.6227 I0.0605 J-0.0732
G3 X2.1177 Y1.6225 I0.0216 J-0.018
G3 X2.101 Y1.5933 I0.0786 J-0.0645
G3 X2.0996 Y1.5896 I0.1632 J-0.0617
G1 Y1.7104
G3 X2.1014 Y1.7059 I0.1527 J0.0588
G3 X2.1015 Y1.7058 I0.0259 J0.0109
G3 X2.1185 Y1.6789 I0.0897 J0.038
G3 X2.1561 Y1.6528 I0.0733 J0.0655
G3 X2.1564 Y1.6527 I0.0102 J0.0262
G3 X2.1596 Y1.6516 I0.0408 J0.1087
G3 X2.156 Y1.6503 I0.0375 J-0.1087
G3 X2.1557 Y1.6501 I0.01 J-0.0263
G3 X2.1303 Y1.6351 I0.0351 J-0.0882
G0 Z0.125
G0 X1.989 Y1.8727
G0 Z0.0625
G1 F4.0 Z-0.02
G1 F8.0 X1.9898 Y1.8914
G1 X2.0089
G3 X1.9976 Y1.8826 I0.1092 J-0.1514
G3 X1.9908 Y1.8752 I0.0262 J-0.031
G3 X1.989 Y1.8727 I0.1262 J-0.0903
G1 F4.0 X1.9993 Y1.8656
G3 F8.0 X1.9816 Y1.8299 I0.1177 J-0.0807
G3 X1.9738 Y1.8054 I0.374 J-0.1326
G1 X1.9778 Y1.9039
G1 X2.0591
G3 X2.0057 Y1.873 I0.059 J-0.1639
G3 X2.001 Y1.8679 I0.0182 J-0.0215
G3 X1.9993 Y1.8656 I0.116 J-0.083
G1 F4.0 X2.0096 Y1.8585
G3 F8.0 X1.9934 Y1.8258 I0.1073 J-0.0736
G3 X1.983 Y1.7915 I0.3622 J-0.1286
G3 X1.9709 Y1.7359 I0.8787 J-0.2206
G1 X1.9585
G1 X1.9658 Y1.9164
G1 X2.4109
G1 Y1.9031
G1 X2.3637
G3 X2.3504 Y1.9023 I-0.0008 J-0.0951
G3 X2.3325 Y1.8956 I0.0039 J-0.0379
G3 X2.3313 Y1.8947 I0.009 J-0.0128
G3 X2.3217 Y1.879 I0.019 J-0.0223
G3 X2.3203 Y1.8667 I0.0477 J-0.0117
G1 Y1.4169
G3 X2.3216 Y1.4043 I0.0562 J-0.0007
G3 X2.3307 Y1.3879 I0.0304 J0.0061
G3 X2.3317 Y1.3869 I0.0108 J0.0113
G3 X2.3485 Y1.3798 I0.0214 J0.0271
G3 X2.361 Y1.3789 I0.0118 J0.0741
G1 X2.4109
G1 Y1.3656
G1 X2.1543
G1 Y1.3789
G1 X2.2062
G3 X2.2216 Y1.3799 I0.0009 J0.1083
G3 X2.2412 Y1.3871 I-0.0045 J0.0426
G3 X2.2435 Y1.3889 I-0.0088 J0.0129
G3 X2.253 Y1.4073 I-0.0242 J0.0242
G3 X2.2543 Y1.4216 I-0.0686 J0.0135
G1 Y1.6297
G3 X2.2387 Y1.6453 I-0.0156 J0.0
G1 X2.1986
G3 X2.1605 Y1.6386 I-0.0015 J-0.1025
G3 X2.1603 Y1.6385 I0.0056 J-0.0146
G3 X2.1275 Y1.6147 I0.0305 J-0.0766
G3 X2.1274 Y1.6146 I0.012 J-0.01
G3 X2.1127 Y1.5889 I0.0689 J-0.0566
G3 X2.1052 Y1.563 I0.1515 J-0.0573
G1 Y1.5629
G3 X2.1004 Y1.5273 I0.3156 J-0.0606
G1 X2.0871
G1 Y1.7672
G1 X2.1004
G3 X2.1028 Y1.7469 I0.2782 J0.0226
G3 X2.1129 Y1.7107 I0.1495 J0.0223
G1 X2.113
G3 X2.1278 Y1.6873 I0.0782 J0.0332
G1 Y1.6872
G3 X2.1606 Y1.6645 I0.064 J0.0571
G3 X2.1608 Y1.6644 I0.0057 J0.0146
G3 X2.1985 Y1.6578 I0.0364 J0.097
G1 X2.2387
G3 X2.2543 Y1.6734 I0.0 J0.0156
G1 Y1.8694
G3 X2.2482 Y1.8922 I-0.0372 J0.0023
G3 X2.2445 Y1.8961 I-0.013 J-0.0086
G3 X2.2209 Y1.9031 I-0.0213 J-0.0285
G1 X2.1305
G3 X2.0693 Y1.8941 I-0.0019 J-0.2002
G3 X2.0692 I0.0046 J-0.0149
G3 X2.0137 Y1.8635 I0.049 J-0.1541
G3 X2.0111 Y1.8607 I0.0101 J-0.0119
G3 X2.0096 Y1.8585 I0.1059 J-0.0758
G0 Z0.125
G0 X1.7943 Y1.6774
G0 Z0.0625
G1 F4.0 Z-0.02
G3 F8.0 X1.7667 Y1.7008 I-0.0825 J-0.0694
G3 X1.7665 Y1.7009 I-0.008 J-0.0134
G3 X1.7238 Y1.7121 I-0.0421 J-0.0738
G3 X1.6856 Y1.703 I-0.0004 J-0.0835
G3 X1.6854 Y1.7029 I0.0071 J-0.0139
G3 X1.6558 Y1.6794 I0.0471 J-0.0896
G3 X1.6277 Y1.603 I0.0828 J-0.0738
G3 X1.6288 Y1.5874 I0.1028 J-0.0007
G3 X1.6365 Y1.5675 I0.0429 J0.0052
G3 X1.6374 Y1.5664 I0.0127 J0.009
G3 X1.6652 Y1.5543 I0.0264 J0.0227
G1 X1.8121
G3 X1.8277 Y1.57 I0.0 J0.0156
G3 X1.8215 Y1.6223 I-0.2286 J-0.0006
G3 X1.7981 Y1.6727 I-0.1314 J-0.0306
G3 X1.7943 Y1.6774 I-0.0863 J-0.0647
G0 Z0.125
G0 X1.8517 Y1.5921
G0 Z0.0625
G1 F4.0 Z-0.02
G2 F8.0 X1.8594 Y1.5329 I-0.2054 J-0.0568
G3 Y1.532 I0.0406 J-0.0005
G2 X1.8497 Y1.4713 I-0.1819 J-0.0021
G2 X1.8446 Y1.4588 I-0.1318 J0.0465
G3 X1.8459 Y1.465 I-0.1516 J0.0363
G3 X1.8527 Y1.5265 I-0.3064 J0.065
G3 X1.8466 Y1.5485 I-0.0406 J0.0004
G3 X1.8527 Y1.57 I-0.0345 J0.0215
G3 X1.8517 Y1.5921 I-0.2536 J-0.0007
G1 F4.0 X1.8392 Y1.591
G3 F8.0 X1.8337 Y1.6252 I-0.2401 J-0.0216
G3 X1.8093 Y1.6784 I-0.1436 J-0.0335
G2 X1.8285 Y1.6603 I-0.0879 J-0.1125
G3 X1.8286 Y1.6602 I0.0211 J0.0186
G2 X1.8618 Y1.602 I-0.1191 J-0.1064
G2 X1.8719 Y1.5327 I-0.2155 J-0.0667
G3 Y1.5321 I0.0281 J-0.0003
G2 X1.8615 Y1.4672 I-0.1944 J-0.0022
G2 X1.8284 Y1.4131 I-0.1436 J0.0506
G3 X1.8281 Y1.4128 I0.0204 J-0.0194
G2 X1.7604 Y1.3721 I-0.1031 J0.0948
G3 X1.805 Y1.4056 I-0.0521 J0.1157
G3 X1.8057 Y1.4064 I-0.0214 J0.0182
G3 X1.8337 Y1.4675 I-0.1127 J0.0886
G3 X1.8402 Y1.5266 I-0.2942 J0.0625
G3 X1.8302 Y1.5485 I-0.0281 J0.0003
G3 X1.8402 Y1.57 I-0.0181 J0.0215
G3 X1.8392 Y1.591 I-0.2411 J-0.0006
G0 Z0.125
G0 X1.6083 Y1.5676
G0 Z0.0625
G1 F4.0 Z-0.02
G1 F8.0 X1.5985
G2 X1.599 Y1.5723 I0.4052 J-0.0441
G3 Y1.5726 I-0.0403 J0.0049
G2 X1.603 Y1.5949 I0.1815 J-0.0205
G3 X1.6041 Y1.584 I0.1275 J0.0074
G3 X1.6083 Y1.5676 I0.0676 J0.0085
G1 F4.0 Y1.5551
G1 F8.0 X1.5848
G2 X1.5866 Y1.5738 I0.4189 J-0.0316
G3 Y1.574 I-0.0279 J0.0034
G2 X1.5964 Y1.6168 I0.1939 J-0.0219
G2 X1.638 Y1.6771 I0.1349 J-0.0485
G3 X1.6153 Y1.6029 I0.1006 J-0.0714
G3 X1.6165 Y1.5857 I0.1152 J-0.0006
G3 X1.6263 Y1.5603 I0.0552 J0.0068
G3 X1.6279 Y1.5582 I0.0229 J0.0163
G3 X1.6309 Y1.5551 I0.0358 J0.0308
G1 X1.6083
G1 F4.0 Y1.5426
G1 F8.0 X1.5715
G2 X1.5742 Y1.5753 I0.4322 J-0.0191
G3 Y1.5754 I-0.0155 J0.0019
G2 X1.5846 Y1.6209 I0.2064 J-0.0233
G2 X1.6392 Y1.694 I0.1466 J-0.0527
G2 X1.6794 Y1.7134 I0.0768 J-0.1074
G2 X1.7245 Y1.7195 I0.0439 J-0.155
G3 X1.7248 I0.0001 J0.0156
G2 X1.7869 Y1.7067 I0.0016 J-0.149
G2 X1.8379 Y1.6686 I-0.0655 J-0.1408
G3 X1.838 Y1.6685 I0.0117 J0.0103
G2 X1.8737 Y1.6058 I-0.1284 J-0.1148
G2 X1.8844 Y1.5326 I-0.2275 J-0.0704
G3 Y1.5322 I0.0156 J-0.0002
G2 X1.8733 Y1.4631 I-0.2069 J-0.0024
G2 X1.8375 Y1.4045 I-0.1554 J0.0547
G3 X1.8373 Y1.4043 I0.0113 J-0.0108
G2 X1.7222 Y1.3551 I-0.1123 J0.1033
G3 X1.7217 I-0.0003 J-0.0156
G2 X1.6493 Y1.3723 I-0.002 J0.1522
G2 X1.593 Y1.4221 I0.0831 J0.1508
G3 X1.5929 Y1.4222 I-0.0127 J-0.0092
G2 X1.5738 Y1.4517 I0.2262 J0.1674
G1 X1.5818 Y1.455
G3 X1.6249 Y1.4035 I0.1871 J0.113
G3 X1.625 Y1.4034 I0.0103 J0.0118
G3 X1.7057 Y1.3734 I0.0809 J0.0939
G3 X1.7955 Y1.4137 I0.0027 J0.1144
G3 X1.7959 Y1.4142 I-0.0119 J0.0101
G3 X1.8214 Y1.47 I-0.1029 J0.0809
G3 X1.8277 Y1.5268 I-0.2819 J0.06
G3 X1.8121 Y1.5426 I-0.0156 J0.0002
G1 X1.6083
G0 Z0.125
G0 Y2.0081
G0 Z0.0625
G1 F4.0 Z-0.02
G1 F8.0 X1.5968
G3 X1.6044 Y2.0279 I-0.0205 J0.0192
G1 X1.6179 Y2.0081
G1 X1.6083
G1 F4.0 Y1.9956
G1 F8.0 X1.4792
G1 Y2.0117
G1 X1.5763
G3 X1.5894 Y2.0359 I0.0 J0.0156
G1 X1.5279 Y2.1297
G1 X1.5278
G2 X1.5112 Y2.1582 I0.2451 J0.162
G1 Y2.1583
G2 X1.4997 Y2.1876 I0.1366 J0.0705
G2 X1.497 Y2.2066 I0.0724 J0.0199
G1 Y2.2067
G2 X1.5018 Y2.2326 I0.0658 J0.0011
G2 X1.5171 Y2.2524 I0.0468 J-0.0203
G2 X1.5454 Y2.2662 I0.0458 J-0.058
G2 X1.5794 Y2.2701 I0.0325 J-0.1317
G3 X1.5797 I0.0002 J0.0156
G2 X1.6219 Y2.2582 I0.0007 J-0.0781
G3 X1.6223 Y2.258 I0.0083 J0.0132
G2 X1.6431 Y2.2394 I-0.037 J-0.0622
G1 X1.6312 Y2.23
G3 X1.6167 Y2.2436 I-0.0682 J-0.058
G3 X1.6165 Y2.2438 I-0.0094 J-0.0125
G3 X1.5777 Y2.2561 I-0.0383 J-0.0534
G3 X1.5502 Y2.2516 I-0.0017 J-0.0765
G3 X1.5249 Y2.2273 I0.0145 J-0.0405
G3 X1.5247 Y2.227 I0.0145 J-0.0059
G3 X1.5211 Y2.2062 I0.0521 J-0.0198
G3 X1.5244 Y2.183 I0.0896 J0.0011
G3 X1.5319 Y2.1626 I0.1331 J0.0369
G1 X1.532 Y2.1625
G3 X1.5524 Y2.1268 I0.2196 J0.1019
G1 X1.6415 Y1.9956
G1 X1.6083
G0 Z0.125
G0 X1.3766 Y2.0507
G0 Z0.0625
G1 F4.0 Z-0.02
G3 F8.0 X1.377 Y2.0527 I-0.0674 J0.016
G3 X1.3793 Y2.0758 I-0.1083 J0.0224
G3 X1.373 Y2.1104 I-0.0861 J0.0022
G3 X1.3729 Y2.1107 I-0.0145 J-0.0059
G3 X1.3422 Y2.1391 I-0.0471 J-0.0201
G1 X1.3421
G3 X1.3177 Y2.1429 I-0.0234 J-0.0704
G3 X1.275 Y2.1221 I-0.0008 J-0.0525
G3 X1.2629 Y2.0976 I0.0513 J-0.0408
G3 X1.2598 Y2.0729 I0.0925 J-0.0238
G3 X1.2627 Y2.0491 I0.0948 J-0.0009
G3 X1.2745 Y2.025 I0.0608 J0.015
G3 X1.2746 Y2.0249 I0.0122 J0.0098
G3 X1.2941 Y2.0101 I0.0403 J0.0329
G3 X1.2943 Y2.01 I0.0063 J0.0143
G3 X1.317 Y2.0056 I0.0221 J0.0531
G3 X1.3458 Y2.0112 I0.0014 J0.0694
G3 X1.3462 Y2.0114 I-0.0062 J0.0144
G3 X1.3702 Y2.0339 I-0.0215 J0.047
G3 X1.3766 Y2.0507 I-0.061 J0.0328
G0 Z0.125
G0 X1.3819 Y2.1323
G0 Z0.0625
G1 F4.0 Z-0.02
G3 F8.0 X1.3764 Y2.1388 I-0.0561 J-0.0417
G3 X1.3794 Y2.1422 I-0.0245 J0.0241
G2 X1.3819 Y2.1323 I-0.1228 J-0.0363
G1 F4.0 X1.388 Y2.1336
G2 F8.0 X1.3909 Y2.1068 I-0.1314 J-0.0277
G2 X1.3906 Y2.0934 I-0.2269 J-0.0014
G3 X1.3845 Y2.1151 I-0.0974 J-0.0153
G3 X1.3844 Y2.1156 I-0.026 J-0.0106
G3 X1.367 Y2.1391 I-0.0586 J-0.025
G3 X1.3799 Y2.1593 I-0.015 J0.0238
G2 X1.3815 Y2.1553 I-0.1918 J-0.0808
G2 X1.388 Y2.1336 I-0.1248 J-0.0494
G1 F4.0 X1.4002 Y2.1362
G2 F8.0 X1.4034 Y2.1068 I-0.1436 J-0.0303
G2 X1.4007 Y2.0694 I-0.2394 J-0.0015
G1 Y2.0693
G2 X1.3907 Y2.035 I-0.1301 J0.0191
G2 X1.3787 Y2.0162 I-0.072 J0.0327
G2 X1.3554 Y1.9991 I-0.0495 J0.0431
G2 X1.3144 Y1.9915 I-0.0388 J0.095
G3 X1.3138 I-0.0003 J-0.0156
G2 X1.2837 Y1.997 I-0.0009 J0.0806
G2 X1.2589 Y2.0139 I0.0268 J0.0658
G3 X1.2588 Y2.014 I-0.0113 J-0.0107
G2 X1.242 Y2.0415 I0.0537 J0.0519
G2 X1.2367 Y2.0748 I0.0958 J0.0321
G3 Y2.0752 I-0.0156 J0.0002
G2 X1.2417 Y2.1083 I0.1039 J0.0014
G2 X1.2581 Y2.1352 I0.0659 J-0.0218
G3 X1.2582 Y2.1353 I-0.0111 J0.0109
G2 X1.2835 Y2.1518 I0.0485 J-0.0467
G2 X1.3148 Y2.1569 I0.0301 J-0.0854
G2 X1.3295 Y2.1547 I-0.001 J-0.0548
G3 X1.3296 Y2.1546 I0.0045 J0.015
G2 X1.3454 Y2.1487 I-0.0323 J-0.1106
G3 X1.3666 Y2.1685 I0.0065 J0.0142
G3 X1.3501 Y2.1994 I-0.1318 J-0.0503
G3 X1.3288 Y2.2252 I-0.1725 J-0.1208
G3 X1.2868 Y2.26 I-0.1672 J-0.1592
G1 X1.2949 Y2.2686
G2 X1.3303 Y2.2481 I-0.0373 J-0.1051
G2 X1.3658 Y2.2091 I-0.1352 J-0.1589
G3 X1.366 Y2.2089 I0.0128 J0.009
G2 X1.3931 Y2.16 I-0.1779 J-0.1304
G2 X1.4002 Y2.1362 I-0.1364 J-0.054
( Pocket2 )
S10000
G0 Z0.125
G0 X2.3009 Y0.6984
G0 Z0.0625
G1 F4.0 Z-0.02
G2 F8.0 X2.2926 Y0.6947 I-0.0266 J0.0493
G2 X2.2895 Y0.6938 I-0.0194 J0.0577
G3 X2.2971 Y0.6971 I-0.0231 J0.0625
G1 X2.2972 Y0.6972
G3 X2.3006 Y0.699 I-0.0526 J0.0998
G1 X2.3009 Y0.6984
G0 Z0.125
G0 X2.2564 Y0.6931
G0 Z0.0625
G1 F4.0 Z-0.02
G2 F8.0 X2.2483 Y0.6955 I0.0113 J0.0531
G3 X2.2482 I-0.005 J-0.0131
G2 X2.2317 Y0.7086 I0.0119 J0.0319
G2 X2.2257 Y0.7228 I0.0397 J0.0254
G2 X2.2231 Y0.7456 I0.0901 J0.0217
G3 Y0.746 I-0.014 J0.0002
G2 X2.2256 Y0.765 I0.0673 J0.0009
G2 X2.2337 Y0.7795 I0.0345 J-0.0097
G2 X2.2464 Y0.7877 I0.0225 J-0.0211
G2 X2.2605 Y0.7902 I0.0165 J-0.051
G3 X2.256 Y0.7891 I0.0111 J-0.0567
G3 X2.2384 Y0.778 I0.0095 J-0.0344
G3 X2.238 Y0.7775 I0.0106 J-0.0091
G3 X2.2296 Y0.7588 I0.034 J-0.0265
G3 X2.2281 Y0.7425 I0.0792 J-0.0157
G3 X2.2319 Y0.7176 I0.0721 J-0.0015
G3 X2.2535 Y0.6942 I0.0372 J0.0126
G3 X2.2539 Y0.694 I0.0056 J0.0128
G3 X2.2564 Y0.6931 I0.0182 J0.0457
G0 Z0.125
G0 X2.2997 Y0.7823
G0 Z0.0625
G1 F4.0 Z-0.02
G3 F8.0 X2.2952 Y0.7851 I-0.0392 J-0.0577
G3 X2.2893 Y0.788 I-0.0232 J-0.0405
G3 X2.2972 Y0.8006 I-0.0061 J0.0126
G1 Y0.8326
G3 X2.2885 Y0.8456 I-0.014 J0.0
G1 X2.2997
G1 Y0.7823
G1 F4.0 X2.3037
G1 F8.0 Y0.7764
G1 X2.3022 Y0.7754
G3 X2.2932 Y0.7816 I-0.0418 J-0.0508
G3 X2.2725 Y0.7873 I-0.0212 J-0.037
G3 X2.2571 Y0.7853 I-0.0008 J-0.0538
G3 X2.2414 Y0.7754 I0.0084 J-0.0306
G3 X2.2411 Y0.775 I0.0076 J-0.0065
G3 X2.2335 Y0.7581 I0.0309 J-0.024
G3 X2.2321 Y0.7424 I0.0753 J-0.0149
G3 X2.2357 Y0.7189 I0.0681 J-0.0015
G3 X2.2551 Y0.6979 I0.0334 J0.0113
G3 X2.2553 Y0.6978 I0.004 J0.0092
G3 X2.273 Y0.6945 I0.0168 J0.042
G3 X2.285 Y0.6965 I-0.0006 J0.042
G3 X2.2953 Y0.7007 I-0.0186 J0.0598
G3 X2.3023 Y0.7047 I-0.0508 J0.0963
G1 X2.3061 Y0.6968
G2 X2.2939 Y0.6909 I-0.0318 J0.0509
G2 X2.2728 Y0.6876 I-0.0206 J0.0615
G3 X2.2727 I-0.0001 J-0.01
G2 X2.2592 Y0.6885 I-0.0004 J0.0886
G2 X2.2469 Y0.6918 I0.0085 J0.0577
G1 X2.2468
G2 X2.2284 Y0.7065 I0.0133 J0.0356
G2 X2.2218 Y0.7219 I0.0431 J0.0275
G2 X2.2191 Y0.7457 I0.0939 J0.0227
G3 Y0.7459 I-0.01 J0.0001
G2 X2.2217 Y0.7661 I0.0713 J0.0009
G2 X2.2307 Y0.7822 I0.0383 J-0.0108
G2 X2.2451 Y0.7915 I0.0254 J-0.0238
G2 X2.2638 Y0.7943 I0.0178 J-0.0548
G3 X2.2642 I0.0001 J0.01
G2 X2.2793 Y0.7914 I0.0009 J-0.0367
G3 X2.2932 Y0.8006 I0.0039 J0.0092
G1 Y0.8326
G3 X2.2832 Y0.8426 I-0.01 J0.0
G1 X2.2274
G1 Y0.8496
G1 X2.3037
G1 Y0.7823
G0 Z0.125
G0 X2.1532
G0 Z0.0625
G1 F4.0 Z-0.02
G3 F8.0 X2.1487 Y0.7851 I-0.0392 J-0.0577
G3 X2.1428 Y0.788 I-0.0232 J-0.0405
G3 X2.1507 Y0.8006 I-0.0061 J0.0126
G1 Y0.8326
G3 X2.142 Y0.8456 I-0.014 J0.0
G1 X2.1532
G1 Y0.7823
G0 Z0.125
G0 X2.1141 Y0.7902
G0 Z0.0625
G1 F4.0 Z-0.02
G3 F8.0 X2.1095 Y0.7891 I0.0111 J-0.0567
G3 X2.0919 Y0.778 I0.0095 J-0.0344
G3 X2.0915 Y0.7775 I0.0106 J-0.0091
G3 X2.0831 Y0.7588 I0.034 J-0.0265
G3 X2.0816 Y0.7425 I0.0792 J-0.0157
G3 X2.0854 Y0.7176 I0.0721 J-0.0015
G3 X2.107 Y0.6942 I0.0372 J0.0126
G3 X2.1074 Y0.694 I0.0056 J0.0128
G3 X2.11 Y0.6931 I0.0182 J0.0457
G2 X2.1018 Y0.6955 I0.0113 J0.0531
G3 X2.1017 I-0.005 J-0.0131
G2 X2.0853 Y0.7086 I0.0119 J0.0319
G2 X2.0792 Y0.7228 I0.0397 J0.0254
G2 X2.0766 Y0.7456 I0.0901 J0.0217
G3 Y0.746 I-0.014 J0.0002
G2 X2.0791 Y0.765 I0.0673 J0.0009
G2 X2.0872 Y0.7795 I0.0345 J-0.0097
G2 X2.0999 Y0.7877 I0.0225 J-0.0211
G2 X2.1141 Y0.7902 I0.0165 J-0.051
G0 Z0.125
G0 X2.1541 Y0.699
G0 Z0.0625
G1 F4.0 Z-0.02
G1 F8.0 X2.1544 Y0.6984
G2 X2.1461 Y0.6947 I-0.0266 J0.0493
G2 X2.1431 Y0.6938 I-0.0194 J0.0577
G3 X2.1506 Y0.6971 I-0.0231 J0.0625
G1 X2.1507 Y0.6972
G3 X2.1541 Y0.699 I-0.0526 J0.0998
G1 F4.0 X2.1521 Y0.7025
G3 F8.0 X2.1558 Y0.7047 I-0.054 J0.0945
G1 X2.1596 Y0.6968
G2 X2.1474 Y0.6909 I-0.0318 J0.0509
G2 X2.1263 Y0.6876 I-0.0206 J0.0615
G3 X2.1262 I-0.0001 J-0.01
G2 X2.1128 Y0.6885 I-0.0004 J0.0886
G1 X2.1127
G2 X2.1004 Y0.6918 I0.0085 J0.0577
G1 X2.1003
G2 X2.0819 Y0.7065 I0.0133 J0.0356
G2 X2.0753 Y0.7219 I0.0431 J0.0275
G2 X2.0726 Y0.7457 I0.0939 J0.0227
G3 Y0.7459 I-0.01 J0.0001
G2 X2.0753 Y0.7661 I0.0713 J0.0009
G2 X2.0842 Y0.7822 I0.0383 J-0.0108
G2 X2.0987 Y0.7915 I0.0254 J-0.0238
G2 X2.1173 Y0.7943 I0.0178 J-0.0548
G3 X2.1177 I0.0001 J0.01
G2 X2.1328 Y0.7914 I0.0009 J-0.0367
G3 X2.1467 Y0.8006 I0.0039 J0.0092
G1 Y0.8326
G3 X2.1367 Y0.8426 I-0.01 J0.0
G1 X2.0809
G1 Y0.8496
G1 X2.1572
G1 Y0.7764
G1 X2.1558 Y0.7754
G3 X2.1467 Y0.7816 I-0.0418 J-0.0508
G3 X2.126 Y0.7873 I-0.0212 J-0.037
G3 X2.1106 Y0.7853 I-0.0008 J-0.0538
G3 X2.095 Y0.7754 I0.0084 J-0.0306
G3 X2.0946 Y0.775 I0.0076 J-0.0065
G3 X2.087 Y0.7581 I0.0309 J-0.024
G3 X2.0856 Y0.7424 I0.0753 J-0.0149
G3 X2.0892 Y0.7189 I0.0681 J-0.0015
G3 X2.1086 Y0.6979 I0.0334 J0.0113
G3 X2.1089 Y0.6978 I0.004 J0.0092
G3 X2.1265 Y0.6945 I0.0168 J0.042
G3 X2.1385 Y0.6965 I-0.0006 J0.042
G3 X2.1488 Y0.7007 I-0.0186 J0.0598
G3 X2.1521 Y0.7025 I-0.0508 J0.0963
G0 Z0.125
G0 X2.0067 Y0.6965
G0 Z0.0625
G1 F4.0 Z-0.02
G2 F8.0 Y0.6963 I-0.0031 J-0.0001
G3 Y0.6957 I0.018 J-0.0004
G2 X2.0056 Y0.6931 I-0.0035 J-0.0001
G3 X2.0054 Y0.6929 I0.0127 J-0.0128
G2 X2.003 Y0.6919 I-0.0024 J0.0023
G3 X2.0024 I-0.0003 J-0.018
G2 X2.0002 Y0.6928 I-0.0001 J0.0029
G3 X1.9997 Y0.6933 I-0.013 J-0.0124
G2 X1.9987 Y0.6957 I0.0023 J0.0024
G3 Y0.6963 I-0.018 J0.0003
G2 X1.9996 Y0.6985 I0.0029 J0.0001
G3 X2.0002 Y0.6991 I-0.0124 J0.013
G2 X2.0024 Y0.7 I0.0021 J-0.002
G3 X2.003 I0.0003 J0.018
G2 X2.0054 Y0.699 I0.0001 J-0.0033
G3 X2.0057 Y0.6986 I0.0129 J0.0125
G2 X2.0067 Y0.6965 I-0.0022 J-0.0022
G1 F4.0 X2.0147 Y0.6969
G2 F8.0 Y0.6962 I-0.0111 J-0.0005
G3 Y0.6958 I0.01 J-0.0002
G2 X2.0113 Y0.6875 I-0.0115 J-0.0002
G3 X2.0111 Y0.6873 I0.007 J-0.0071
G2 X2.0028 Y0.6839 I-0.0081 J0.0079
G3 X2.0025 I-0.0002 J-0.01
G2 X1.9944 Y0.6873 I-0.0002 J0.0109
G3 X1.9941 Y0.6875 I-0.0072 J-0.0069
G2 X1.9907 Y0.6958 I0.0079 J0.0081
G3 Y0.6962 I-0.01 J0.0002
G2 X1.9941 Y0.7043 I0.0109 J0.0002
G3 X1.9944 Y0.7046 I-0.0069 J0.0072
G2 X2.0025 Y0.708 I0.0079 J-0.0075
G3 X2.0028 I0.0002 J0.01
G2 X2.0111 Y0.7045 I0.0002 J-0.0113
G3 X2.0113 Y0.7043 I0.0072 J0.007
G2 X2.0147 Y0.6969 I-0.0078 J-0.0079
G0 Z0.125
G0 X1.9244 Y0.7181
G0 Z0.0625
G1 F4.0 Z-0.02
G2 F8.0 X1.9233 Y0.714 I-0.0511 J0.012
G2 X1.9154 Y0.7017 I-0.028 J0.0093
G2 X1.901 Y0.694 I-0.0238 J0.0268
G2 X1.8959 Y0.6928 I-0.018 J0.0663
G3 X1.9109 Y0.7023 I-0.0131 J0.0369
G3 X1.9111 Y0.7025 I-0.01 J0.0098
G3 X1.9221 Y0.7313 I-0.0295 J0.0278
G3 X1.9132 Y0.7587 I-0.0467 J0.0001
G2 X1.9199 Y0.7502 I-0.0324 J-0.0325
G3 X1.9201 Y0.7499 I0.0119 J0.0073
G2 X1.9258 Y0.731 I-0.0303 J-0.0195
G1 Y0.7309
G2 X1.9244 Y0.7181 I-0.0525 J-0.0008
G0 Z0.125
G0 X1.8979 Y0.7735
G0 Z0.0625
G1 F4.0 Z-0.02
G3 F8.0 X1.8914 Y0.7774 I-0.0383 J-0.0555
G3 X1.8874 Y0.7788 I-0.0066 J-0.0123
G3 X1.9045 Y0.7919 I-0.0251 J0.0506
G3 X1.9117 Y0.8021 I-0.0352 J0.0326
G3 X1.9156 Y0.8169 I-0.0292 J0.0155
G3 X1.9104 Y0.8359 I-0.0327 J0.0012
G3 X1.9097 Y0.8368 I-0.0117 J-0.0076
G3 X1.9012 Y0.8443 I-0.0237 J-0.0181
G2 X1.9099 Y0.839 I-0.0145 J-0.0332
G3 X1.91 I0.0089 J0.0108
G2 X1.917 Y0.8297 I-0.0157 J-0.0192
G2 X1.9194 Y0.8173 I-0.0291 J-0.0119
G2 X1.9151 Y0.8026 I-0.0295 J0.0005
G3 X1.9149 Y0.8022 I0.012 J-0.0072
G2 X1.9033 Y0.7895 I-0.0329 J0.0184
G3 X1.8979 Y0.7735 I0.0079 J-0.0116
G0 Z0.125
G0 X1.8762 Y0.7763
G0 Z0.0625
G1 F4.0 Z-0.02
G3 F8.0 X1.8653 Y0.7691 I0.0644 J-0.1088
G3 X1.8673 Y0.7804 I-0.0116 J0.0079
G3 X1.8724 Y0.7775 I0.0214 J0.0312
G3 X1.8762 Y0.7763 I0.006 J0.0126
G0 Z0.125
G0 X1.8586 Y0.7637
G0 Z0.0625
G1 F4.0 Z-0.02
G3 F8.0 X1.8454 Y0.7478 I0.0421 J-0.0482
G3 X1.8453 Y0.7476 I0.0121 J-0.0071
G3 X1.8403 Y0.729 I0.0339 J-0.0192
G3 X1.853 Y0.7005 I0.036 J-0.001
G3 X1.8647 Y0.6935 I0.026 J0.0305
G2 X1.8627 Y0.6941 I0.0163 J0.0658
G2 X1.8477 Y0.7021 I0.0107 J0.0379
G2 X1.8392 Y0.7144 I0.0204 J0.0231
G2 X1.8365 Y0.7309 I0.0441 J0.0158
G2 X1.8383 Y0.7396 I0.0231 J-0.0003
G1 X1.8384 Y0.7397
G2 X1.8438 Y0.7493 I0.0453 J-0.019
G3 X1.844 Y0.7496 I-0.0114 J0.0082
G2 X1.8515 Y0.7585 I0.0473 J-0.0324
G1 Y0.7586
G2 X1.8586 Y0.7637 I0.0216 J-0.0224
G0 Z0.125
G0 X1.8554 Y0.793
G0 Z0.0625
G1 F4.0 Z-0.02
G2 F8.0 X1.8545 Y0.7939 I0.0166 J0.0171
G2 X1.8488 Y0.8013 I0.0356 J0.0333
G3 X1.8487 Y0.8015 I-0.0119 J-0.0074
G2 X1.8446 Y0.8097 I0.0357 J0.0229
G2 X1.8432 Y0.8171 I0.0205 J0.0076
G1 Y0.8172
G2 X1.8455 Y0.8298 I0.0341 J0.0005
G2 X1.8522 Y0.8392 I0.0228 J-0.0093
G2 X1.8647 Y0.8459 I0.0209 J-0.0241
G2 X1.8671 Y0.8465 I0.0157 J-0.0579
G3 X1.8579 Y0.8412 I0.0132 J-0.0332
G3 X1.8576 Y0.8409 I0.0088 J-0.0109
G3 X1.8471 Y0.8171 I0.0194 J-0.0228
G3 X1.8496 Y0.8043 I0.0379 J0.0008
G3 X1.8544 Y0.7945 I0.0535 J0.0202
G3 X1.8554 Y0.793 I0.0442 J0.0267
G1 F4.0 X1.8526 Y0.7901
G2 F8.0 X1.8516 Y0.7911 I0.0194 J0.0199
G1 Y0.7912
G2 X1.8454 Y0.7992 I0.0385 J0.036
G3 X1.8453 Y0.7993 I-0.0085 J-0.0053
G2 X1.8408 Y0.8083 I0.039 J0.025
G1 Y0.8084
G2 X1.8392 Y0.8171 I0.0243 J0.009
G2 X1.8417 Y0.8313 I0.0381 J0.0006
G2 X1.8496 Y0.8422 I0.0266 J-0.0107
G2 X1.8637 Y0.8498 I0.0235 J-0.0271
G2 X1.8812 Y0.852 I0.0168 J-0.0618
G3 X1.8815 I0.0001 J0.01
G2 X1.8983 Y0.8497 I0.0006 J-0.0577
G2 X1.9124 Y0.8421 I-0.0116 J-0.0385
G1 X1.9125
G2 X1.9207 Y0.8312 I-0.0182 J-0.0223
G2 X1.9234 Y0.8172 I-0.0328 J-0.0135
G2 X1.9186 Y0.8005 I-0.0335 J0.0005
G3 X1.9184 Y0.8002 I0.0086 J-0.0052
G2 X1.9055 Y0.7862 I-0.0364 J0.0204
G3 X1.9061 Y0.7693 I0.0056 J-0.0083
G2 X1.9234 Y0.7523 I-0.0253 J-0.043
G3 X1.9235 Y0.7521 I0.0085 J0.0052
G2 X1.9298 Y0.731 I-0.0337 J-0.0216
G2 X1.9271 Y0.7128 I-0.0565 J-0.0008
G2 X1.9181 Y0.6988 I-0.0318 J0.0106
G2 X1.9021 Y0.6901 I-0.0265 J0.0298
G2 X1.8821 Y0.6876 I-0.0191 J0.0702
G3 X1.8818 I-0.0001 J-0.01
G2 X1.8616 Y0.6902 I-0.0009 J0.0718
G2 X1.8451 Y0.6991 I0.0118 J0.0417
G2 X1.8355 Y0.713 I0.0231 J0.0262
G2 X1.8325 Y0.731 I0.0479 J0.0172
G2 X1.8347 Y0.7412 I0.0271 J-0.0004
G2 X1.8405 Y0.7517 I0.049 J-0.0205
G3 X1.8406 Y0.7519 I-0.0081 J0.0058
G2 X1.8487 Y0.7614 I0.0506 J-0.0347
G1 X1.8488
G2 X1.8581 Y0.7679 I0.0244 J-0.0252
G3 X1.8586 Y0.7857 I-0.0043 J0.009
G2 X1.8526 Y0.7901 I0.0134 J0.0244
G1 F4.0 X1.8591 Y0.7946
G3 F8.0 X1.8643 Y0.7881 I0.0395 J0.0267
G3 X1.8741 Y0.7811 I0.0244 J0.0235
G3 X1.8822 Y0.7809 I0.0043 J0.009
G3 X1.9016 Y0.7946 I-0.02 J0.0486
G3 X1.9082 Y0.804 I-0.0323 J0.0299
G3 X1.9116 Y0.817 I-0.0256 J0.0137
G3 X1.907 Y0.8338 I-0.0287 J0.0011
G3 X1.9066 Y0.8344 I-0.0084 J-0.0054
G3 X1.8909 Y0.8441 I-0.0205 J-0.0157
G3 X1.8815 Y0.845 I-0.0092 J-0.0431
G3 X1.8604 Y0.8381 I-0.0012 J-0.0317
G3 X1.8602 Y0.8379 I0.0063 J-0.0078
G3 X1.8511 Y0.8172 I0.0168 J-0.0198
G3 X1.8533 Y0.8057 I0.0339 J0.0007
G3 X1.8578 Y0.7966 I0.0498 J0.0188
G3 X1.8591 Y0.7946 I0.0408 J0.0246
G0 Z0.125
G0 X1.8745 Y0.7706
G0 Z0.0625
G1 F4.0 Z-0.02
G3 F8.0 X1.8633 Y0.7624 I0.0662 J-0.103
G3 X1.8489 Y0.7458 I0.0373 J-0.047
G3 X1.8488 Y0.7457 I0.0086 J-0.0051
G3 X1.8443 Y0.7289 I0.0305 J-0.0173
G3 X1.8556 Y0.7035 I0.0321 J-0.0009
G3 X1.8685 Y0.6964 I0.0234 J0.0274
G1 X1.8686
G3 X1.8818 Y0.6945 I0.013 J0.0437
G3 X1.908 Y0.7051 I0.001 J0.0352
G3 X1.9082 Y0.7053 I-0.0072 J0.007
G3 X1.9181 Y0.7313 I-0.0266 J0.0251
G3 X1.9091 Y0.7575 I-0.0427 J0.0001
G3 X1.909 Y0.7577 I-0.0079 J-0.0061
G3 X1.8895 Y0.7739 I-0.0495 J-0.0397
G3 X1.8798 Y0.7738 I-0.0047 J-0.0088
G3 X1.8745 Y0.7706 I0.0609 J-0.1062
G0 Z0.125
G0 X1.7685 Y0.7823
G0 Z0.0625
G1 F4.0 Z-0.02
G3 F8.0 X1.7639 Y0.7851 I-0.0392 J-0.0577
G3 X1.758 Y0.788 I-0.0232 J-0.0405
G3 X1.766 Y0.8006 I-0.0061 J0.0126
G1 Y0.8326
G3 X1.7572 Y0.8456 I-0.014 J0.0
G1 X1.7685
G1 Y0.7823
G0 Z0.125
G0 X1.7293 Y0.7902
G0 Z0.0625
G1 F4.0 Z-0.02
G3 F8.0 X1.7247 Y0.7891 I0.0111 J-0.0567
G3 X1.7072 Y0.778 I0.0095 J-0.0344
G3 X1.7067 Y0.7775 I0.0106 J-0.0091
G3 X1.6984 Y0.7588 I0.034 J-0.0265
G3 X1.6968 Y0.7425 I0.0792 J-0.0157
G3 X1.7007 Y0.7176 I0.0721 J-0.0015
G3 X1.7222 Y0.6942 I0.0372 J0.0126
G3 X1.7226 Y0.694 I0.0056 J0.0128
G3 X1.7252 Y0.6931 I0.0182 J0.0457
G2 X1.7171 Y0.6955 I0.0113 J0.0531
G3 X1.7169 I-0.005 J-0.0131
G2 X1.7005 Y0.7086 I0.0119 J0.0319
G2 X1.6944 Y0.7228 I0.0397 J0.0254
G2 X1.6919 Y0.7456 I0.0901 J0.0217
G3 Y0.746 I-0.014 J0.0002
G2 X1.6943 Y0.765 I0.0673 J0.0009
G2 X1.7024 Y0.7795 I0.0345 J-0.0097
G2 X1.7151 Y0.7877 I0.0225 J-0.0211
G2 X1.7293 Y0.7902 I0.0165 J-0.051
G0 Z0.125
G0 X1.7693 Y0.699
G0 Z0.0625
G1 F4.0 Z-0.02
G1 F8.0 X1.7696 Y0.6984
G2 X1.7614 Y0.6947 I-0.0266 J0.0493
G2 X1.7583 Y0.6938 I-0.0194 J0.0577
G3 X1.7658 Y0.6971 I-0.0231 J0.0625
G1 X1.7659 Y0.6972
G3 X1.7693 Y0.699 I-0.0526 J0.0998
G1 F4.0 X1.7673 Y0.7025
G3 F8.0 X1.771 Y0.7047 I-0.054 J0.0945
G1 X1.7748 Y0.6968
G2 X1.7627 Y0.6909 I-0.0318 J0.0509
G2 X1.7415 Y0.6876 I-0.0206 J0.0615
G3 X1.7414 I-0.0001 J-0.01
G2 X1.728 Y0.6885 I-0.0004 J0.0886
G2 X1.7156 Y0.6918 I0.0085 J0.0577
G1 X1.7155
G2 X1.6971 Y0.7065 I0.0133 J0.0356
G2 X1.6905 Y0.7219 I0.0431 J0.0275
G2 X1.6879 Y0.7457 I0.0939 J0.0227
G3 Y0.7459 I-0.01 J0.0001
G2 X1.6905 Y0.7661 I0.0713 J0.0009
G2 X1.6995 Y0.7822 I0.0383 J-0.0108
G2 X1.7139 Y0.7915 I0.0254 J-0.0238
G2 X1.7325 Y0.7943 I0.0178 J-0.0548
G3 X1.7329 I0.0001 J0.01
G2 X1.7481 Y0.7914 I0.0009 J-0.0367
G3 X1.762 Y0.8006 I0.0039 J0.0092
G1 Y0.8326
G3 X1.752 Y0.8426 I-0.01 J0.0
G1 X1.6962
G1 Y0.8496
G1 X1.7725
G1 Y0.7764
G1 X1.771 Y0.7754
G3 X1.762 Y0.7816 I-0.0418 J-0.0508
G1 X1.7619
G3 X1.7412 Y0.7873 I-0.0212 J-0.037
G3 X1.7258 Y0.7853 I-0.0008 J-0.0538
G3 X1.7102 Y0.7754 I0.0084 J-0.0306
G3 X1.7099 Y0.775 I0.0076 J-0.0065
G3 X1.7023 Y0.7581 I0.0309 J-0.024
G3 X1.7008 Y0.7424 I0.0753 J-0.0149
G3 X1.7045 Y0.7189 I0.0681 J-0.0015
G3 X1.7238 Y0.6979 I0.0334 J0.0113
G3 X1.7241 Y0.6978 I0.004 J0.0092
G3 X1.7417 Y0.6945 I0.0168 J0.042
G3 X1.7538 Y0.6965 I-0.0006 J0.042
G3 X1.764 Y0.7007 I-0.0186 J0.0598
G1 X1.7641
G3 X1.7673 Y0.7025 I-0.0508 J0.0963
( Pocket4 )
S10000
G0 Z0.125
G0 X2.2693 Y0.9898
G0 Z0.0625
G1 F4.0 Z-0.02
G1 F8.0 X2.2612
G1 Y1.1864
G1 X2.2693
G1 Y0.9898
G1 F4.0 X2.2781
G1 F8.0 Y0.981
G1 X2.2524
G1 Y1.1952
G1 X2.2781
G1 Y0.9898
G0 Z0.125
G0 X2.174 Y1.0799
G0 Z0.0625
G1 F4.0 Z-0.02
G3 F8.0 X2.1728 Y1.0858 I-0.1153 J-0.0212
G3 X2.1726 Y1.0866 I-0.0235 J-0.0056
G3 X2.1692 Y1.0964 I-0.0793 J-0.0216
G3 X2.174 Y1.1005 I-0.0131 J0.0204
G1 Y1.0799
G1 F4.0 X2.1697 Y1.0791
G3 F8.0 X2.1685 Y1.0848 I-0.111 J-0.0204
G3 X2.1683 Y1.0854 I-0.0193 J-0.0046
G3 X2.1635 Y1.0984 I-0.0751 J-0.0204
G3 X2.1759 Y1.1168 I-0.0074 J0.0184
G1 Y1.1213
G1 X2.1784
G1 Y0.9898
G1 X2.1727
G1 Y1.0228
G3 X2.1712 Y1.0675 I-0.5253 J0.0044
G3 X2.1697 Y1.0791 I-0.1125 J-0.0088
G0 Z0.125
G0 X2.1233 Y1.1242
G0 Z0.0625
G1 F4.0 Z-0.02
G3 F8.0 X2.1222 I0.0 J-0.0447
G3 X2.113 Y1.1232 I0.0008 J-0.0515
G1 X2.1125 Y1.1249
G2 X2.1173 Y1.1252 I0.005 J-0.0374
G3 X2.1174 I-0.0001 J0.0198
G2 X2.1233 Y1.1242 I0.0002 J-0.0163
G1 F4.0 X2.1263 Y1.1325
G2 F8.0 X2.1307 Y1.1303 I-0.0087 J-0.0236
G2 X2.1388 Y1.1225 I-0.022 J-0.0305
G3 X2.1389 Y1.1223 I0.0088 J0.0066
G2 X2.1468 Y1.111 I-0.0968 J-0.0759
G3 X2.1671 Y1.1168 I0.0094 J0.0058
G1 Y1.1301
G1 X2.1872
G1 Y0.981
G1 X2.1639
G1 Y1.0228
G3 X2.1624 Y1.0668 I-0.5165 J0.0044
G3 X2.1599 Y1.0828 I-0.1037 J-0.0081
G3 X2.1598 Y1.0831 I-0.0107 J-0.0025
G3 X2.1553 Y1.0952 I-0.0666 J-0.0181
G3 X2.1458 Y1.1075 I-0.0328 J-0.0154
G3 X2.1455 Y1.1077 I-0.0071 J-0.0084
G3 X2.1224 Y1.1154 I-0.0222 J-0.0283
G3 X2.1075 Y1.1125 I0.0007 J-0.0427
G1 X2.101 Y1.131
G2 X2.1172 Y1.134 I0.0165 J-0.0435
G1 X2.1173
G2 X2.1263 Y1.1325 I0.0004 J-0.0251
G0 Z0.125
G0 X2.05 Y1.0918
G0 Z0.0625
G1 F4.0 Z-0.02
G2 F8.0 X2.0585 Y1.0579 I-0.0643 J-0.0342
G2 X2.0564 Y1.0361 I-0.108 J-0.0007
G2 X2.0497 Y1.0172 I-0.0679 J0.0135
G2 X2.0261 Y0.9946 I-0.047 J0.0253
G3 X2.0259 Y0.9945 I0.0087 J-0.0178
G2 X2.0227 Y0.9929 I-0.036 J0.0715
G3 X2.0348 Y1.0037 I-0.0321 J0.0485
G3 X2.0486 Y1.0301 I-0.0489 J0.0423
G3 X2.0517 Y1.0556 I-0.0955 J0.0245
G3 X2.0486 Y1.0811 I-0.0986 J0.001
G3 X2.0348 Y1.1074 I-0.0627 J-0.0159
G3 X2.0223 Y1.1185 I-0.0443 J-0.0377
G2 X2.0264 Y1.1165 I-0.0308 J-0.0675
G2 X2.0496 Y1.0926 I-0.0272 J-0.0497
G3 X2.0498 Y1.0922 I0.0176 J0.009
G2 X2.05 Y1.0918 I-0.0641 J-0.0346
G0 Z0.125
G0 X1.957 Y1.1179
G0 Z0.0625
G1 F4.0 Z-0.02
G3 F8.0 X1.9453 Y1.1074 I0.0324 J-0.0478
G3 X1.9316 Y1.0813 I0.0489 J-0.0423
G3 X1.9285 Y1.0559 I0.0939 J-0.0245
G3 X1.9315 Y1.0303 I0.1003 J-0.001
G3 X1.9453 Y1.0037 I0.0628 J0.0157
G3 X1.9556 Y0.9942 I0.0441 J0.0372
G2 X1.9411 Y1.0054 I0.0306 J0.0549
G3 X1.9409 Y1.0055 I-0.0142 J-0.0138
G2 X1.9262 Y1.0282 I0.0464 J0.046
G2 X1.9215 Y1.0558 I0.073 J0.0267
G3 Y1.0563 I-0.0198 J0.0002
G2 X1.9262 Y1.0835 I0.0768 J0.0009
G2 X1.9405 Y1.1057 I0.0593 J-0.0226
G3 X1.9407 Y1.1059 I-0.014 J0.014
G2 X1.957 Y1.1179 I0.0443 J-0.0429
G1 F4.0 X1.953 Y1.1258
G2 F8.0 X1.9596 Y1.1287 I0.032 J-0.0628
G2 X1.99 Y1.134 I0.0294 J-0.0792
G3 X1.9903 I0.0001 J0.011
G2 X2.0305 Y1.1242 I0.0011 J-0.083
G2 X2.0574 Y1.0966 I-0.0314 J-0.0574
G3 X2.0575 Y1.0964 I0.0098 J0.005
G2 X2.0673 Y1.0579 I-0.0718 J-0.0388
G2 X2.0651 Y1.0344 I-0.1168 J-0.0007
G2 X2.0575 Y1.013 I-0.0765 J0.0152
G2 X2.03 Y0.9867 I-0.0547 J0.0295
G3 X2.0299 Y0.9866 I0.0048 J-0.0099
G2 X1.9899 Y0.9771 I-0.0399 J0.0794
G3 X1.9897 I0.0 J-0.011
G2 X1.9597 Y0.9825 I-0.0009 J0.0814
G2 X1.9348 Y0.9992 I0.0266 J0.0665
G3 X1.9347 Y0.9993 I-0.0079 J-0.0076
G2 X1.918 Y1.0251 I0.0526 J0.0522
G2 X1.9127 Y1.0559 I0.0812 J0.0298
G3 Y1.0562 I-0.011 J0.0001
G2 X1.9179 Y1.0866 I0.0856 J0.001
G2 X1.9343 Y1.1119 I0.0675 J-0.0257
G3 X1.9344 Y1.112 I-0.0078 J0.0078
G2 X1.953 Y1.1258 I0.0506 J-0.0491
G0 Z0.125
G0 X1.9626 Y1.1111
G0 Z0.0625
G1 F4.0 Z-0.02
G3 F8.0 X1.952 Y1.1017 I0.0268 J-0.0409
G3 X1.9401 Y1.0791 I0.0422 J-0.0366
G3 X1.9373 Y1.0559 I0.0854 J-0.0223
G3 X1.9401 Y1.0324 I0.0915 J-0.001
G3 X1.952 Y1.0094 I0.0543 J0.0135
G3 X1.99 Y0.992 I0.0374 J0.0315
G3 X2.0282 Y1.0094 I0.0005 J0.0494
G3 X2.0401 Y1.0322 I-0.0423 J0.0366
G3 X2.0429 Y1.0556 I-0.087 J0.0223
G3 X2.0401 Y1.0789 I-0.0899 J0.001
G3 X2.0282 Y1.1017 I-0.0542 J-0.0138
G3 X1.99 Y1.1191 I-0.0376 J-0.032
G3 X1.9626 Y1.1111 I-0.0006 J-0.0489
G0 Z0.125
G0 X1.8424 Y1.0997
G0 Z0.0625
G1 F4.0 Z-0.02
G1 F8.0 Y1.0886
G3 X1.8413 Y1.0929 I-0.113 J-0.0247
G3 X1.8409 Y1.0943 I-0.0234 J-0.0061
G3 X1.8399 Y1.0973 I-0.0543 J-0.0177
G3 X1.8424 Y1.0997 I-0.0153 J0.0187
G1 F4.0 X1.8468
G1 F8.0 Y0.9898
G1 X1.8411
G1 Y1.0475
G3 X1.8406 Y1.0682 I-0.3484 J0.0012
G3 X1.8371 Y1.0918 I-0.1112 J-0.0043
G3 X1.8367 Y1.093 I-0.0192 J-0.005
G3 X1.8344 Y1.0988 I-0.0501 J-0.0163
G3 X1.8443 Y1.116 I-0.0099 J0.0171
G1 Y1.1213
G1 X1.8468
G1 Y1.0997
G1 F4.0 X1.8556
G1 F8.0 Y0.981
G1 X1.8323
G1 Y1.0475
G3 X1.8318 Y1.0678 I-0.3396 J0.0012
G3 X1.8286 Y1.0896 I-0.1024 J-0.0039
G3 X1.8284 Y1.0902 I-0.0106 J-0.0028
G3 X1.8186 Y1.1067 I-0.0417 J-0.0136
G3 X1.8355 Y1.116 I0.0059 J0.0093
G1 Y1.1301
G1 X1.8556
G1 Y1.0997
G0 Z0.125
G0 X1.7616 Y1.1248
G0 Z0.0625
G1 F4.0 Z-0.02
G3 F8.0 X1.7573 Y1.1223 I0.0216 J-0.0411
G3 X1.757 Y1.1221 I0.011 J-0.0164
G3 X1.74 Y1.0993 I0.0255 J-0.0368
G3 X1.7399 Y1.099 I0.0188 J-0.0062
G3 X1.7373 Y1.0863 I0.0608 J-0.0188
G3 X1.7365 Y1.0763 I0.1639 J-0.0182
G3 X1.7361 Y1.0573 I0.3674 J-0.0178
G1 Y0.9898
G1 X1.7304
G1 Y1.0763
G1 Y1.0764
G2 X1.7308 Y1.0904 I0.2042 J0.0007
G3 Y1.0905 I-0.0198 J0.0013
G2 X1.7325 Y1.1025 I0.0749 J-0.0043
G2 X1.7376 Y1.1136 I0.0279 J-0.0062
G2 X1.7479 Y1.1211 I0.0195 J-0.016
G3 X1.7486 Y1.1213 I-0.0072 J0.0184
G2 X1.7616 Y1.1248 I0.0187 J-0.0435
G1 F4.0 X1.7657 Y1.1171
G2 F8.0 X1.784 Y1.1213 I0.0175 J-0.0334
G2 X1.8112 Y1.113 I0.0004 J-0.0473
G2 X1.8155 Y1.1097 I-0.0246 J-0.0364
G3 X1.7947 Y1.1277 I-0.0524 J-0.0396
G3 X1.7683 Y1.134 I-0.0258 J-0.0496
G2 X1.768 I-0.0001 J0.011
G3 X1.7451 Y1.1294 I-0.0007 J-0.0562
G2 X1.7447 Y1.1293 I-0.0044 J0.0101
G3 X1.7307 Y1.119 I0.0124 J-0.0317
G3 X1.7239 Y1.1044 I0.0297 J-0.0227
G3 X1.7221 Y1.091 I0.0818 J-0.0182
G1 Y1.0909
G3 X1.7216 Y1.0764 I0.2126 J-0.0139
G1 Y1.0763
G1 Y0.981
G1 X1.7449
G1 Y1.0573
G2 X1.7453 Y1.0758 I0.3591 J0.0012
G1 Y1.0759
G2 X1.7461 Y1.0854 I0.1559 J-0.0077
G2 X1.7483 Y1.0964 I0.0546 J-0.0053
G2 Y1.0965 I0.0105 J-0.0033
G2 X1.762 Y1.1149 I0.0342 J-0.0113
G2 X1.7622 Y1.115 I0.0063 J-0.009
G2 X1.7657 Y1.1171 I0.021 J-0.0313
G0 Z0.125
M5
M30
