( Made using CamBam - http://www.cambam.co.uk )
( 026-iron-vinyl 12/4/2013 7:11:29 PM )
( T0 : 0.01 )
G20 G90 G91.1 G64 G40
G0 Z0.125
( T0 : 0.01 )
T0 M6
( Engrave1 )
G17
M3 S1000
G0 X0.125 Y0.125
G0 Z0.0625
G1 F10.0 Z-0.001
G1 F12.0 X1.875
G1 Y1.875
G1 X0.125
G1 Y0.125
G0 Z0.125
G0 X0.6796 Y0.2255
G0 Z0.0425
G1 F10.0 Z-0.021
G3 F12.0 X0.6808 Y0.2195 I0.1049 J0.019
G3 X0.6887 Y0.201 I0.0594 J0.0145
G3 X0.712 Y0.1824 I0.0401 J0.0264
G3 X0.7265 Y0.1786 I0.0244 J0.0638
G3 X0.7415 Y0.1776 I0.0145 J0.0975
G3 X0.7659 Y0.1815 I0.0006 J0.0748
G3 X0.7875 Y0.1935 I-0.0229 J0.0662
G1 X0.7749 Y0.2197
G2 X0.7594 Y0.2095 I-0.0616 J0.0773
G2 X0.7508 Y0.206 I-0.0242 J0.0467
G2 X0.7416 Y0.2045 I-0.0096 J0.0305
G2 X0.7278 Y0.207 I-0.0007 J0.0352
G2 X0.7139 Y0.2221 I0.01 J0.0231
G2 X0.7108 Y0.2424 I0.055 J0.0188
G2 X0.7121 Y0.2562 I0.0668 J0.0007
G2 X0.7178 Y0.2689 I0.0287 J-0.0052
G2 X0.7285 Y0.2757 I0.0165 J-0.0142
G2 X0.7411 Y0.2773 I0.0119 J-0.0422
G2 X0.757 Y0.273 I-0.0003 J-0.0326
G2 X0.7699 Y0.2628 I-0.0277 J-0.0484
G1 X0.7825 Y0.2709
G1 Y0.3596
G1 X0.6862
G1 Y0.3326
G1 X0.752
G1 Y0.3006
G3 X0.7327 Y0.3043 I-0.0182 J-0.043
G3 X0.7108 Y0.301 I-0.001 J-0.0676
G3 X0.6921 Y0.289 I0.0141 J-0.0425
G3 X0.6809 Y0.2688 I0.0367 J-0.0337
G3 X0.6779 Y0.2458 I0.0783 J-0.0219
G3 X0.6796 Y0.2255 I0.1066 J-0.0013
G0 Z0.125
G0 X0.8225 Y0.2288
G0 Z0.0425
G1 F10.0 Z-0.021
G3 F12.0 X0.8261 Y0.2096 I0.0608 J0.0014
G3 X0.8385 Y0.1916 I0.042 J0.0157
G3 X0.8589 Y0.1806 I0.0349 J0.0403
G3 X0.882 Y0.1776 I0.022 J0.0788
G3 X0.9047 Y0.1804 I0.001 J0.0827
G3 X0.9248 Y0.1914 I-0.013 J0.0481
G3 X0.9366 Y0.2096 I-0.0296 J0.032
G3 X0.9398 Y0.2311 I-0.0632 J0.0205
G3 X0.9319 Y0.2575 I-0.05 J-0.0007
G3 X0.9111 Y0.2779 I-0.0511 J-0.0313
G3 X0.9271 Y0.2954 I-0.0291 J0.0427
G3 X0.9333 Y0.3171 I-0.0373 J0.0224
G3 X0.9299 Y0.3351 I-0.0455 J0.0007
G3 X0.9188 Y0.3498 I-0.0356 J-0.0154
G3 X0.9012 Y0.3593 I-0.032 J-0.0386
G3 X0.8813 Y0.362 I-0.0191 J-0.065
G3 X0.8611 Y0.3594 I-0.0009 J-0.074
G3 X0.843 Y0.3498 I0.012 J-0.0443
G3 X0.8324 Y0.3349 I0.0253 J-0.0292
G3 X0.8292 Y0.317 I0.0449 J-0.0173
G3 X0.8314 Y0.3049 I0.0359 J0.0004
G3 X0.8369 Y0.2939 I0.0529 J0.0194
G3 X0.8443 Y0.2843 I0.0531 J0.0333
G3 X0.8538 Y0.2769 I0.0277 J0.0257
G3 X0.8418 Y0.2686 I0.0194 J-0.0407
G3 X0.8324 Y0.2575 I0.0495 J-0.0514
G3 X0.8254 Y0.2451 I0.0512 J-0.0368
G3 X0.8225 Y0.2311 I0.0341 J-0.0145
G3 Y0.2288 I0.0609 J-0.0009
G0 Z0.125
G0 X0.981 Y0.2001
G0 Z0.0425
G1 F10.0 Z-0.021
G3 F12.0 X0.9807 Y0.196 I0.0206 J-0.0037
G3 X0.9872 Y0.1804 I0.0213 J-0.0003
G3 X1.0027 Y0.1739 I0.0151 J0.0144
G3 X1.0183 Y0.1804 I0.0003 J0.0213
G3 X1.0247 Y0.196 I-0.0151 J0.0153
G3 X1.0183 Y0.2115 I-0.0211 J0.0004
G3 X1.0027 Y0.218 I-0.0153 J-0.0148
G3 X0.9872 Y0.2115 I-0.0004 J-0.0209
G3 X0.981 Y0.2001 I0.0144 J-0.0151
G0 Z0.125
G0 X1.0655 Y0.22
G0 Z0.0425
G1 F10.0 Z-0.021
G3 F12.0 X1.0656 Y0.2195 I0.1038 J0.0245
G3 X1.0735 Y0.201 I0.0594 J0.0145
G3 X1.0968 Y0.1824 I0.0401 J0.0264
G3 X1.1113 Y0.1786 I0.0244 J0.0638
G3 X1.1262 Y0.1776 I0.0145 J0.0975
G3 X1.1507 Y0.1815 I0.0006 J0.0748
G3 X1.1722 Y0.1935 I-0.0229 J0.0662
G1 X1.1597 Y0.2197
G2 X1.1442 Y0.2095 I-0.0616 J0.0773
G2 X1.1355 Y0.206 I-0.0242 J0.0467
G2 X1.1263 Y0.2045 I-0.0096 J0.0305
G2 X1.1126 Y0.207 I-0.0007 J0.0352
G2 X1.0987 Y0.2221 I0.01 J0.0231
G2 X1.0956 Y0.2424 I0.055 J0.0188
G2 X1.0969 Y0.2562 I0.0668 J0.0007
G2 X1.1025 Y0.2689 I0.0287 J-0.0052
G2 X1.1133 Y0.2757 I0.0165 J-0.0142
G2 X1.1259 Y0.2773 I0.0119 J-0.0422
G2 X1.1417 Y0.273 I-0.0003 J-0.0326
G2 X1.1547 Y0.2628 I-0.0277 J-0.0484
G1 X1.1672 Y0.2709
G1 Y0.3596
G1 X1.0709
G1 Y0.3326
G1 X1.1367
G1 Y0.3006
G3 X1.1174 Y0.3043 I-0.0182 J-0.043
G3 X1.0955 Y0.301 I-0.001 J-0.0676
G3 X1.0769 Y0.289 I0.0141 J-0.0425
G3 X1.0656 Y0.2688 I0.0367 J-0.0337
G3 X1.0626 Y0.2458 I0.0783 J-0.0219
G3 X1.0655 Y0.22 I0.1066 J-0.0013
G0 Z0.125
G0 X1.2096 Y0.2341
G0 Z0.0425
G1 F10.0 Z-0.021
G3 F12.0 X1.2121 Y0.2195 I0.1061 J0.0104
G3 X1.22 Y0.201 I0.0594 J0.0145
G3 X1.2433 Y0.1824 I0.0401 J0.0264
G3 X1.2578 Y0.1786 I0.0244 J0.0638
G3 X1.2727 Y0.1776 I0.0145 J0.0975
G3 X1.2971 Y0.1815 I0.0006 J0.0748
G3 X1.3187 Y0.1935 I-0.0229 J0.0662
G1 X1.3062 Y0.2197
G2 X1.2907 Y0.2095 I-0.0616 J0.0773
G2 X1.282 Y0.206 I-0.0242 J0.0467
G2 X1.2728 Y0.2045 I-0.0096 J0.0305
G2 X1.259 Y0.207 I-0.0007 J0.0352
G2 X1.2452 Y0.2221 I0.01 J0.0231
G2 X1.2421 Y0.2424 I0.055 J0.0188
G2 X1.2434 Y0.2562 I0.0668 J0.0007
G2 X1.249 Y0.2689 I0.0287 J-0.0052
G2 X1.2598 Y0.2757 I0.0165 J-0.0142
G2 X1.2723 Y0.2773 I0.0119 J-0.0422
G2 X1.2882 Y0.273 I-0.0003 J-0.0326
G2 X1.3011 Y0.2628 I-0.0277 J-0.0484
G1 X1.3137 Y0.2709
G1 Y0.3596
G1 X1.2174
G1 Y0.3326
G1 X1.2832
G1 Y0.3006
G3 X1.2639 Y0.3043 I-0.0182 J-0.043
G3 X1.242 Y0.301 I-0.001 J-0.0676
G3 X1.2234 Y0.289 I0.0141 J-0.0425
G3 X1.2121 Y0.2688 I0.0367 J-0.0337
G3 X1.2091 Y0.2458 I0.0783 J-0.0219
G3 X1.2096 Y0.2341 I0.1066 J-0.0013
G0 Z0.125
G0 X1.1982 Y0.47
G0 Z0.0425
G1 F10.0 Z-0.021
G1 F12.0 Y0.6411
G1 X1.1561
G1 Y0.6168
G3 X1.1476 Y0.6291 I-0.114 J-0.0704
G3 X1.1368 Y0.6395 I-0.0388 J-0.0293
G3 X1.1171 Y0.645 I-0.0191 J-0.0307
G3 X1.0873 Y0.6365 I0.0003 J-0.0575
G1 X1.1014 Y0.597
G2 X1.1115 Y0.6022 I0.0294 J-0.0445
G2 X1.1226 Y0.6044 I0.0116 J-0.0296
G2 X1.1387 Y0.5991 I0.0007 J-0.0249
G2 X1.1454 Y0.5904 I-0.0163 J-0.0193
G2 X1.1492 Y0.5802 I-0.0521 J-0.0254
G2 X1.1514 Y0.566 I-0.0905 J-0.0215
G2 X1.1529 Y0.5229 I-0.504 J-0.0388
G1 Y0.47
G1 X1.1982
G0 Z0.125
G0 X1.2414
G0 Z0.0425
G1 F10.0 Z-0.021
G1 F12.0 X1.2891
G1 Y0.7062
G1 X1.2414
G1 Y0.47
G0 Z0.125
G0 X1.0735 Y0.5228
G0 Z0.0425
G1 F10.0 Z-0.021
G3 F12.0 X1.0759 Y0.5322 I-0.0849 J0.0267
G3 X1.0783 Y0.558 I-0.1253 J0.0249
G3 X1.0672 Y0.6016 I-0.0926 J-0.0003
G3 X1.0358 Y0.6339 I-0.068 J-0.0349
G3 X0.9902 Y0.645 I-0.0444 J-0.0829
G3 X0.9557 Y0.639 I-0.0012 J-0.0955
G3 X0.9265 Y0.6197 I0.0293 J-0.076
G3 X0.9076 Y0.5904 I0.0589 J-0.0588
G3 X0.9017 Y0.556 I0.0907 J-0.0333
G3 X0.9077 Y0.5213 I0.0975 J-0.0011
G3 X0.9268 Y0.4916 I0.0796 J0.0303
G3 X0.9557 Y0.4723 I0.0594 J0.0574
G3 X0.9898 Y0.4661 I0.0331 J0.0863
G3 X1.0348 Y0.4768 I0.0001 J0.0999
G3 X1.0672 Y0.5079 I-0.032 J0.0658
G3 X1.0735 Y0.5228 I-0.0786 J0.0417
G0 Z0.125
G0 X0.8666
G0 Z0.0425
G1 F10.0 Z-0.021
G1 F12.0 Y0.6411
G1 X0.8245
G1 Y0.616
G3 X0.7999 Y0.6374 I-0.0615 J-0.0459
G3 X0.7681 Y0.645 I-0.031 J-0.0593
G3 X0.7407 Y0.6395 I-0.0008 J-0.0672
G3 X0.722 Y0.6258 I0.0164 J-0.042
G3 X0.7132 Y0.6068 I0.0384 J-0.0295
G3 X0.7111 Y0.5916 I0.0926 J-0.0206
G3 X0.7106 Y0.5763 I0.2236 J-0.0146
G1 Y0.47
G1 X0.7559
G1 Y0.5573
G2 X0.7563 Y0.5753 I0.3481 J0.0011
G2 X0.757 Y0.5843 I0.1449 J-0.0072
G2 X0.7588 Y0.5931 I0.0436 J-0.0042
G2 X0.7683 Y0.6058 I0.0237 J-0.0078
G2 X0.7839 Y0.6103 I0.0149 J-0.0221
G2 X0.805 Y0.6039 I0.0005 J-0.0363
G2 X0.8179 Y0.5868 I-0.0184 J-0.0273
G2 X0.8208 Y0.5673 I-0.0886 J-0.0229
G2 X0.8213 Y0.5475 I-0.3281 J-0.0186
G1 Y0.47
G1 X0.8666
G1 Y0.5228
G0 Z0.125
G0 X0.7722 Y0.8462
G0 Z0.0425
G1 F10.0 Z-0.021
G3 F12.0 X0.8488 Y0.8938 I-0.0471 J0.1614
G3 X0.8881 Y0.958 I-0.1309 J0.1241
G3 X0.9 Y1.0324 I-0.2106 J0.0718
G3 X0.8886 Y1.1104 I-0.2537 J0.0029
G3 X0.8496 Y1.1789 I-0.1791 J-0.0567
G3 X0.7934 Y1.2209 I-0.1282 J-0.113
G3 X0.7246 Y1.2352 I-0.067 J-0.1504
G3 X0.6751 Y1.2285 I-0.0013 J-0.1767
G3 X0.6301 Y1.2066 I0.041 J-0.1418
G3 X0.5699 Y1.1262 I0.1012 J-0.1384
G3 X0.5587 Y1.0771 I0.2106 J-0.0741
G3 X0.5555 Y1.027 I0.445 J-0.0536
G1 X0.8121
G2 X0.8061 Y0.9731 I-0.2726 J0.003
G2 X0.7836 Y0.9238 I-0.1131 J0.022
G2 X0.7059 Y0.8891 I-0.0753 J0.064
G2 X0.6352 Y0.9153 I0.0 J0.1083
G2 X0.5887 Y0.9746 I0.1337 J0.1527
G1 X0.552 Y0.9598
G3 X0.5803 Y0.9129 I0.2671 J0.1299
G3 X0.6419 Y0.8585 I0.1521 J0.1102
G3 X0.7219 Y0.8395 I0.0777 J0.1487
G3 X0.7722 Y0.8462 I0.0032 J0.1682
G0 Z0.125
G0 X1.0715 Y1.0117
G0 Z0.0425
G1 F10.0 Z-0.021
G1 F12.0 X1.1152
G2 X1.1206 Y1.06 I0.3056 J-0.0094
G2 X1.1273 Y1.0835 I0.1436 J-0.0284
G2 X1.1395 Y1.1047 I0.069 J-0.0254
G2 X1.1661 Y1.124 I0.0513 J-0.0428
G2 X1.1984 Y1.1297 I0.031 J-0.0812
G1 X1.2387
G1 Y0.9215
G2 X1.2376 Y0.9101 I-0.0543 J-0.0007
G2 X1.2324 Y0.9 I-0.0183 J0.003
G2 X1.2197 Y0.8954 I-0.0153 J0.0225
G2 X1.2063 Y0.8945 I-0.0126 J0.0918
G1 X1.1387
G1 Y0.85
G1 X1.4266
G1 Y0.8945
G1 X1.3609
G2 X1.3508 Y0.8953 I-0.0006 J0.0594
G2 X1.3414 Y0.8992 I0.0023 J0.0188
G2 X1.3369 Y0.9075 I0.0106 J0.0111
G2 X1.3359 Y0.9168 I0.0396 J0.0088
G1 Y1.3668
G2 X1.3369 Y1.3754 I0.0335 J0.0005
G2 X1.3414 Y1.3828 I0.0134 J-0.003
G2 X1.3522 Y1.3868 I0.0129 J-0.0184
G2 X1.3637 Y1.3875 I0.0107 J-0.0787
G1 X1.4266
G1 Y1.432
G1 X0.9508
G1 X0.9422 Y1.2203
G1 X0.984
G2 X0.9982 Y1.2877 I0.8777 J-0.1494
G2 X1.0082 Y1.3207 I0.3575 J-0.0904
G2 X1.0238 Y1.3516 I0.1088 J-0.0358
G2 X1.0739 Y1.3792 I0.0943 J-0.1116
G2 X1.1305 Y1.3875 I0.0547 J-0.1763
G1 X1.2215
G2 X1.2352 Y1.3836 I0.0017 J-0.0199
G2 X1.2387 Y1.3699 I-0.0181 J-0.0119
G1 Y1.1734
G1 X1.1984
G2 X1.1663 Y1.179 I-0.0013 J0.088
G2 X1.1395 Y1.1977 I0.0255 J0.0653
G2 X1.1274 Y1.2168 I0.0518 J0.0462
G2 X1.1183 Y1.2492 I0.125 J0.0524
G2 X1.1152 Y1.2828 I0.2604 J0.0406
G1 X1.0715
G1 Y1.0117
G0 Z0.125
G0 X0.6604 Y1.48
G0 Z0.0425
G1 F10.0 Z-0.021
G1 F12.0 Y1.4956
G1 X0.5652 Y1.6357
G2 X0.5461 Y1.6691 I0.1863 J0.1288
G2 X0.5395 Y1.6873 I0.1114 J0.0509
G2 X0.5367 Y1.7064 I0.0712 J0.02
G2 X0.5393 Y1.7214 I0.0401 J0.0008
G2 X0.5555 Y1.7369 I0.0254 J-0.0103
G2 X0.5775 Y1.7404 I0.0205 J-0.0573
G2 X0.6074 Y1.7311 I0.0006 J-0.0501
G2 X0.6278 Y1.7074 I-0.0444 J-0.0591
G1 X0.6637 Y1.7357
G3 X0.6303 Y1.7714 I-0.0784 J-0.0399
G3 X0.5796 Y1.7858 I-0.0498 J-0.0793
G3 X0.5417 Y1.7814 I-0.0017 J-0.1512
G3 X0.5074 Y1.7646 I0.0212 J-0.087
G3 X0.4874 Y1.7386 I0.0413 J-0.0524
G3 X0.4814 Y1.7064 I0.0754 J-0.0309
G3 X0.4846 Y1.6834 I0.0907 J0.0011
G3 X0.4973 Y1.6511 I0.1631 J0.0454
G3 X0.5148 Y1.6211 I0.2756 J0.1406
G1 X0.5763 Y1.5274
G1 X0.4635
G1 Y1.48
G1 X0.6604
G0 Z0.125
G0 X0.4123 Y1.549
G0 Z0.0425
G1 F10.0 Z-0.021
G3 F12.0 X0.4161 Y1.567 I-0.1417 J0.0394
G3 X0.419 Y1.6069 I-0.2521 J0.0384
G3 X0.4076 Y1.6657 I-0.1624 J-0.001
G3 X0.3786 Y1.7181 I-0.2195 J-0.0873
G3 X0.3404 Y1.76 I-0.1835 J-0.1289
G3 X0.2902 Y1.7864 I-0.0828 J-0.0966
G1 X0.2619 Y1.7564
G2 X0.3175 Y1.7144 I-0.1004 J-0.1905
G2 X0.3373 Y1.6904 I-0.1398 J-0.1358
G2 X0.352 Y1.6629 I-0.1026 J-0.0722
G3 X0.334 Y1.6696 I-0.0546 J-0.1189
G3 X0.315 Y1.6726 I-0.0201 J-0.0674
G3 X0.2782 Y1.6665 I-0.0014 J-0.1061
G3 X0.247 Y1.6461 I0.0285 J-0.0779
G3 X0.2269 Y1.6131 I0.0607 J-0.0596
G3 X0.2211 Y1.575 I0.1138 J-0.0366
G3 X0.2272 Y1.5364 I0.1166 J-0.0014
G3 X0.2476 Y1.5032 I0.0853 J0.0295
G3 X0.2779 Y1.4825 I0.0629 J0.0596
G3 X0.314 Y1.4759 I0.035 J0.0896
G3 X0.3615 Y1.4847 I0.0025 J0.1183
G3 X0.3905 Y1.506 I-0.0322 J0.0746
G3 X0.405 Y1.5286 I-0.0718 J0.0617
G3 X0.4123 Y1.549 I-0.1344 J0.0598
G0 Z0.125
G0 X0.0
G0 Z0.0625
G1 F10.0 Z-0.001
G1 F12.0 Y0.0
G1 X2.0
G1 Y2.0
G1 X0.0
G1 Y1.549
G0 Z0.125
G0 X0.2756 Y1.5669
G0 Z0.0425
G1 F10.0 Z-0.021
G2 F12.0 X0.2755 Y1.5729 I0.079 J0.0051
G2 X0.278 Y1.5937 I0.0799 J0.0009
G2 X0.2874 Y1.6125 I0.0483 J-0.0124
G2 X0.3177 Y1.6272 I0.0295 J-0.0222
G2 X0.3372 Y1.6243 I0.001 J-0.0585
G2 X0.3585 Y1.6045 I-0.0114 J-0.0337
G2 X0.3637 Y1.576 I-0.0654 J-0.0265
G2 X0.3617 Y1.5558 I-0.095 J-0.0009
G2 X0.3564 Y1.5413 I-0.0526 J0.0109
G2 X0.3397 Y1.5256 I-0.0318 J0.0171
G2 X0.3171 Y1.5212 I-0.0212 J0.0494
G2 X0.3003 Y1.5244 I-0.0006 J0.0419
G2 X0.2867 Y1.5348 I0.0146 J0.0333
G2 X0.2778 Y1.5529 I0.0367 J0.0294
G2 X0.2756 Y1.5669 I0.0768 J0.0192
G0 Z0.125
G0 X0.6717 Y1.1736
G0 Z0.0425
G1 F10.0 Z-0.021
G2 F12.0 X0.6926 Y1.1891 I0.0608 J-0.0603
G2 X0.7238 Y1.1965 I0.0308 J-0.0605
G2 X0.7587 Y1.1874 I0.0005 J-0.0694
G2 X0.7855 Y1.1633 I-0.047 J-0.0794
G2 X0.8063 Y1.1187 I-0.0955 J-0.0716
G2 X0.8121 Y1.0699 I-0.2072 J-0.0494
G1 X0.6648
G2 X0.6492 Y1.0766 I-0.0011 J0.0191
G2 X0.6443 Y1.0894 I0.0225 J0.0159
G2 X0.6434 Y1.1031 I0.0862 J0.0129
G2 X0.6676 Y1.1691 I0.0953 J0.0025
G2 X0.6717 Y1.1736 I0.0649 J-0.0558
G0 Z0.125
G0 X0.9717 Y0.6037
G0 Z0.0425
G1 F10.0 Z-0.021
G2 F12.0 X0.99 Y0.6081 I0.0177 J-0.0336
G2 X1.0198 Y0.5946 I0.0005 J-0.0384
G2 X1.0294 Y0.5762 I-0.0339 J-0.0294
G2 X1.0319 Y0.5556 I-0.0764 J-0.0196
G2 X1.0294 Y0.535 I-0.0789 J-0.001
G2 X1.0198 Y0.5166 I-0.0435 J0.011
G2 X0.99 Y0.503 I-0.0293 J0.0249
G2 X0.9604 Y0.5166 I-0.0006 J0.0379
G2 X0.9507 Y0.5351 I0.034 J0.0294
G2 X0.9483 Y0.5559 I0.0781 J0.0198
G2 X0.9508 Y0.5763 I0.0772 J0.001
G2 X0.9604 Y0.5946 I0.0435 J-0.0112
G2 X0.9717 Y0.6037 I0.029 J-0.0244
G0 Z0.125
G0 X0.8906 Y0.3338
G0 Z0.0425
G1 F10.0 Z-0.021
G2 F12.0 X0.8986 Y0.3283 I-0.0045 J-0.0151
G2 X0.9016 Y0.3173 I-0.0157 J-0.0102
G2 X0.8994 Y0.3086 I-0.0191 J0.0003
G2 X0.8942 Y0.3013 I-0.0301 J0.0159
G2 X0.8784 Y0.2901 I-0.0319 J0.0281
G2 X0.8715 Y0.2951 I0.0103 J0.0215
G2 X0.8663 Y0.3018 I0.0271 J0.0262
G2 X0.8627 Y0.3093 I0.0368 J0.0227
G2 X0.8611 Y0.3175 I0.0224 J0.0086
G2 X0.8667 Y0.3303 I0.0159 J0.0007
G2 X0.8813 Y0.335 I0.0136 J-0.017
G2 X0.8889 Y0.3343 I0.0004 J-0.0341
G2 X0.8906 Y0.3338 I-0.0028 J-0.0155
G0 Z0.125
G0 X0.8848 Y0.2651
G0 Z0.0425
G1 F10.0 Z-0.021
G2 F12.0 X0.9012 Y0.2514 I-0.0252 J-0.0471
G2 X0.9081 Y0.2311 I-0.0258 J-0.02
G2 X0.9009 Y0.2121 I-0.0265 J-0.0008
G2 X0.882 Y0.2045 I-0.018 J0.0176
G2 X0.8714 Y0.206 I-0.0004 J0.0356
G2 X0.8621 Y0.2111 I0.0076 J0.0249
G2 X0.8542 Y0.2287 I0.0142 J0.0169
G2 X0.8575 Y0.2407 I0.025 J-0.0003
G2 X0.8696 Y0.2546 I0.0432 J-0.0253
G2 X0.8848 Y0.2651 I0.0711 J-0.0871
G0 Z0.125
M5
M30
