( Made using CamBam - http://www.cambam.co.uk )
( 029-copper 11/26/2013 7:44:11 PM )
( T0 : 0.0313 )
G20 G90 G91.1 G64 G40
G0 Z0.125
( T0 : 0.0313 )
T0 M6
( Pocket1 )
G17
M3 S10000
G0 X0.7531 Y2.75
G0 Z0.0625
G1 F4.0 Z-0.0313
G2 F8.0 X0.7484 Y2.7473 I-0.0031 J0.0
G2 Y2.7527 I0.0016 J0.0027
G2 X0.7531 Y2.75 I0.0016 J-0.0027
G1 F4.0 X0.7594
G2 F8.0 X0.7453 Y2.7419 I-0.0094 J0.0
G2 Y2.7581 I0.0047 J0.0081
G2 X0.7594 Y2.75 I0.0047 J-0.0081
G1 F4.0 X0.7719
G2 F8.0 X0.7391 Y2.7311 I-0.0219 J0.0
G2 Y2.7689 I0.0109 J0.0189
G2 X0.7719 Y2.75 I0.0109 J-0.0189
G1 F4.0 X0.7844
G2 F8.0 X0.7328 Y2.7202 I-0.0344 J0.0
G2 Y2.7798 I0.0172 J0.0298
G2 X0.7844 Y2.75 I0.0172 J-0.0298
G1 F4.0 X0.7969
G2 F8.0 X0.7266 Y2.7094 I-0.0469 J0.0
G2 Y2.7906 I0.0234 J0.0406
G2 X0.7969 Y2.75 I0.0234 J-0.0406
G0 Z0.125
G0 X0.7531
G0 Z0.0312
G1 F4.0 Z-0.0625
G2 F8.0 X0.7484 Y2.7473 I-0.0031 J0.0
G2 Y2.7527 I0.0016 J0.0027
G2 X0.7531 Y2.75 I0.0016 J-0.0027
G1 F4.0 X0.7594
G2 F8.0 X0.7453 Y2.7419 I-0.0094 J0.0
G2 Y2.7581 I0.0047 J0.0081
G2 X0.7594 Y2.75 I0.0047 J-0.0081
G1 F4.0 X0.7719
G2 F8.0 X0.7391 Y2.7311 I-0.0219 J0.0
G2 Y2.7689 I0.0109 J0.0189
G2 X0.7719 Y2.75 I0.0109 J-0.0189
G1 F4.0 X0.7844
G2 F8.0 X0.7328 Y2.7202 I-0.0344 J0.0
G2 Y2.7798 I0.0172 J0.0298
G2 X0.7844 Y2.75 I0.0172 J-0.0298
G1 F4.0 X0.7969
G2 F8.0 X0.7266 Y2.7094 I-0.0469 J0.0
G2 Y2.7906 I0.0234 J0.0406
G2 X0.7969 Y2.75 I0.0234 J-0.0406
G0 Z0.125
G0 X0.7531
G0 Z0.0
G1 F4.0 Z-0.0938
G2 F8.0 X0.7484 Y2.7473 I-0.0031 J0.0
G2 Y2.7527 I0.0016 J0.0027
G2 X0.7531 Y2.75 I0.0016 J-0.0027
G1 F4.0 X0.7594
G2 F8.0 X0.7453 Y2.7419 I-0.0094 J0.0
G2 Y2.7581 I0.0047 J0.0081
G2 X0.7594 Y2.75 I0.0047 J-0.0081
G1 F4.0 X0.7719
G2 F8.0 X0.7391 Y2.7311 I-0.0219 J0.0
G2 Y2.7689 I0.0109 J0.0189
G2 X0.7719 Y2.75 I0.0109 J-0.0189
G1 F4.0 X0.7844
G2 F8.0 X0.7328 Y2.7202 I-0.0344 J0.0
G2 Y2.7798 I0.0172 J0.0298
G2 X0.7844 Y2.75 I0.0172 J-0.0298
G1 F4.0 X0.7969
G2 F8.0 X0.7266 Y2.7094 I-0.0469 J0.0
G2 Y2.7906 I0.0234 J0.0406
G2 X0.7969 Y2.75 I0.0234 J-0.0406
G0 Z0.125
G0 X0.7531
G0 Z-0.0323
G1 F4.0 Z-0.126
G2 F8.0 X0.7484 Y2.7473 I-0.0031 J0.0
G2 Y2.7527 I0.0016 J0.0027
G2 X0.7531 Y2.75 I0.0016 J-0.0027
G1 F4.0 X0.7594
G2 F8.0 X0.7453 Y2.7419 I-0.0094 J0.0
G2 Y2.7581 I0.0047 J0.0081
G2 X0.7594 Y2.75 I0.0047 J-0.0081
G1 F4.0 X0.7719
G2 F8.0 X0.7391 Y2.7311 I-0.0219 J0.0
G2 Y2.7689 I0.0109 J0.0189
G2 X0.7719 Y2.75 I0.0109 J-0.0189
G1 F4.0 X0.7844
G2 F8.0 X0.7328 Y2.7202 I-0.0344 J0.0
G2 Y2.7798 I0.0172 J0.0298
G2 X0.7844 Y2.75 I0.0172 J-0.0298
G1 F4.0 X0.7969
G2 F8.0 X0.7266 Y2.7094 I-0.0469 J0.0
G2 Y2.7906 I0.0234 J0.0406
G2 X0.7969 Y2.75 I0.0234 J-0.0406
G0 Z0.125
G0 X3.2469
G0 Z0.0625
G1 F4.0 Z-0.0313
G2 F8.0 X3.2484 Y2.7527 I0.0031 J0.0
G2 X3.2531 Y2.75 I0.0016 J-0.0027
G2 X3.2484 Y2.7473 I-0.0031 J0.0
G2 X3.2469 Y2.75 I0.0016 J0.0027
G1 F4.0 X3.2406
G2 F8.0 X3.2453 Y2.7581 I0.0094 J0.0
G2 X3.2594 Y2.75 I0.0047 J-0.0081
G2 X3.2453 Y2.7419 I-0.0094 J0.0
G2 X3.2406 Y2.75 I0.0047 J0.0081
G1 F4.0 X3.2281
G2 F8.0 X3.2391 Y2.7689 I0.0219 J0.0
G2 X3.2719 Y2.75 I0.0109 J-0.0189
G2 X3.2391 Y2.7311 I-0.0219 J0.0
G2 X3.2281 Y2.75 I0.0109 J0.0189
G1 F4.0 X3.2156
G2 F8.0 X3.2328 Y2.7798 I0.0344 J0.0
G2 X3.2844 Y2.75 I0.0172 J-0.0298
G2 X3.2328 Y2.7202 I-0.0344 J0.0
G2 X3.2156 Y2.75 I0.0172 J0.0298
G1 F4.0 X3.2031
G2 F8.0 X3.2266 Y2.7906 I0.0469 J0.0
G2 X3.2969 Y2.75 I0.0234 J-0.0406
G2 X3.2266 Y2.7094 I-0.0469 J0.0
G2 X3.2031 Y2.75 I0.0234 J0.0406
G0 Z0.125
G0 X3.2469
G0 Z0.0312
G1 F4.0 Z-0.0625
G2 F8.0 X3.2484 Y2.7527 I0.0031 J0.0
G2 X3.2531 Y2.75 I0.0016 J-0.0027
G2 X3.2484 Y2.7473 I-0.0031 J0.0
G2 X3.2469 Y2.75 I0.0016 J0.0027
G1 F4.0 X3.2406
G2 F8.0 X3.2453 Y2.7581 I0.0094 J0.0
G2 X3.2594 Y2.75 I0.0047 J-0.0081
G2 X3.2453 Y2.7419 I-0.0094 J0.0
G2 X3.2406 Y2.75 I0.0047 J0.0081
G1 F4.0 X3.2281
G2 F8.0 X3.2391 Y2.7689 I0.0219 J0.0
G2 X3.2719 Y2.75 I0.0109 J-0.0189
G2 X3.2391 Y2.7311 I-0.0219 J0.0
G2 X3.2281 Y2.75 I0.0109 J0.0189
G1 F4.0 X3.2156
G2 F8.0 X3.2328 Y2.7798 I0.0344 J0.0
G2 X3.2844 Y2.75 I0.0172 J-0.0298
G2 X3.2328 Y2.7202 I-0.0344 J0.0
G2 X3.2156 Y2.75 I0.0172 J0.0298
G1 F4.0 X3.2031
G2 F8.0 X3.2266 Y2.7906 I0.0469 J0.0
G2 X3.2969 Y2.75 I0.0234 J-0.0406
G2 X3.2266 Y2.7094 I-0.0469 J0.0
G2 X3.2031 Y2.75 I0.0234 J0.0406
G0 Z0.125
G0 X3.2469
G0 Z0.0
G1 F4.0 Z-0.0938
G2 F8.0 X3.2484 Y2.7527 I0.0031 J0.0
G2 X3.2531 Y2.75 I0.0016 J-0.0027
G2 X3.2484 Y2.7473 I-0.0031 J0.0
G2 X3.2469 Y2.75 I0.0016 J0.0027
G1 F4.0 X3.2406
G2 F8.0 X3.2453 Y2.7581 I0.0094 J0.0
G2 X3.2594 Y2.75 I0.0047 J-0.0081
G2 X3.2453 Y2.7419 I-0.0094 J0.0
G2 X3.2406 Y2.75 I0.0047 J0.0081
G1 F4.0 X3.2281
G2 F8.0 X3.2391 Y2.7689 I0.0219 J0.0
G2 X3.2719 Y2.75 I0.0109 J-0.0189
G2 X3.2391 Y2.7311 I-0.0219 J0.0
G2 X3.2281 Y2.75 I0.0109 J0.0189
G1 F4.0 X3.2156
G2 F8.0 X3.2328 Y2.7798 I0.0344 J0.0
G2 X3.2844 Y2.75 I0.0172 J-0.0298
G2 X3.2328 Y2.7202 I-0.0344 J0.0
G2 X3.2156 Y2.75 I0.0172 J0.0298
G1 F4.0 X3.2031
G2 F8.0 X3.2266 Y2.7906 I0.0469 J0.0
G2 X3.2969 Y2.75 I0.0234 J-0.0406
G2 X3.2266 Y2.7094 I-0.0469 J0.0
G2 X3.2031 Y2.75 I0.0234 J0.0406
G0 Z0.125
G0 X3.2469
G0 Z-0.0323
G1 F4.0 Z-0.126
G2 F8.0 X3.2484 Y2.7527 I0.0031 J0.0
G2 X3.2531 Y2.75 I0.0016 J-0.0027
G2 X3.2484 Y2.7473 I-0.0031 J0.0
G2 X3.2469 Y2.75 I0.0016 J0.0027
G1 F4.0 X3.2406
G2 F8.0 X3.2453 Y2.7581 I0.0094 J0.0
G2 X3.2594 Y2.75 I0.0047 J-0.0081
G2 X3.2453 Y2.7419 I-0.0094 J0.0
G2 X3.2406 Y2.75 I0.0047 J0.0081
G1 F4.0 X3.2281
G2 F8.0 X3.2391 Y2.7689 I0.0219 J0.0
G2 X3.2719 Y2.75 I0.0109 J-0.0189
G2 X3.2391 Y2.7311 I-0.0219 J0.0
G2 X3.2281 Y2.75 I0.0109 J0.0189
G1 F4.0 X3.2156
G2 F8.0 X3.2328 Y2.7798 I0.0344 J0.0
G2 X3.2844 Y2.75 I0.0172 J-0.0298
G2 X3.2328 Y2.7202 I-0.0344 J0.0
G2 X3.2156 Y2.75 I0.0172 J0.0298
G1 F4.0 X3.2031
G2 F8.0 X3.2266 Y2.7906 I0.0469 J0.0
G2 X3.2969 Y2.75 I0.0234 J-0.0406
G2 X3.2266 Y2.7094 I-0.0469 J0.0
G2 X3.2031 Y2.75 I0.0234 J0.0406
G0 Z0.125
G0 X3.2499 Y0.2531
G0 Z0.0625
G1 F4.0 Z-0.0313
G2 F8.0 X3.2531 Y0.25 I0.0001 J-0.0031
G2 X3.2484 Y0.2473 I-0.0031 J0.0
G2 Y0.2527 I0.0016 J0.0027
G2 X3.2499 Y0.2531 I0.0016 J-0.0027
G1 F4.0 X3.2498 Y0.2594
G2 F8.0 X3.2594 Y0.25 I0.0002 J-0.0094
G2 X3.2453 Y0.2419 I-0.0094 J0.0
G2 Y0.2581 I0.0047 J0.0081
G2 X3.2498 Y0.2594 I0.0047 J-0.0081
G1 F4.0 X3.2496 Y0.2719
G2 F8.0 X3.2719 Y0.25 I0.0004 J-0.0219
G2 X3.2391 Y0.2311 I-0.0219 J0.0
G2 Y0.2689 I0.0109 J0.0189
G2 X3.2496 Y0.2719 I0.0109 J-0.0189
G1 F4.0 X3.2494 Y0.2844
G2 F8.0 X3.2844 Y0.25 I0.0006 J-0.0344
G2 X3.2328 Y0.2202 I-0.0344 J0.0
G2 Y0.2798 I0.0172 J0.0298
G2 X3.2494 Y0.2844 I0.0172 J-0.0298
G1 F4.0 X3.2491 Y0.2969
G2 F8.0 X3.2969 Y0.25 I0.0009 J-0.0469
G2 X3.2266 Y0.2094 I-0.0469 J0.0
G2 Y0.2906 I0.0234 J0.0406
G2 X3.2491 Y0.2969 I0.0234 J-0.0406
G0 Z0.125
G0 X3.2499 Y0.2531
G0 Z0.0312
G1 F4.0 Z-0.0625
G2 F8.0 X3.2531 Y0.25 I0.0001 J-0.0031
G2 X3.2484 Y0.2473 I-0.0031 J0.0
G2 Y0.2527 I0.0016 J0.0027
G2 X3.2499 Y0.2531 I0.0016 J-0.0027
G1 F4.0 X3.2498 Y0.2594
G2 F8.0 X3.2594 Y0.25 I0.0002 J-0.0094
G2 X3.2453 Y0.2419 I-0.0094 J0.0
G2 Y0.2581 I0.0047 J0.0081
G2 X3.2498 Y0.2594 I0.0047 J-0.0081
G1 F4.0 X3.2496 Y0.2719
G2 F8.0 X3.2719 Y0.25 I0.0004 J-0.0219
G2 X3.2391 Y0.2311 I-0.0219 J0.0
G2 Y0.2689 I0.0109 J0.0189
G2 X3.2496 Y0.2719 I0.0109 J-0.0189
G1 F4.0 X3.2494 Y0.2844
G2 F8.0 X3.2844 Y0.25 I0.0006 J-0.0344
G2 X3.2328 Y0.2202 I-0.0344 J0.0
G2 Y0.2798 I0.0172 J0.0298
G2 X3.2494 Y0.2844 I0.0172 J-0.0298
G1 F4.0 X3.2491 Y0.2969
G2 F8.0 X3.2969 Y0.25 I0.0009 J-0.0469
G2 X3.2266 Y0.2094 I-0.0469 J0.0
G2 Y0.2906 I0.0234 J0.0406
G2 X3.2491 Y0.2969 I0.0234 J-0.0406
G0 Z0.125
G0 X3.2499 Y0.2531
G0 Z0.0
G1 F4.0 Z-0.0938
G2 F8.0 X3.2531 Y0.25 I0.0001 J-0.0031
G2 X3.2484 Y0.2473 I-0.0031 J0.0
G2 Y0.2527 I0.0016 J0.0027
G2 X3.2499 Y0.2531 I0.0016 J-0.0027
G1 F4.0 X3.2498 Y0.2594
G2 F8.0 X3.2594 Y0.25 I0.0002 J-0.0094
G2 X3.2453 Y0.2419 I-0.0094 J0.0
G2 Y0.2581 I0.0047 J0.0081
G2 X3.2498 Y0.2594 I0.0047 J-0.0081
G1 F4.0 X3.2496 Y0.2719
G2 F8.0 X3.2719 Y0.25 I0.0004 J-0.0219
G2 X3.2391 Y0.2311 I-0.0219 J0.0
G2 Y0.2689 I0.0109 J0.0189
G2 X3.2496 Y0.2719 I0.0109 J-0.0189
G1 F4.0 X3.2494 Y0.2844
G2 F8.0 X3.2844 Y0.25 I0.0006 J-0.0344
G2 X3.2328 Y0.2202 I-0.0344 J0.0
G2 Y0.2798 I0.0172 J0.0298
G2 X3.2494 Y0.2844 I0.0172 J-0.0298
G1 F4.0 X3.2491 Y0.2969
G2 F8.0 X3.2969 Y0.25 I0.0009 J-0.0469
G2 X3.2266 Y0.2094 I-0.0469 J0.0
G2 Y0.2906 I0.0234 J0.0406
G2 X3.2491 Y0.2969 I0.0234 J-0.0406
G0 Z0.125
G0 X3.2499 Y0.2531
G0 Z-0.0323
G1 F4.0 Z-0.126
G2 F8.0 X3.2531 Y0.25 I0.0001 J-0.0031
G2 X3.2484 Y0.2473 I-0.0031 J0.0
G2 Y0.2527 I0.0016 J0.0027
G2 X3.2499 Y0.2531 I0.0016 J-0.0027
G1 F4.0 X3.2498 Y0.2594
G2 F8.0 X3.2594 Y0.25 I0.0002 J-0.0094
G2 X3.2453 Y0.2419 I-0.0094 J0.0
G2 Y0.2581 I0.0047 J0.0081
G2 X3.2498 Y0.2594 I0.0047 J-0.0081
G1 F4.0 X3.2496 Y0.2719
G2 F8.0 X3.2719 Y0.25 I0.0004 J-0.0219
G2 X3.2391 Y0.2311 I-0.0219 J0.0
G2 Y0.2689 I0.0109 J0.0189
G2 X3.2496 Y0.2719 I0.0109 J-0.0189
G1 F4.0 X3.2494 Y0.2844
G2 F8.0 X3.2844 Y0.25 I0.0006 J-0.0344
G2 X3.2328 Y0.2202 I-0.0344 J0.0
G2 Y0.2798 I0.0172 J0.0298
G2 X3.2494 Y0.2844 I0.0172 J-0.0298
G1 F4.0 X3.2491 Y0.2969
G2 F8.0 X3.2969 Y0.25 I0.0009 J-0.0469
G2 X3.2266 Y0.2094 I-0.0469 J0.0
G2 Y0.2906 I0.0234 J0.0406
G2 X3.2491 Y0.2969 I0.0234 J-0.0406
G0 Z0.125
G0 X0.7531 Y0.2501
G0 Z0.0625
G1 F4.0 Z-0.0313
G1 F8.0 Y0.25
G2 X0.7484 Y0.2473 I-0.0031 J0.0
G2 Y0.2527 I0.0016 J0.0027
G2 X0.7531 Y0.2501 I0.0016 J-0.0027
G1 F4.0 X0.7594 Y0.2502
G2 F8.0 Y0.25 I-0.0094 J-0.0002
G2 X0.7453 Y0.2419 I-0.0094 J0.0
G2 Y0.2581 I0.0047 J0.0081
G2 X0.7594 Y0.2502 I0.0047 J-0.0081
G1 F4.0 X0.7719 Y0.2504
G2 F8.0 Y0.25 I-0.0219 J-0.0004
G2 X0.7391 Y0.2311 I-0.0219 J0.0
G2 Y0.2689 I0.0109 J0.0189
G2 X0.7719 Y0.2504 I0.0109 J-0.0189
G1 F4.0 X0.7844 Y0.2506
G2 F8.0 Y0.25 I-0.0344 J-0.0006
G2 X0.7328 Y0.2202 I-0.0344 J0.0
G2 Y0.2798 I0.0172 J0.0298
G2 X0.7844 Y0.2506 I0.0172 J-0.0298
G1 F4.0 X0.7969 Y0.2509
G2 F8.0 Y0.25 I-0.0469 J-0.0009
G2 X0.7266 Y0.2094 I-0.0469 J0.0
G2 Y0.2906 I0.0234 J0.0406
G2 X0.7969 Y0.2509 I0.0234 J-0.0406
G0 Z0.125
G0 X0.7531 Y0.2501
G0 Z0.0312
G1 F4.0 Z-0.0625
G1 F8.0 Y0.25
G2 X0.7484 Y0.2473 I-0.0031 J0.0
G2 Y0.2527 I0.0016 J0.0027
G2 X0.7531 Y0.2501 I0.0016 J-0.0027
G1 F4.0 X0.7594 Y0.2502
G2 F8.0 Y0.25 I-0.0094 J-0.0002
G2 X0.7453 Y0.2419 I-0.0094 J0.0
G2 Y0.2581 I0.0047 J0.0081
G2 X0.7594 Y0.2502 I0.0047 J-0.0081
G1 F4.0 X0.7719 Y0.2504
G2 F8.0 Y0.25 I-0.0219 J-0.0004
G2 X0.7391 Y0.2311 I-0.0219 J0.0
G2 Y0.2689 I0.0109 J0.0189
G2 X0.7719 Y0.2504 I0.0109 J-0.0189
G1 F4.0 X0.7844 Y0.2506
G2 F8.0 Y0.25 I-0.0344 J-0.0006
G2 X0.7328 Y0.2202 I-0.0344 J0.0
G2 Y0.2798 I0.0172 J0.0298
G2 X0.7844 Y0.2506 I0.0172 J-0.0298
G1 F4.0 X0.7969 Y0.2509
G2 F8.0 Y0.25 I-0.0469 J-0.0009
G2 X0.7266 Y0.2094 I-0.0469 J0.0
G2 Y0.2906 I0.0234 J0.0406
G2 X0.7969 Y0.2509 I0.0234 J-0.0406
G0 Z0.125
G0 X0.7531 Y0.2501
G0 Z0.0
G1 F4.0 Z-0.0938
G1 F8.0 Y0.25
G2 X0.7484 Y0.2473 I-0.0031 J0.0
G2 Y0.2527 I0.0016 J0.0027
G2 X0.7531 Y0.2501 I0.0016 J-0.0027
G1 F4.0 X0.7594 Y0.2502
G2 F8.0 Y0.25 I-0.0094 J-0.0002
G2 X0.7453 Y0.2419 I-0.0094 J0.0
G2 Y0.2581 I0.0047 J0.0081
G2 X0.7594 Y0.2502 I0.0047 J-0.0081
G1 F4.0 X0.7719 Y0.2504
G2 F8.0 Y0.25 I-0.0219 J-0.0004
G2 X0.7391 Y0.2311 I-0.0219 J0.0
G2 Y0.2689 I0.0109 J0.0189
G2 X0.7719 Y0.2504 I0.0109 J-0.0189
G1 F4.0 X0.7844 Y0.2506
G2 F8.0 Y0.25 I-0.0344 J-0.0006
G2 X0.7328 Y0.2202 I-0.0344 J0.0
G2 Y0.2798 I0.0172 J0.0298
G2 X0.7844 Y0.2506 I0.0172 J-0.0298
G1 F4.0 X0.7969 Y0.2509
G2 F8.0 Y0.25 I-0.0469 J-0.0009
G2 X0.7266 Y0.2094 I-0.0469 J0.0
G2 Y0.2906 I0.0234 J0.0406
G2 X0.7969 Y0.2509 I0.0234 J-0.0406
G0 Z0.125
G0 X0.7531 Y0.2501
G0 Z-0.0323
G1 F4.0 Z-0.126
G1 F8.0 Y0.25
G2 X0.7484 Y0.2473 I-0.0031 J0.0
G2 Y0.2527 I0.0016 J0.0027
G2 X0.7531 Y0.2501 I0.0016 J-0.0027
G1 F4.0 X0.7594 Y0.2502
G2 F8.0 Y0.25 I-0.0094 J-0.0002
G2 X0.7453 Y0.2419 I-0.0094 J0.0
G2 Y0.2581 I0.0047 J0.0081
G2 X0.7594 Y0.2502 I0.0047 J-0.0081
G1 F4.0 X0.7719 Y0.2504
G2 F8.0 Y0.25 I-0.0219 J-0.0004
G2 X0.7391 Y0.2311 I-0.0219 J0.0
G2 Y0.2689 I0.0109 J0.0189
G2 X0.7719 Y0.2504 I0.0109 J-0.0189
G1 F4.0 X0.7844 Y0.2506
G2 F8.0 Y0.25 I-0.0344 J-0.0006
G2 X0.7328 Y0.2202 I-0.0344 J0.0
G2 Y0.2798 I0.0172 J0.0298
G2 X0.7844 Y0.2506 I0.0172 J-0.0298
G1 F4.0 X0.7969 Y0.2509
G2 F8.0 Y0.25 I-0.0469 J-0.0009
G2 X0.7266 Y0.2094 I-0.0469 J0.0
G2 Y0.2906 I0.0234 J0.0406
G2 X0.7969 Y0.2509 I0.0234 J-0.0406
( Pocket3 )
S10000
G0 Z0.125
G0 X1.0719 Y0.5719
G0 Z0.0625
G1 F4.0 Z-0.02
G1 F8.0 Y0.5766
G3 X1.0766 Y0.5719 I0.0531 J0.0484
G1 X1.0719
G1 F4.0 X1.0656
G1 F8.0 Y0.5971
G3 X1.0971 Y0.5656 I0.0594 J0.0279
G1 X1.0656
G1 Y0.5719
G0 Z0.125
G0 X1.0719 Y2.4234
G0 Z0.0625
G1 F4.0 Z-0.02
G1 F8.0 Y2.4281
G1 X1.0766
G3 X1.0719 Y2.4234 I0.0484 J-0.0531
G1 F4.0 X1.0765 Y2.4192
G3 F8.0 X1.0656 Y2.4029 I0.0485 J-0.0442
G1 Y2.4344
G1 X1.0971
G3 X1.0765 Y2.4192 I0.0279 J-0.0594
G0 Z0.125
G0 X2.9234 Y2.4281
G0 Z0.0625
G1 F4.0 Z-0.02
G1 F8.0 X2.9281
G1 Y2.4234
G3 X2.9234 Y2.4281 I-0.0531 J-0.0484
G1 F4.0 X2.9192 Y2.4235
G3 F8.0 X2.9029 Y2.4344 I-0.0442 J-0.0485
G1 X2.9344
G1 Y2.4029
G3 X2.9192 Y2.4235 I-0.0594 J-0.0279
G0 Z0.125
G0 X2.9281 Y0.5766
G0 Z0.0625
G1 F4.0 Z-0.02
G1 F8.0 Y0.5719
G1 X2.9234
G3 X2.9281 Y0.5766 I-0.0484 J0.0531
G1 F4.0 X2.9344
G1 F8.0 Y0.5656
G1 X2.9029
G3 X2.9344 Y0.5971 I-0.0279 J0.0594
G1 Y0.5766
G0 Z0.125
G0 X2.8968 Y0.6073
G0 Z0.0625
G1 F4.0 Z-0.02
G3 F8.0 X2.9031 Y0.625 I-0.0218 J0.0177
G1 Y2.375
G3 X2.875 Y2.4031 I-0.0281 J0.0
G1 X1.125
G3 X1.0969 Y2.375 I0.0 J-0.0281
G1 Y0.625
G3 X1.125 Y0.5969 I0.0281 J0.0
G1 X2.875
G3 X2.8968 Y0.6073 I0.0 J0.0281
G1 F4.0 X2.8871 Y0.6151
G3 F8.0 X2.8906 Y0.625 I-0.0121 J0.0099
G1 Y2.375
G3 X2.875 Y2.3906 I-0.0156 J0.0
G1 X1.125
G3 X1.1094 Y2.375 I0.0 J-0.0156
G1 Y0.625
G3 X1.125 Y0.6094 I0.0156 J0.0
G1 X2.875
G3 X2.8871 Y0.6151 I0.0 J0.0156
G0 Z0.125
G0 X2.9065 Y0.5994
G0 Z0.0625
G1 F4.0 Z-0.02
G2 F8.0 X2.875 Y0.5844 I-0.0315 J0.0256
G1 X1.125
G2 X1.0844 Y0.625 I0.0 J0.0406
G1 Y2.375
G2 X1.125 Y2.4156 I0.0406 J0.0
G1 X2.875
G2 X2.9156 Y2.375 I0.0 J-0.0406
G1 Y0.625
G2 X2.9065 Y0.5994 I-0.0406 J0.0
G1 F4.0 X2.9162 Y0.5915
G2 F8.0 X2.875 Y0.5719 I-0.0412 J0.0335
G1 X1.125
G2 X1.0719 Y0.625 I0.0 J0.0531
G1 Y2.375
G2 X1.125 Y2.4281 I0.0531 J0.0
G1 X2.875
G2 X2.9281 Y2.375 I0.0 J-0.0531
G1 Y0.625
G2 X2.9162 Y0.5915 I-0.0531 J0.0
G0 Z0.125
G0 X2.9469
G0 Z0.0625
G1 F4.0 Z-0.02
G1 F8.0 Y0.5531
G1 X1.0531
G1 Y2.4469
G1 X2.9469
G1 Y0.5915
G1 F4.0 X2.9594
G1 F8.0 Y0.5406
G1 X1.0406
G1 Y2.4594
G1 X2.9594
G1 Y0.5915
G1 F4.0 X2.9719
G1 F8.0 Y0.5281
G1 X1.0281
G1 Y2.4719
G1 X2.9719
G1 Y0.5915
G1 F4.0 X2.9844
G1 F8.0 Y0.5156
G1 X1.0156
G1 Y2.4844
G1 X2.9844
G1 Y0.5915
G0 Z0.125
G0 X2.4167 Y1.555
G0 Z0.0625
G1 F4.0 Z-0.02
G3 F8.0 X2.4199 Y1.627 I-0.6895 J0.0671
G3 X2.4164 Y1.7073 I-0.8504 J0.0034
G2 X2.4262 Y1.6284 I-0.3009 J-0.0771
G3 Y1.6276 I0.0531 J-0.0003
G2 X2.4167 Y1.555 I-0.2639 J-0.0025
G1 F4.0 X2.4042 Y1.5562
G3 F8.0 X2.4074 Y1.627 I-0.677 J0.0659
G3 X2.4034 Y1.712 I-0.8379 J0.0034
G3 X2.3864 Y1.7997 I-0.4416 J-0.0405
G3 X2.3819 Y1.8129 I-0.215 J-0.0649
G2 X2.4056 Y1.7725 I-0.2396 J-0.1678
G3 X2.4057 Y1.7724 I0.0366 J0.0177
G2 X2.4387 Y1.6284 I-0.2902 J-0.1422
G3 Y1.6277 I0.0406 J-0.0002
G2 X2.407 Y1.4966 I-0.2764 J-0.0026
G3 X2.4068 Y1.4962 I0.036 J-0.0189
G2 X2.3859 Y1.4629 I-0.1991 J0.1018
G3 X2.3891 Y1.4733 I-0.2377 J0.0797
G3 X2.4006 Y1.5255 I-0.3764 J0.1097
G3 Y1.5257 I-0.0402 J0.006
G3 X2.4042 Y1.5562 I-0.6734 J0.0963
G1 F4.0 X2.3918 Y1.5574
G3 F8.0 X2.3949 Y1.627 I-0.6646 J0.0646
G3 X2.391 Y1.7108 I-0.8254 J0.0034
G3 X2.3744 Y1.7961 I-0.4292 J-0.0393
G3 X2.3476 Y1.8528 I-0.203 J-0.0613
G3 X2.3475 Y1.8529 I-0.0234 J-0.0157
G3 X2.3087 Y1.8942 I-0.1483 J-0.1004
G2 X2.33 Y1.8817 I-0.09 J-0.1784
G3 X2.3302 Y1.8816 I0.0157 J0.0234
G2 X2.3798 Y1.8365 I-0.1213 J-0.1833
G2 X2.4169 Y1.778 I-0.2375 J-0.1914
G3 Y1.7779 I0.0253 J0.0123
G2 X2.4512 Y1.6283 I-0.3014 J-0.1477
G3 Y1.6279 I0.0281 J-0.0002
G2 X2.4181 Y1.4908 I-0.2889 J-0.0027
G3 X2.4179 Y1.4905 I0.0249 J-0.0131
G2 X2.3311 Y1.3967 I-0.2103 J0.1075
G2 X2.3024 Y1.382 I-0.1172 J0.194
G3 X2.352 Y1.4208 I-0.1092 J0.1908
G3 X2.3562 Y1.4265 I-0.0203 J0.0194
G3 X2.3771 Y1.4767 I-0.208 J0.1161
G3 X2.3882 Y1.5274 I-0.3644 J0.1063
G3 Y1.5275 I-0.0278 J0.0041
G3 X2.3918 Y1.5574 I-0.661 J0.0945
G0 Z0.125
G0 X2.0495 Y1.8304
G0 Z0.0625
G1 F4.0 Z-0.02
G1 F8.0 X2.0505 Y1.8551
G3 X2.0611 Y1.8493 I0.0245 J0.0324
G3 X2.0495 Y1.8304 I0.2593 J-0.1718
G1 F4.0 X2.037 Y1.8309
G1 F8.0 X2.0399 Y1.8972
G1 X2.0493 Y1.876
G3 X2.085 Y1.8612 I0.0257 J0.0115
G3 X2.0423 Y1.7862 I0.2354 J-0.1836
G3 X2.0341 Y1.7648 I0.5835 J-0.2354
G1 X2.037 Y1.8309
G1 F4.0 X2.0245 Y1.8315
G1 F8.0 X2.0286 Y1.927
G1 X2.0403
G1 X2.0607 Y1.8811
G3 X2.0855 Y1.8759 I0.0143 J0.0064
G2 X2.1501 Y1.9159 I0.1424 J-0.158
G2 X2.2183 Y1.9281 I0.0678 J-0.1814
G1 X2.2184
G2 X2.337 Y1.8921 I0.0003 J-0.2123
G1 X2.3371 Y1.892
G2 X2.3895 Y1.8444 I-0.1282 J-0.1937
G2 X2.4281 Y1.7834 I-0.2472 J-0.1993
G1 X2.4282
G2 X2.4637 Y1.6282 I-0.3126 J-0.1532
G3 Y1.628 I0.0156 J-0.0001
G2 X2.4291 Y1.485 I-0.3014 J-0.0029
G3 Y1.4848 I0.0138 J-0.0073
G2 X2.3376 Y1.386 I-0.2214 J0.1131
G2 X2.2119 Y1.3516 I-0.1237 J0.2047
G3 X2.2115 I-0.0001 J-0.0156
G2 X2.1362 Y1.3639 I-0.0024 J0.221
G2 X2.0722 Y1.4035 I0.0626 J0.1731
G2 X2.0249 Y1.4758 I0.1375 J0.1413
G1 Y1.4759
G2 X2.0068 Y1.5457 I0.3222 J0.121
G1 X2.0184
G3 X2.0359 Y1.4834 I0.3569 J0.0665
G3 X2.08 Y1.4147 I0.1776 J0.0656
G3 X2.0802 Y1.4145 I0.011 J0.0111
G3 X2.1364 Y1.3791 I0.1144 J0.1194
G3 X2.1366 I0.0055 J0.0146
G3 X2.2012 Y1.368 I0.0629 J0.1727
G3 X2.2786 Y1.3839 I0.0013 J0.1897
G3 X2.2788 Y1.384 I-0.0063 J0.0143
G3 X2.3429 Y1.4294 I-0.0856 J0.1888
G3 X2.3453 Y1.4326 I-0.0113 J0.0108
G3 X2.3651 Y1.4802 I-0.1971 J0.11
G3 X2.3758 Y1.5292 I-0.3524 J0.1028
G1 Y1.5293
G3 X2.3824 Y1.627 I-0.6486 J0.0927
G3 X2.3786 Y1.7096 I-0.8129 J0.0034
G3 X2.3624 Y1.7924 I-0.4168 J-0.0382
G3 X2.3372 Y1.8458 I-0.191 J-0.0577
G1 Y1.8459
G3 X2.2853 Y1.8951 I-0.1379 J-0.0934
G3 X2.285 Y1.8953 I-0.0081 J-0.0134
G3 X2.2144 Y1.9137 I-0.069 J-0.1203
G3 X2.1484 Y1.8981 I-0.0011 J-0.1435
G3 X2.1481 Y1.898 I0.0071 J-0.0139
G3 X2.0965 Y1.8555 I0.078 J-0.1475
G3 X2.0964 Y1.8554 I0.0121 J-0.0098
G3 X2.0539 Y1.7816 I0.224 J-0.1778
G3 X2.0313 Y1.7148 I0.5718 J-0.2308
G1 X2.0194
G1 X2.0245 Y1.8315
G0 Z0.125
G0 X1.8408 Y1.6876
G0 Z0.0625
G1 F4.0 Z-0.02
G3 F8.0 X1.8313 Y1.6636 I0.0636 J-0.0393
G1 Y1.6881
G1 X1.8408 Y1.6876
G1 F4.0 X1.8415 Y1.7001
G1 F8.0 X1.8678 Y1.6987
G3 X1.8422 Y1.6507 I0.0366 J-0.0504
G3 Y1.6496 I0.0281 J-0.0011
G1 Y1.4938
G3 Y1.4934 I0.0281 J0.0
G2 X1.8363 Y1.4393 I-0.2234 J-0.0031
G3 X1.8362 Y1.4389 I0.0274 J-0.0064
G2 X1.8147 Y1.3986 I-0.0818 J0.0178
G2 X1.7848 Y1.3791 I-0.062 J0.0622
G2 X1.7484 Y1.3727 I-0.0354 J0.0942
G1 X1.7483
G2 X1.7313 Y1.3742 I0.0011 J0.108
G3 X1.7917 Y1.4039 I-0.0086 J0.0938
G3 X1.792 Y1.4043 I-0.0206 J0.0191
G3 X1.8139 Y1.4453 I-0.0725 J0.065
G3 X1.8188 Y1.4853 I-0.1485 J0.0382
G1 Y1.7012
G1 X1.8415 Y1.7001
G0 Z0.125
G0 X1.5958 Y1.6876
G0 Z0.0625
G1 F4.0 Z-0.02
G3 F8.0 X1.5879 Y1.671 I0.0563 J-0.037
G1 Y1.6881
G1 X1.5958 Y1.6876
G0 Z0.125
G0 X1.5879 Y1.4791
G0 Z0.0625
G1 F4.0 Z-0.02
G3 F8.0 X1.5964 Y1.451 I0.1564 J0.0318
G3 X1.5879 Y1.4404 I0.0271 J-0.0303
G1 Y1.4791
G0 Z0.125
G0 X1.5801 Y1.3922
G0 Z0.0625
G1 F4.0 Z-0.02
G1 F8.0 Y1.3918
G1 X1.5799
G3 X1.5801 Y1.3922 I-0.0607 J0.0305
G1 F4.0 X1.5689 Y1.3978
G3 F8.0 X1.5725 Y1.4069 I-0.0497 J0.0245
G3 X1.5754 Y1.4287 I-0.0727 J0.0209
G1 Y1.7012
G1 X1.6256 Y1.6986
G3 X1.6208 Y1.6957 I0.0303 J-0.056
G3 X1.6197 Y1.695 I0.0155 J-0.0234
G3 X1.5973 Y1.6492 I0.0324 J-0.0443
G1 Y1.5157
G3 X1.6121 Y1.4464 I0.147 J-0.0048
G3 X1.5954 Y1.4232 I0.0114 J-0.0257
G1 X1.5915 Y1.379
G1 X1.5546 Y1.3798
G3 X1.5556 Y1.3806 I-0.0403 J0.0536
G3 X1.558 Y1.3826 I-0.0173 J0.0221
G3 X1.5689 Y1.3978 I-0.0387 J0.0396
G1 F4.0 X1.5577 Y1.4033
G3 F8.0 X1.5604 Y1.4104 I-0.0385 J0.0189
G3 X1.5629 Y1.4286 I-0.0606 J0.0174
G1 Y1.7144
G1 X1.6738 Y1.7086
G1 Y1.6966
G3 X1.6459 Y1.6928 I0.0172 J-0.2296
G3 X1.6277 Y1.6853 I0.0101 J-0.0502
G3 X1.6271 Y1.6849 I0.0086 J-0.013
G3 X1.6098 Y1.6493 I0.025 J-0.0342
G1 Y1.5155
G3 X1.6415 Y1.424 I0.1345 J-0.0046
G3 X1.72 Y1.3863 I0.0788 J0.0634
G3 X1.7825 Y1.4124 I0.0026 J0.0817
G3 X1.7827 Y1.4126 I-0.0115 J0.0106
G3 X1.8018 Y1.4484 I-0.0632 J0.0567
G3 X1.8063 Y1.4853 I-0.1364 J0.0351
G1 Y1.7144
G1 X1.9184 Y1.7086
G1 Y1.6969
G3 X1.8975 Y1.6956 I0.0211 J-0.5052
G3 X1.8822 Y1.6926 I0.0041 J-0.0617
G3 X1.8792 Y1.6912 I0.0049 J-0.0148
G3 X1.8547 Y1.6502 I0.0252 J-0.0429
G3 Y1.6496 I0.0156 J-0.0006
G1 Y1.4938
G3 Y1.4935 I0.0156 J0.0
G2 X1.8485 Y1.4364 I-0.2359 J-0.0032
G3 X1.8484 Y1.4362 I0.0152 J-0.0036
G2 X1.8236 Y1.3899 I-0.094 J0.0205
G2 X1.7893 Y1.3674 I-0.0709 J0.0709
G2 X1.7482 Y1.3602 I-0.0399 J0.1059
G2 X1.6867 Y1.3778 I0.0012 J0.1205
G3 X1.6865 Y1.3779 I-0.0081 J-0.0133
G2 X1.637 Y1.4284 I0.0697 J0.1177
G3 X1.6079 Y1.4221 I-0.0136 J-0.0077
G1 X1.6029 Y1.3663
G1 X1.4965 Y1.3684
G1 Y1.3789
G1 X1.5112
G3 X1.5479 Y1.3904 I0.003 J0.0545
G3 X1.5492 Y1.3916 I-0.0096 J0.0123
G3 X1.5577 Y1.4033 I-0.03 J0.0307
G0 Z0.125
G0 X1.5968 Y2.0081
G0 Z0.0625
G1 F4.0 Z-0.02
G3 F8.0 X1.6044 Y2.0279 I-0.0205 J0.0192
G1 X1.6179 Y2.0081
G1 X1.5968
G1 F4.0 Y1.9956
G1 F8.0 X1.4792
G1 Y2.0117
G1 X1.5763
G3 X1.5894 Y2.0359 I0.0 J0.0156
G1 X1.5279 Y2.1297
G1 X1.5278
G2 X1.5112 Y2.1582 I0.2451 J0.162
G1 Y2.1583
G2 X1.4997 Y2.1876 I0.1366 J0.0705
G2 X1.497 Y2.2066 I0.0724 J0.0199
G1 Y2.2067
G2 X1.5018 Y2.2326 I0.0658 J0.0011
G2 X1.5171 Y2.2524 I0.0468 J-0.0203
G2 X1.5454 Y2.2662 I0.0458 J-0.058
G2 X1.5794 Y2.2701 I0.0325 J-0.1317
G3 X1.5797 I0.0002 J0.0156
G2 X1.6219 Y2.2582 I0.0007 J-0.0781
G3 X1.6223 Y2.258 I0.0083 J0.0132
G2 X1.6431 Y2.2394 I-0.037 J-0.0622
G1 X1.6312 Y2.23
G3 X1.6167 Y2.2436 I-0.0682 J-0.058
G3 X1.6165 Y2.2438 I-0.0094 J-0.0125
G3 X1.5777 Y2.2561 I-0.0383 J-0.0534
G3 X1.5502 Y2.2516 I-0.0017 J-0.0765
G3 X1.5249 Y2.2273 I0.0145 J-0.0405
G3 X1.5247 Y2.227 I0.0145 J-0.0059
G3 X1.5211 Y2.2062 I0.0521 J-0.0198
G3 X1.5244 Y2.183 I0.0896 J0.0011
G3 X1.5319 Y2.1626 I0.1331 J0.0369
G1 X1.532 Y2.1625
G3 X1.5524 Y2.1268 I0.2196 J0.1019
G1 X1.6415 Y1.9956
G1 X1.5968
G0 Z0.125
G0 X1.3719 Y2.1432
G0 Z0.0625
G1 F4.0 Z-0.02
G3 F8.0 X1.3806 Y2.163 I-0.0548 J0.0359
G3 X1.3836 Y2.1877 I-0.0936 J0.0239
G3 X1.3808 Y2.2117 I-0.0963 J0.0009
G3 X1.369 Y2.2359 I-0.0618 J-0.0151
G3 X1.3263 Y2.2561 I-0.0413 J-0.0323
G3 X1.2972 Y2.2502 I-0.0013 J-0.0684
G3 X1.2968 Y2.25 I0.0064 J-0.0143
G3 X1.273 Y2.2269 I0.0224 J-0.047
G3 X1.2664 Y2.2081 I0.0634 J-0.0329
G3 X1.2641 Y2.1848 I0.1122 J-0.0225
G3 X1.2704 Y2.1502 I0.0861 J-0.0022
G3 X1.2705 Y2.15 I0.0145 J0.0059
G3 X1.3012 Y2.1216 I0.0471 J0.0201
G1 X1.3013
G3 X1.3257 Y2.1178 I0.0234 J0.0704
G3 X1.3683 Y2.1383 I0.0007 J0.0531
G3 X1.3719 Y2.1432 I-0.0513 J0.0408
G0 Z0.125
G0 X1.2697 Y2.1192
G0 Z0.0625
G1 F4.0 Z-0.02
G3 F8.0 X1.2654 Y2.1143 I0.0236 J-0.025
G2 X1.2615 Y2.1283 I0.1212 J0.0405
G3 X1.2697 Y2.1192 I0.0561 J0.0418
G1 F4.0 X1.274 Y2.1147
G3 F8.0 X1.2654 Y2.0973 I0.0193 J-0.0204
G2 X1.262 Y2.1052 I0.1911 J0.0855
G2 X1.2525 Y2.1539 I0.1245 J0.0496
G2 X1.2528 Y2.1674 I0.2196 J0.0019
G3 X1.2589 Y2.1455 I0.0974 J0.0152
G3 X1.2591 Y2.1451 I0.026 J0.0106
G3 X1.2798 Y2.1189 I0.0586 J0.025
G3 X1.274 Y2.1147 I0.0135 J-0.0247
G1 F4.0 X1.2826 Y2.1056
G3 F8.0 X1.2792 Y2.0876 I0.0107 J-0.0113
G3 X1.3191 Y2.031 I0.1776 J0.0829
G1 X1.3192 Y2.0309
G3 X1.3568 Y2.0008 I0.1722 J0.1761
G1 X1.3485 Y1.992
G2 X1.3133 Y2.0124 I0.0372 J0.105
G1 X1.3132
G2 X1.2778 Y2.0513 I0.134 J0.1577
G3 X1.2776 Y2.0516 I-0.0128 J-0.009
G2 X1.2504 Y2.1006 I0.1788 J0.1313
G2 X1.24 Y2.1538 I0.1361 J0.0542
G2 X1.2438 Y2.1975 I0.2321 J0.002
G3 Y2.1977 I-0.0154 J0.0028
G2 X1.2581 Y2.2362 I0.1121 J-0.0195
G2 X1.2752 Y2.255 I0.0582 J-0.0358
G2 X1.3076 Y2.2683 I0.0443 J-0.0616
G3 X1.3077 Y2.2684 I-0.0025 J0.0154
G2 X1.3293 Y2.2701 I0.021 J-0.1223
G3 X1.3298 Y2.2702 I0.0001 J0.0156
G2 X1.3845 Y2.2474 I0.0019 J-0.0724
G3 X1.3846 Y2.2473 I0.0114 J0.0107
G2 X1.4015 Y2.2195 I-0.0544 J-0.0522
G2 X1.4067 Y2.1859 I-0.0978 J-0.0324
G3 Y2.1855 I0.0156 J-0.0002
G2 X1.4017 Y2.1522 I-0.1047 J-0.0014
G2 X1.3853 Y2.1253 I-0.0659 J0.0217
G1 Y2.1252
G2 X1.3599 Y2.1088 I-0.0489 J0.0478
G2 X1.3286 Y2.1037 I-0.0301 J0.0857
G3 X1.3283 I-0.0002 J-0.0156
G2 X1.3128 Y2.1048 I-0.0006 J0.1004
G2 X1.2995 Y2.1086 I0.0075 J0.0518
G3 X1.2826 Y2.1056 I-0.0062 J-0.0143
( Pocket2 )
S10000
G0 Z0.125
G0 X2.2581 Y0.7774
G0 Z0.0625
G1 F4.0 Z-0.02
G3 F8.0 X2.2365 Y0.765 I0.0039 J-0.0317
G3 X2.2291 Y0.7502 I0.0311 J-0.0247
G3 X2.2273 Y0.7353 I0.0558 J-0.0144
G3 X2.229 Y0.721 I0.0571 J-0.0005
G3 X2.2362 Y0.7063 I0.0369 J0.0091
G3 X2.2363 I0.0078 J0.0062
G3 X2.2481 Y0.6973 I0.0245 J0.02
G3 X2.2483 Y0.6972 I0.004 J0.0092
G3 X2.262 Y0.6945 I0.0134 J0.0323
G3 X2.2795 Y0.6979 I0.0008 J0.042
G3 X2.2797 Y0.698 I-0.0039 J0.0092
G3 X2.2943 Y0.7118 I-0.0131 J0.0286
G3 X2.2984 Y0.7231 I-0.037 J0.0199
G3 X2.2998 Y0.737 I-0.0652 J0.0135
G3 X2.296 Y0.7579 I-0.052 J0.0013
G3 X2.2959 Y0.7581 I-0.0093 J-0.0038
G3 X2.2773 Y0.7753 I-0.0287 J-0.0122
G1 X2.2772 Y0.7754
G3 X2.2625 Y0.7776 I-0.0142 J-0.0426
G3 X2.2581 Y0.7774 I-0.0005 J-0.032
G0 Z0.125
G0 X2.2938 Y0.7746
G0 Z0.0625
G1 F4.0 Z-0.02
G3 F8.0 X2.2997 Y0.7826 I-0.011 J0.0143
G2 X2.3047 Y0.7573 I-0.0736 J-0.0277
G3 X2.3034 Y0.7609 I-0.0569 J-0.019
G3 X2.3033 Y0.7612 I-0.0167 J-0.0068
G3 X2.2938 Y0.7746 I-0.036 J-0.0154
G1 F4.0 X2.2889 Y0.781
G3 F8.0 X2.2922 Y0.7925 I-0.0061 J0.0079
G3 X2.2823 Y0.811 I-0.0791 J-0.0302
G3 X2.2695 Y0.8265 I-0.1032 J-0.0723
G3 X2.2451 Y0.8468 I-0.1 J-0.0953
G1 X2.2491 Y0.851
G2 X2.2695 Y0.8391 I-0.0224 J-0.0618
G2 X2.2905 Y0.816 I-0.08 J-0.094
G3 X2.2906 Y0.8158 I0.0082 J0.0057
G2 X2.3067 Y0.7869 I-0.1053 J-0.0772
G2 X2.3128 Y0.7555 I-0.0806 J-0.0319
G2 X2.3111 Y0.7333 I-0.1418 J-0.0009
G2 X2.3053 Y0.713 I-0.0767 J0.0113
G2 X2.2982 Y0.702 I-0.0422 J0.0192
G2 X2.2846 Y0.692 I-0.0289 J0.0252
G2 X2.2605 Y0.6876 I-0.0229 J0.0559
G3 X2.2601 I-0.0002 J-0.01
G2 X2.2425 Y0.6908 I-0.0006 J0.0473
G2 X2.228 Y0.7007 I0.0157 J0.0385
G1 X2.2279
G2 X2.218 Y0.7168 I0.0314 J0.0304
G2 X2.215 Y0.7364 I0.0563 J0.0189
G3 Y0.7366 I-0.01 J0.0001
G2 X2.2179 Y0.7562 I0.0611 J0.0008
G2 X2.2275 Y0.7719 I0.0386 J-0.0128
G2 X2.2423 Y0.7816 I0.0284 J-0.0273
G2 X2.2607 Y0.7846 I0.0177 J-0.0501
G2 X2.2693 Y0.7833 I-0.0006 J-0.0319
G2 X2.2787 Y0.7798 I-0.019 J-0.0652
G3 X2.2889 Y0.781 I0.0042 J0.0091
G0 Z0.125
G0 X2.156 Y0.6984
G0 Z0.0625
G1 F4.0 Z-0.02
G2 F8.0 X2.1499 Y0.6954 I-0.0256 J0.0448
G3 X2.1518 Y0.6964 I-0.0216 J0.0453
G3 X2.1519 Y0.6965 I-0.0066 J0.0124
G3 X2.1558 Y0.6988 I-0.0318 J0.0588
G1 X2.156 Y0.6984
G0 Z0.125
G0 X2.108 Y0.694
G0 Z0.0625
G1 F4.0 Z-0.02
G2 F8.0 X2.1076 Y0.6941 I0.0196 J0.0785
G2 X2.0909 Y0.7024 I0.0106 J0.042
G2 X2.082 Y0.7145 I0.0192 J0.0235
G2 X2.0791 Y0.7309 I0.0409 J0.0157
G3 Y0.7314 I-0.014 J0.0002
G2 X2.0819 Y0.7463 I0.038 J0.0006
G2 X2.0904 Y0.7575 I0.027 J-0.0117
G2 X2.0926 Y0.7591 I0.0283 J-0.0351
G3 X2.0872 Y0.7497 I0.0318 J-0.0246
G3 X2.0871 Y0.7496 I0.013 J-0.0053
G3 X2.084 Y0.733 I0.0412 J-0.0162
G3 X2.087 Y0.7152 I0.0507 J-0.0008
G3 Y0.715 I0.0132 J0.0047
G3 X2.1006 Y0.6978 I0.0333 J0.0122
G3 X2.1007 Y0.6977 I0.0078 J0.0116
G3 X2.108 Y0.694 I0.0223 J0.0343
G0 Z0.125
G0 X2.1066 Y0.7708
G0 Z0.0625
G1 F4.0 Z-0.02
G3 F8.0 X2.1069 Y0.7797 I-0.0131 J0.005
G3 X2.1077 Y0.7793 I0.0154 J0.0279
G3 X2.1186 Y0.7755 I0.019 J0.0367
G3 X2.1199 Y0.7752 I0.0123 J0.0612
G3 X2.1138 Y0.7737 I0.01 J-0.0547
G1 X2.1137
G3 X2.1066 Y0.7708 I0.0127 J-0.0409
G0 Z0.125
G0 X2.0942 Y0.7928
G0 Z0.0625
G1 F4.0 Z-0.02
G2 F8.0 X2.0889 Y0.7995 I0.0228 J0.0235
G2 X2.085 Y0.8153 I0.0283 J0.0152
G3 Y0.8158 I-0.014 J0.0003
G2 X2.0875 Y0.8292 I0.0347 J0.0006
G2 X2.0948 Y0.8389 I0.0228 J-0.0097
G2 X2.1091 Y0.8459 I0.0231 J-0.029
G1 X2.1092
G2 X2.1149 Y0.8471 I0.0175 J-0.0713
G3 X2.1094 Y0.845 I0.0136 J-0.0453
G3 X2.109 Y0.8448 I0.0056 J-0.0128
G3 X2.092 Y0.8251 I0.0139 J-0.0291
G3 X2.09 Y0.8112 I0.0441 J-0.0135
G3 X2.0934 Y0.7942 I0.0399 J-0.0007
G3 X2.0936 Y0.7939 I0.0128 J0.0057
G3 X2.0942 Y0.7928 I0.0287 J0.0137
G1 F4.0 X2.0914 Y0.7899
G2 F8.0 X2.0854 Y0.7975 I0.0256 J0.0263
G2 X2.081 Y0.8154 I0.0318 J0.0172
G3 Y0.8158 I-0.01 J0.0002
G2 X2.0838 Y0.8307 I0.0387 J0.0006
G2 X2.0923 Y0.842 I0.0265 J-0.0112
G2 X2.1082 Y0.8498 I0.0256 J-0.0321
G2 X2.1276 Y0.852 I0.0185 J-0.0752
G2 X2.1481 Y0.8476 I-0.0004 J-0.0514
G3 X2.1482 Y0.8475 I0.004 J0.0091
G2 X2.1564 Y0.8432 I-0.021 J-0.0497
G2 X2.1569 Y0.8429 I-0.0137 J-0.0217
G1 X2.1531 Y0.8373
G3 X2.1484 Y0.8401 I-0.033 J-0.0488
G1 Y0.8402
G3 X2.1297 Y0.845 I-0.0191 J-0.035
G3 X2.111 Y0.8414 I-0.0013 J-0.0433
G3 X2.1107 Y0.8412 I0.004 J-0.0092
G3 X2.0958 Y0.8239 I0.0122 J-0.0255
G3 X2.094 Y0.8111 I0.0403 J-0.0123
G3 X2.0971 Y0.7959 I0.0359 J-0.0007
G3 X2.0972 Y0.7956 I0.0091 J0.0041
G3 X2.1096 Y0.7829 I0.0251 J0.012
G3 X2.1194 Y0.7794 I0.0172 J0.0331
G3 X2.1261 Y0.7785 I0.0115 J0.0573
G1 Y0.772
G3 X2.1149 Y0.7699 I0.0039 J-0.0514
G3 X2.1001 Y0.7614 I0.0115 J-0.0371
G3 X2.0909 Y0.7482 I0.0243 J-0.0268
G3 X2.0908 Y0.7481 I0.0093 J-0.0038
G3 X2.088 Y0.733 I0.0375 J-0.0147
G3 X2.0907 Y0.7165 I0.0467 J-0.0008
G1 X2.0908 Y0.7164
G3 X2.1028 Y0.7011 I0.0295 J0.0109
G3 X2.1029 I0.0056 J0.0083
G3 X2.1142 Y0.6962 I0.0201 J0.0309
G3 X2.1284 Y0.6945 I0.0135 J0.0553
G3 X2.15 Y0.7 I-0.0001 J0.0462
G3 X2.157 Y0.7044 I-0.0299 J0.0553
G1 X2.1616 Y0.6972
G2 X2.15 Y0.6912 I-0.0312 J0.0461
G2 X2.1288 Y0.6876 I-0.0207 J0.0571
G3 X2.1285 I-0.0001 J-0.01
G2 X2.1066 Y0.6902 I-0.001 J0.0849
G2 X2.0884 Y0.6993 I0.0116 J0.0458
G2 X2.0782 Y0.7131 I0.0218 J0.0266
G2 X2.0751 Y0.731 I0.0446 J0.0171
G3 Y0.7313 I-0.01 J0.0002
G2 X2.0782 Y0.7478 I0.042 J0.0007
G2 X2.0879 Y0.7606 I0.0307 J-0.0133
G2 X2.0978 Y0.7668 I0.0308 J-0.0382
G3 X2.0985 Y0.7845 I-0.0043 J0.009
G2 X2.0914 Y0.7899 I0.0184 J0.0317
G0 Z0.125
G0 X2.0053 Y0.6991
G0 Z0.0625
G1 F4.0 Z-0.02
G2 F8.0 X2.0054 Y0.699 I-0.0023 J-0.0024
G3 X2.0057 Y0.6986 I0.0129 J0.0125
G2 X2.0067 Y0.6963 I-0.0022 J-0.0022
G3 Y0.6957 I0.018 J-0.0004
G2 X2.0056 Y0.6931 I-0.0035 J-0.0001
G3 X2.0054 Y0.6929 I0.0127 J-0.0128
G2 X2.003 Y0.6919 I-0.0024 J0.0023
G3 X2.0024 I-0.0003 J-0.018
G2 X2.0002 Y0.6928 I-0.0001 J0.0029
G3 X1.9997 Y0.6933 I-0.013 J-0.0124
G2 X1.9987 Y0.6957 I0.0023 J0.0024
G3 Y0.6963 I-0.018 J0.0003
G2 X1.9996 Y0.6985 I0.0029 J0.0001
G3 X2.0002 Y0.6991 I-0.0124 J0.013
G2 X2.0024 Y0.7 I0.0021 J-0.002
G3 X2.003 I0.0003 J0.018
G2 X2.0053 Y0.6991 I0.0001 J-0.0033
G1 F4.0 X2.0108 Y0.7049
G2 F8.0 X2.0111 Y0.7045 I-0.0078 J-0.0082
G3 X2.0113 Y0.7043 I0.0072 J0.007
G2 X2.0147 Y0.6962 I-0.0078 J-0.0079
G3 Y0.6958 I0.01 J-0.0002
G2 X2.0113 Y0.6875 I-0.0115 J-0.0002
G3 X2.0111 Y0.6873 I0.007 J-0.0071
G2 X2.0028 Y0.6839 I-0.0081 J0.0079
G3 X2.0025 I-0.0002 J-0.01
G2 X1.9944 Y0.6873 I-0.0002 J0.0109
G3 X1.9941 Y0.6875 I-0.0072 J-0.0069
G2 X1.9907 Y0.6958 I0.0079 J0.0081
G3 Y0.6962 I-0.01 J0.0002
G2 X1.9941 Y0.7043 I0.0109 J0.0002
G3 X1.9944 Y0.7046 I-0.0069 J0.0072
G2 X2.0025 Y0.708 I0.0079 J-0.0075
G3 X2.0028 I0.0002 J0.01
G2 X2.0108 Y0.7049 I0.0002 J-0.0113
G0 Z0.125
G0 X1.9161 Y0.6984
G0 Z0.0625
G1 F4.0 Z-0.02
G2 F8.0 X1.9079 Y0.6947 I-0.0266 J0.0493
G2 X1.9048 Y0.6938 I-0.0194 J0.0577
G3 X1.9123 Y0.6971 I-0.0231 J0.0625
G1 X1.9124 Y0.6972
G3 X1.9158 Y0.699 I-0.0526 J0.0998
G1 X1.9161 Y0.6984
G0 Z0.125
G0 X1.8717 Y0.6931
G0 Z0.0625
G1 F4.0 Z-0.02
G2 F8.0 X1.8635 Y0.6955 I0.0113 J0.0531
G3 X1.8634 I-0.005 J-0.0131
G2 X1.847 Y0.7086 I0.0119 J0.0319
G2 X1.8409 Y0.7228 I0.0397 J0.0254
G2 X1.8383 Y0.7456 I0.0901 J0.0217
G3 Y0.746 I-0.014 J0.0002
G2 X1.8408 Y0.765 I0.0673 J0.0009
G2 X1.8489 Y0.7795 I0.0345 J-0.0097
G2 X1.8616 Y0.7877 I0.0225 J-0.0211
G2 X1.8758 Y0.7902 I0.0165 J-0.051
G3 X1.8712 Y0.7891 I0.0111 J-0.0567
G3 X1.8536 Y0.778 I0.0095 J-0.0344
G3 X1.8532 Y0.7775 I0.0106 J-0.0091
G3 X1.8448 Y0.7588 I0.034 J-0.0265
G3 X1.8433 Y0.7425 I0.0792 J-0.0157
G3 X1.8472 Y0.7176 I0.0721 J-0.0015
G3 X1.8687 Y0.6942 I0.0372 J0.0126
G3 X1.8691 Y0.694 I0.0056 J0.0128
G3 X1.8717 Y0.6931 I0.0182 J0.0457
G0 Z0.125
G0 X1.915 Y0.7823
G0 Z0.0625
G1 F4.0 Z-0.02
G3 F8.0 X1.9104 Y0.7851 I-0.0392 J-0.0577
G3 X1.9045 Y0.788 I-0.0232 J-0.0405
G3 X1.9124 Y0.8006 I-0.0061 J0.0126
G1 Y0.8326
G3 X1.9037 Y0.8456 I-0.014 J0.0
G1 X1.915
G1 Y0.7823
G1 F4.0 X1.919
G1 F8.0 Y0.7764
G1 X1.9175 Y0.7754
G3 X1.9084 Y0.7816 I-0.0418 J-0.0508
G3 X1.8877 Y0.7873 I-0.0212 J-0.037
G3 X1.8723 Y0.7853 I-0.0008 J-0.0538
G3 X1.8567 Y0.7754 I0.0084 J-0.0306
G3 X1.8564 Y0.775 I0.0076 J-0.0065
G3 X1.8488 Y0.7581 I0.0309 J-0.024
G3 X1.8473 Y0.7424 I0.0753 J-0.0149
G3 X1.8509 Y0.7189 I0.0681 J-0.0015
G3 X1.8703 Y0.6979 I0.0334 J0.0113
G3 X1.8706 Y0.6978 I0.004 J0.0092
G3 X1.8882 Y0.6945 I0.0168 J0.042
G3 X1.9002 Y0.6965 I-0.0006 J0.042
G3 X1.9105 Y0.7007 I-0.0186 J0.0598
G3 X1.9175 Y0.7047 I-0.0508 J0.0963
G1 X1.9213 Y0.6968
G2 X1.9091 Y0.6909 I-0.0318 J0.0509
G2 X1.888 Y0.6876 I-0.0206 J0.0615
G3 X1.8879 I-0.0001 J-0.01
G2 X1.8745 Y0.6885 I-0.0004 J0.0886
G2 X1.8621 Y0.6918 I0.0085 J0.0577
G1 X1.862
G2 X1.8436 Y0.7065 I0.0133 J0.0356
G2 X1.837 Y0.7219 I0.0431 J0.0275
G2 X1.8343 Y0.7457 I0.0939 J0.0227
G3 Y0.7459 I-0.01 J0.0001
G2 X1.837 Y0.7661 I0.0713 J0.0009
G2 X1.846 Y0.7822 I0.0383 J-0.0108
G2 X1.8604 Y0.7915 I0.0254 J-0.0238
G2 X1.879 Y0.7943 I0.0178 J-0.0548
G3 X1.8794 I0.0001 J0.01
G2 X1.8945 Y0.7914 I0.0009 J-0.0367
G3 X1.9084 Y0.8006 I0.0039 J0.0092
G1 Y0.8326
G3 X1.8984 Y0.8426 I-0.01 J0.0
G1 X1.8426
G1 Y0.8496
G1 X1.919
G1 Y0.7823
G0 Z0.125
G0 X1.7685
G0 Z0.0625
G1 F4.0 Z-0.02
G3 F8.0 X1.7639 Y0.7851 I-0.0392 J-0.0577
G3 X1.758 Y0.788 I-0.0232 J-0.0405
G3 X1.766 Y0.8006 I-0.0061 J0.0126
G1 Y0.8326
G3 X1.7572 Y0.8456 I-0.014 J0.0
G1 X1.7685
G1 Y0.7823
G0 Z0.125
G0 X1.7293 Y0.7902
G0 Z0.0625
G1 F4.0 Z-0.02
G3 F8.0 X1.7247 Y0.7891 I0.0111 J-0.0567
G3 X1.7072 Y0.778 I0.0095 J-0.0344
G3 X1.7067 Y0.7775 I0.0106 J-0.0091
G3 X1.6984 Y0.7588 I0.034 J-0.0265
G3 X1.6968 Y0.7425 I0.0792 J-0.0157
G3 X1.7007 Y0.7176 I0.0721 J-0.0015
G3 X1.7222 Y0.6942 I0.0372 J0.0126
G3 X1.7226 Y0.694 I0.0056 J0.0128
G3 X1.7252 Y0.6931 I0.0182 J0.0457
G2 X1.7171 Y0.6955 I0.0113 J0.0531
G3 X1.7169 I-0.005 J-0.0131
G2 X1.7005 Y0.7086 I0.0119 J0.0319
G2 X1.6944 Y0.7228 I0.0397 J0.0254
G2 X1.6919 Y0.7456 I0.0901 J0.0217
G3 Y0.746 I-0.014 J0.0002
G2 X1.6943 Y0.765 I0.0673 J0.0009
G2 X1.7024 Y0.7795 I0.0345 J-0.0097
G2 X1.7151 Y0.7877 I0.0225 J-0.0211
G2 X1.7293 Y0.7902 I0.0165 J-0.051
G0 Z0.125
G0 X1.7693 Y0.699
G0 Z0.0625
G1 F4.0 Z-0.02
G1 F8.0 X1.7696 Y0.6984
G2 X1.7614 Y0.6947 I-0.0266 J0.0493
G2 X1.7583 Y0.6938 I-0.0194 J0.0577
G3 X1.7658 Y0.6971 I-0.0231 J0.0625
G1 X1.7659 Y0.6972
G3 X1.7693 Y0.699 I-0.0526 J0.0998
G1 F4.0 X1.7673 Y0.7025
G3 F8.0 X1.771 Y0.7047 I-0.054 J0.0945
G1 X1.7748 Y0.6968
G2 X1.7627 Y0.6909 I-0.0318 J0.0509
G2 X1.7415 Y0.6876 I-0.0206 J0.0615
G3 X1.7414 I-0.0001 J-0.01
G2 X1.728 Y0.6885 I-0.0004 J0.0886
G2 X1.7156 Y0.6918 I0.0085 J0.0577
G1 X1.7155
G2 X1.6971 Y0.7065 I0.0133 J0.0356
G2 X1.6905 Y0.7219 I0.0431 J0.0275
G2 X1.6879 Y0.7457 I0.0939 J0.0227
G3 Y0.7459 I-0.01 J0.0001
G2 X1.6905 Y0.7661 I0.0713 J0.0009
G2 X1.6995 Y0.7822 I0.0383 J-0.0108
G2 X1.7139 Y0.7915 I0.0254 J-0.0238
G2 X1.7325 Y0.7943 I0.0178 J-0.0548
G3 X1.7329 I0.0001 J0.01
G2 X1.7481 Y0.7914 I0.0009 J-0.0367
G3 X1.762 Y0.8006 I0.0039 J0.0092
G1 Y0.8326
G3 X1.752 Y0.8426 I-0.01 J0.0
G1 X1.6962
G1 Y0.8496
G1 X1.7725
G1 Y0.7764
G1 X1.771 Y0.7754
G3 X1.762 Y0.7816 I-0.0418 J-0.0508
G1 X1.7619
G3 X1.7412 Y0.7873 I-0.0212 J-0.037
G3 X1.7258 Y0.7853 I-0.0008 J-0.0538
G3 X1.7102 Y0.7754 I0.0084 J-0.0306
G3 X1.7099 Y0.775 I0.0076 J-0.0065
G3 X1.7023 Y0.7581 I0.0309 J-0.024
G3 X1.7008 Y0.7424 I0.0753 J-0.0149
G3 X1.7045 Y0.7189 I0.0681 J-0.0015
G3 X1.7238 Y0.6979 I0.0334 J0.0113
G3 X1.7241 Y0.6978 I0.004 J0.0092
G3 X1.7417 Y0.6945 I0.0168 J0.042
G3 X1.7538 Y0.6965 I-0.0006 J0.042
G3 X1.764 Y0.7007 I-0.0186 J0.0598
G1 X1.7641
G3 X1.7673 Y0.7025 I-0.0508 J0.0963
( Pocket4 )
S10000
G0 Z0.125
G0 X2.3059 Y1.0494
G0 Z0.0625
G1 F4.0 Z-0.02
G2 F8.0 X2.3041 Y1.0361 I-0.1077 J0.0078
G2 X2.2974 Y1.0172 I-0.0679 J0.0135
G2 X2.2738 Y0.9946 I-0.047 J0.0253
G3 X2.2736 Y0.9945 I0.0087 J-0.0178
G2 X2.2704 Y0.9929 I-0.036 J0.0715
G3 X2.2825 Y1.0037 I-0.0321 J0.0485
G3 X2.2963 Y1.0301 I-0.0489 J0.0423
G3 X2.2993 Y1.0556 I-0.0955 J0.0245
G3 X2.2963 Y1.0811 I-0.0986 J0.001
G3 X2.2825 Y1.1074 I-0.0627 J-0.0159
G3 X2.2699 Y1.1185 I-0.0443 J-0.0377
G2 X2.274 Y1.1165 I-0.0308 J-0.0675
G2 X2.2972 Y1.0926 I-0.0272 J-0.0497
G3 X2.2974 Y1.0922 I0.0176 J0.009
G2 X2.3062 Y1.0579 I-0.0641 J-0.0346
G2 X2.3059 Y1.0494 I-0.108 J-0.0007
G0 Z0.125
G0 X2.2033 Y0.9942
G0 Z0.0625
G1 F4.0 Z-0.02
G2 F8.0 X2.1887 Y1.0054 I0.0306 J0.0549
G3 X2.1886 Y1.0055 I-0.0142 J-0.0138
G2 X2.1739 Y1.0282 I0.0464 J0.046
G2 X2.1692 Y1.0558 I0.073 J0.0267
G3 Y1.0563 I-0.0198 J0.0002
G2 X2.1738 Y1.0835 I0.0768 J0.0009
G2 X2.1882 Y1.1057 I0.0593 J-0.0226
G3 X2.1884 Y1.1059 I-0.014 J0.014
G2 X2.2047 Y1.1179 I0.0443 J-0.0429
G3 X2.193 Y1.1074 I0.0324 J-0.0478
G3 X2.1793 Y1.0813 I0.0489 J-0.0423
G3 X2.1762 Y1.0559 I0.0939 J-0.0245
G3 X2.1792 Y1.0303 I0.1003 J-0.001
G3 X2.193 Y1.0037 I0.0628 J0.0157
G3 X2.2033 Y0.9942 I0.0441 J0.0372
G1 F4.0 X2.199 Y0.9865
G2 F8.0 X2.1824 Y0.9992 I0.0349 J0.0626
G3 X2.1823 Y0.9993 I-0.0079 J-0.0076
G2 X2.1657 Y1.0251 I0.0526 J0.0522
G2 X2.1604 Y1.0559 I0.0812 J0.0298
G3 Y1.0562 I-0.011 J0.0001
G2 X2.1656 Y1.0866 I0.0856 J0.001
G2 X2.182 Y1.1119 I0.0675 J-0.0257
G3 X2.1821 Y1.112 I-0.0078 J0.0078
G2 X2.2073 Y1.1287 I0.0506 J-0.0491
G2 X2.2377 Y1.134 I0.0294 J-0.0792
G3 X2.238 I0.0001 J0.011
G2 X2.2782 Y1.1242 I0.0011 J-0.083
G2 X2.3051 Y1.0966 I-0.0314 J-0.0574
G3 X2.3052 Y1.0964 I0.0098 J0.005
G2 X2.315 Y1.0579 I-0.0718 J-0.0388
G2 X2.3127 Y1.0344 I-0.1168 J-0.0007
G2 X2.3052 Y1.013 I-0.0765 J0.0152
G2 X2.2776 Y0.9867 I-0.0547 J0.0295
G3 X2.2775 Y0.9866 I0.0048 J-0.0099
G2 X2.2375 Y0.9771 I-0.0399 J0.0794
G3 X2.2374 I0.0 J-0.011
G2 X2.2073 Y0.9825 I-0.0009 J0.0814
G2 X2.199 Y0.9865 I0.0266 J0.0665
G0 Z0.125
G0 X2.209 Y1.0009
G0 Z0.0625
G1 F4.0 Z-0.02
G3 F8.0 X2.2377 Y0.992 I0.028 J0.0401
G3 X2.2758 Y1.0094 I0.0005 J0.0494
G3 X2.2877 Y1.0322 I-0.0423 J0.0366
G3 X2.2906 Y1.0556 I-0.087 J0.0223
G3 X2.2877 Y1.0789 I-0.0899 J0.001
G3 X2.2758 Y1.1017 I-0.0542 J-0.0138
G3 X2.2377 Y1.1191 I-0.0376 J-0.032
G3 X2.1997 Y1.1017 I-0.0006 J-0.0489
G3 X2.1878 Y1.0791 I0.0422 J-0.0366
G3 X2.1849 Y1.0559 I0.0854 J-0.0223
G3 X2.1877 Y1.0324 I0.0915 J-0.001
G3 X2.1997 Y1.0094 I0.0543 J0.0135
G3 X2.209 Y1.0009 I0.0374 J0.0315
G0 Z0.125
G0 X2.091 Y1.003
G0 Z0.0625
G1 F4.0 Z-0.02
G3 F8.0 X2.0844 Y1.0105 I-0.0211 J-0.0119
G3 X2.091 Y1.0273 I-0.0636 J0.0349
G1 Y1.003
G0 Z0.125
G0 Y1.087
G0 Z0.0625
G1 F4.0 Z-0.02
G3 F8.0 X2.0875 Y1.0966 I-0.0648 J-0.0181
G3 X2.091 Y1.0998 I-0.0145 J0.0194
G1 Y1.087
G1 F4.0 X2.0954
G1 F8.0 Y0.9247
G1 X2.0897
G1 Y0.9911
G3 X2.0784 Y1.009 I-0.0198 J0.0
G3 X2.0876 Y1.0322 I-0.0576 J0.0364
G3 X2.0902 Y1.0585 I-0.1207 J0.0251
G3 X2.0875 Y1.0828 I-0.1032 J0.001
G3 X2.0818 Y1.0983 I-0.0613 J-0.0138
G3 X2.0928 Y1.116 I-0.0088 J0.0177
G1 Y1.1213
G1 X2.0954
G1 Y1.087
G0 Z0.125
G0 X2.0095 Y1.1242
G0 Z0.0625
G1 F4.0 Z-0.02
G3 F8.0 X2.0083 Y1.1236 I0.0221 J-0.0479
G3 X2.0079 Y1.1234 I0.0087 J-0.0178
G3 X1.9897 Y1.1085 I0.0258 J-0.0502
G3 X1.9896 Y1.1083 I0.0154 J-0.0124
G3 X1.977 Y1.0811 I0.0514 J-0.0401
G3 X1.9746 Y1.0562 I0.113 J-0.0238
G3 X1.9768 Y1.0311 I0.1304 J-0.0012
G3 X1.989 Y1.0027 I0.0645 J0.011
G3 X1.9893 Y1.0024 I0.0158 J0.0119
G3 X2.008 Y0.9874 I0.0414 J0.0324
G2 X2.0005 Y0.9901 I0.0113 J0.0431
G2 X1.9842 Y1.0027 I0.0229 J0.0463
G2 X1.9718 Y1.0263 I0.0453 J0.0389
G1 Y1.0264
G2 X1.9681 Y1.0563 I0.1076 J0.0286
G3 Y1.0568 I-0.0198 J0.0002
G2 X1.9718 Y1.0858 I0.1058 J0.0013
G2 X1.984 Y1.1086 I0.0557 J-0.0152
G3 X1.9842 Y1.1089 I-0.0149 J0.013
G2 X2.0095 Y1.1242 I0.0349 J-0.0292
G1 F4.0 X2.0076 Y1.1328
G2 F8.0 X2.0196 Y1.134 I0.0115 J-0.053
G3 X2.0198 I0.0001 J0.011
G2 X2.0453 Y1.1274 I0.0006 J-0.0503
G1 X2.0454 Y1.1273
G2 X2.0637 Y1.11 I-0.0255 J-0.0455
G3 X2.084 Y1.116 I0.0093 J0.0059
G1 Y1.1301
G1 X2.1042
G1 Y0.9159
G1 X2.0809
G1 Y0.9911
G3 X2.0618 Y0.9986 I-0.011 J0.0
G2 X2.0516 Y0.9888 I-0.0803 J0.0739
G2 X2.0409 Y0.9816 I-0.0364 J0.043
G2 X2.0201 Y0.9771 I-0.0202 J0.0427
G3 X2.0199 I-0.0001 J-0.011
G2 X1.9967 Y0.9822 I-0.0005 J0.0534
G2 X1.9776 Y0.997 I0.0267 J0.0543
G2 X1.9633 Y1.0241 I0.052 J0.0447
G2 X1.9593 Y1.0564 I0.1161 J0.0309
G3 Y1.0567 I-0.011 J0.0001
G2 X1.9633 Y1.0881 I0.1146 J0.0014
G2 X1.9774 Y1.1144 I0.0642 J-0.0175
G3 X1.9775 Y1.1146 I-0.0083 J0.0072
G2 X2.0076 Y1.1328 I0.0416 J-0.0348
G0 Z0.125
G0 X2.0144 Y1.1167
G0 Z0.0625
G1 F4.0 Z-0.02
G3 F8.0 X2.0121 Y1.1157 I0.0172 J-0.0405
G3 X2.012 Y1.1156 I0.0049 J-0.0099
G3 X1.9966 Y1.1031 I0.0218 J-0.0424
G3 X1.9965 Y1.1029 I0.0086 J-0.0069
G3 X1.9856 Y1.0793 I0.0445 J-0.0347
G3 X1.9834 Y1.0562 I0.1044 J-0.022
G3 X1.9854 Y1.0327 I0.1217 J-0.0012
G3 X1.9961 Y1.008 I0.0558 J0.0095
G3 X1.9962 Y1.0078 I0.0088 J0.0066
G3 X2.0311 Y0.9911 I0.0345 J0.027
G3 X2.0516 Y0.9958 I0.0003 J0.0449
G3 X2.0517 Y0.9959 I-0.0049 J0.0098
G3 X2.0675 Y1.0088 I-0.0233 J0.0446
G3 X2.0677 Y1.009 I-0.0085 J0.0069
G3 X2.079 Y1.034 I-0.0469 J0.0364
G3 X2.0814 Y1.0585 I-0.1121 J0.0233
G3 X2.079 Y1.0808 I-0.0944 J0.001
G3 X2.068 Y1.1033 I-0.0528 J-0.0119
G3 X2.0319 Y1.1202 I-0.0355 J-0.0287
G3 X2.0144 Y1.1167 I-0.0003 J-0.044
G0 Z0.125
G0 X1.8894 Y1.0998
G0 Z0.0625
G1 F4.0 Z-0.02
G1 F8.0 Y1.087
G3 X1.8859 Y1.0966 I-0.0648 J-0.0181
G3 X1.8894 Y1.0998 I-0.0145 J0.0194
G0 Z0.125
G0 Y1.0273
G0 Z0.0625
G1 F4.0 Z-0.02
G1 F8.0 Y1.003
G3 X1.8828 Y1.0105 I-0.0211 J-0.0119
G3 X1.8894 Y1.0273 I-0.0636 J0.0349
G1 F4.0 X1.8938
G1 F8.0 Y0.9247
G1 X1.8882
G1 Y0.9911
G3 X1.8768 Y1.009 I-0.0198 J0.0
G3 X1.8861 Y1.0322 I-0.0576 J0.0364
G3 X1.8886 Y1.0585 I-0.1207 J0.0251
G3 X1.886 Y1.0828 I-0.1032 J0.001
G3 X1.8802 Y1.0983 I-0.0613 J-0.0138
G3 X1.8912 Y1.116 I-0.0088 J0.0177
G1 Y1.1213
G1 X1.8938
G1 Y1.0273
G0 Z0.125
G0 X1.8065 Y0.9874
G0 Z0.0625
G1 F4.0 Z-0.02
G2 F8.0 X1.7989 Y0.9901 I0.0113 J0.0431
G2 X1.7827 Y1.0027 I0.0229 J0.0463
G2 X1.7702 Y1.0263 I0.0453 J0.0389
G1 Y1.0264
G2 X1.7665 Y1.0563 I0.1076 J0.0286
G3 Y1.0568 I-0.0198 J0.0002
G2 X1.7702 Y1.0858 I0.1058 J0.0013
G2 X1.7824 Y1.1086 I0.0557 J-0.0152
G3 X1.7827 Y1.1089 I-0.0149 J0.013
G2 X1.8079 Y1.1242 I0.0349 J-0.0292
G3 X1.8067 Y1.1236 I0.0221 J-0.0479
G3 X1.8064 Y1.1234 I0.0087 J-0.0178
G3 X1.7882 Y1.1085 I0.0258 J-0.0502
G3 X1.788 Y1.1083 I0.0154 J-0.0124
G3 X1.7755 Y1.0811 I0.0514 J-0.0401
G3 X1.773 Y1.0562 I0.113 J-0.0238
G3 X1.7752 Y1.0311 I0.1304 J-0.0012
G3 X1.7875 Y1.0027 I0.0645 J0.011
G3 X1.7877 Y1.0024 I0.0158 J0.0119
G3 X1.8065 Y0.9874 I0.0414 J0.0324
G1 F4.0 X1.8042 Y0.9789
G2 F8.0 X1.7951 Y0.9822 I0.0136 J0.0516
G2 X1.776 Y0.997 I0.0267 J0.0543
G2 X1.7617 Y1.0241 I0.052 J0.0447
G2 X1.7577 Y1.0564 I0.1161 J0.0309
G3 Y1.0567 I-0.011 J0.0001
G2 X1.7617 Y1.0881 I0.1146 J0.0014
G2 X1.7758 Y1.1144 I0.0642 J-0.0175
G3 X1.7759 Y1.1146 I-0.0083 J0.0072
G2 X1.818 Y1.134 I0.0416 J-0.0348
G3 X1.8182 I0.0001 J0.011
G2 X1.8437 Y1.1274 I0.0006 J-0.0503
G1 X1.8438 Y1.1273
G2 X1.8622 Y1.11 I-0.0255 J-0.0455
G3 X1.8824 Y1.116 I0.0093 J0.0059
G1 Y1.1301
G1 X1.9026
G1 Y0.9159
G1 X1.8794
G1 Y0.9911
G3 X1.8603 Y0.9986 I-0.011 J0.0
G2 X1.8501 Y0.9888 I-0.0803 J0.0739
G1 X1.85
G2 X1.8393 Y0.9816 I-0.0364 J0.043
G2 X1.8185 Y0.9771 I-0.0202 J0.0427
G3 X1.8183 I-0.0001 J-0.011
G2 X1.8042 Y0.9789 I-0.0005 J0.0534
G0 Z0.125
G0 X1.8113 Y0.9948
G0 Z0.0625
G1 F4.0 Z-0.02
G3 F8.0 X1.8295 Y0.9911 I0.0178 J0.04
G3 X1.85 Y0.9958 I0.0003 J0.0449
G3 X1.8502 Y0.9959 I-0.0049 J0.0098
G3 X1.8659 Y1.0088 I-0.0233 J0.0446
G3 X1.8661 Y1.009 I-0.0085 J0.0069
G3 X1.8774 Y1.034 I-0.0469 J0.0364
G3 X1.8798 Y1.0585 I-0.1121 J0.0233
G3 X1.8774 Y1.0808 I-0.0944 J0.001
G3 X1.8664 Y1.1033 I-0.0528 J-0.0119
G3 X1.8303 Y1.1202 I-0.0355 J-0.0287
G3 X1.8106 Y1.1157 I-0.0003 J-0.044
G3 X1.8104 Y1.1156 I0.0049 J-0.0099
G3 X1.795 Y1.1031 I0.0218 J-0.0424
G3 X1.7949 Y1.1029 I0.0086 J-0.0069
G3 X1.7841 Y1.0793 I0.0445 J-0.0347
G3 X1.7818 Y1.0562 I0.1044 J-0.022
G3 X1.7838 Y1.0327 I0.1217 J-0.0012
G3 X1.7945 Y1.008 I0.0558 J0.0095
G3 X1.7946 Y1.0078 I0.0088 J0.0066
G3 X1.8113 Y0.9948 I0.0345 J0.027
G0 Z0.125
G0 X1.6998 Y1.0521
G0 Z0.0625
G1 F4.0 Z-0.02
G3 F8.0 X1.697 Y1.057 I-0.0222 J-0.0096
G3 X1.6996 Y1.0622 I-0.0202 J0.0133
G2 X1.6998 Y1.0546 I-0.0981 J-0.0064
G3 Y1.0541 I0.0242 J-0.0003
G2 Y1.0521 I-0.0954 J-0.0009
G1 F4.0 X1.6957 Y1.0504
G3 F8.0 X1.6913 Y1.0568 I-0.0182 J-0.0079
G3 X1.6965 Y1.0698 I-0.0145 J0.0134
G3 X1.6938 Y1.0911 I-0.0732 J0.0015
G1 Y1.0912
G3 X1.683 Y1.1116 I-0.053 J-0.0151
G2 X1.687 Y1.1076 I-0.0356 J-0.0397
G3 X1.6871 Y1.1075 I0.0147 J0.0132
G2 X1.7002 Y1.0842 I-0.0435 J-0.0397
G2 X1.7042 Y1.0545 I-0.0987 J-0.0284
G3 Y1.0541 I0.0198 J-0.0003
G2 X1.7011 Y1.0284 I-0.0998 J-0.0009
G2 X1.691 Y1.0069 I-0.063 J0.0163
G2 X1.679 Y0.9954 I-0.038 J0.0277
G3 X1.6812 Y0.9977 I-0.0377 J0.039
G3 X1.6939 Y1.02 I-0.0429 J0.0392
G3 X1.6974 Y1.0423 I-0.0765 J0.0232
G3 X1.6957 Y1.0504 I-0.0198 J0.0002
G0 Z0.125
G0 X1.591 Y1.0623
G0 Z0.0625
G1 F4.0 Z-0.02
G1 F8.0 X1.5846
G2 X1.5855 Y1.0703 I0.1666 J-0.0151
G1 Y1.0704
G2 X1.5923 Y1.0943 I0.0875 J-0.0118
G2 X1.5967 Y1.1022 I0.0466 J-0.0212
G3 X1.5924 Y1.0915 I0.0477 J-0.0255
G3 X1.5893 Y1.0705 I0.077 J-0.022
G3 X1.591 Y1.0623 I0.0198 J-0.0002
G0 Z0.125
G0 X1.5997 Y1.0024
G0 Z0.0625
G1 F4.0 Z-0.02
G3 F8.0 X1.6044 Y0.996 I0.0407 J0.0249
G2 X1.5976 Y1.002 I0.0284 J0.0388
G1 X1.5997 Y1.0024
G1 F4.0 X1.5983 Y1.0111
G1 F8.0 X1.6045 Y1.0121
G3 X1.606 Y1.0091 I0.0555 J0.0258
G3 X1.6156 Y0.9973 I0.0344 J0.0181
G3 X1.6159 Y0.9971 I0.007 J0.0085
G3 X1.6406 Y0.989 I0.0237 J0.0307
G3 X1.6747 Y1.0036 I0.0007 J0.0454
G1 Y1.0037
G3 X1.6855 Y1.0226 I-0.0364 J0.0333
G3 X1.6886 Y1.0424 I-0.0681 J0.0206
G3 X1.6776 Y1.0535 I-0.011 J0.0001
G1 X1.5752
G2 X1.5768 Y1.0715 I0.176 J-0.0063
G1 Y1.0716
G2 X1.5842 Y1.0979 I0.0962 J-0.0129
G2 X1.5936 Y1.1125 I0.0546 J-0.0248
G2 X1.6165 Y1.1289 I0.0451 J-0.0388
G2 X1.6453 Y1.134 I0.0277 J-0.0725
G3 X1.6458 I0.0002 J0.011
G2 X1.6936 Y1.1135 I0.0016 J-0.0621
G1 Y1.1134
G2 X1.7087 Y1.0866 I-0.05 J-0.0457
G2 X1.713 Y1.0544 I-0.1071 J-0.0308
G3 Y1.0542 I0.011 J-0.0001
G2 X1.7096 Y1.0262 I-0.1086 J-0.001
G2 X1.6981 Y1.0017 I-0.0715 J0.0185
G2 X1.6737 Y0.9828 I-0.0451 J0.0329
G2 X1.6412 Y0.9771 I-0.0308 J0.0814
G3 X1.6409 I-0.0002 J-0.011
G2 X1.6192 Y0.9797 I-0.0008 J0.0878
G2 X1.6003 Y0.9881 I0.0141 J0.0568
G2 X1.5863 Y1.002 I0.0325 J0.0468
G2 X1.5823 Y1.0084 I0.0607 J0.0423
G1 X1.5983 Y1.0111
G0 Z0.125
G0 X1.6071 Y1.0594
G0 Z0.0625
G1 F4.0 Z-0.02
G3 F8.0 X1.6091 Y1.0592 I0.002 J0.0108
G1 X1.6768
G3 X1.6878 Y1.07 I0.0 J0.011
G3 X1.6854 Y1.0888 I-0.0644 J0.0014
G3 X1.6755 Y1.1068 I-0.0446 J-0.0127
G3 X1.6427 Y1.1213 I-0.032 J-0.0279
G3 X1.6111 Y1.1074 I-0.0004 J-0.042
G3 X1.6008 Y1.0891 I0.0333 J-0.0307
G3 X1.5981 Y1.0704 I0.0685 J-0.0196
G3 X1.6071 Y1.0594 I0.011 J-0.0001
G0 Z0.125
G0 X1.505 Y1.0799
G0 Z0.0625
G1 F4.0 Z-0.02
G3 F8.0 X1.5037 Y1.0858 I-0.1153 J-0.0212
G3 X1.5035 Y1.0866 I-0.0235 J-0.0056
G3 X1.5002 Y1.0964 I-0.0793 J-0.0216
G3 X1.505 Y1.1005 I-0.0131 J0.0204
G1 Y1.0799
G1 F4.0 X1.5094
G1 F8.0 Y0.9898
G1 X1.5037
G1 Y1.0228
G3 X1.5022 Y1.0675 I-0.5253 J0.0044
G3 X1.4994 Y1.0848 I-0.1125 J-0.0088
G3 X1.4993 Y1.0854 I-0.0193 J-0.0046
G3 X1.4945 Y1.0984 I-0.0751 J-0.0204
G3 X1.5069 Y1.1168 I-0.0074 J0.0184
G1 Y1.1213
G1 X1.5094
G1 Y1.0799
G0 Z0.125
G0 X1.4543 Y1.1242
G0 Z0.0625
G1 F4.0 Z-0.02
G3 F8.0 X1.4532 I0.0 J-0.0447
G3 X1.444 Y1.1232 I0.0008 J-0.0515
G1 X1.4434 Y1.1249
G2 X1.4482 Y1.1252 I0.005 J-0.0374
G3 X1.4484 I-0.0001 J0.0198
G2 X1.4543 Y1.1242 I0.0002 J-0.0163
G1 F4.0 Y1.1154
G3 F8.0 X1.4534 I0.0 J-0.0359
G3 X1.4385 Y1.1125 I0.0007 J-0.0427
G1 X1.4319 Y1.131
G2 X1.4482 Y1.134 I0.0165 J-0.0435
G1 X1.4483
G2 X1.4617 Y1.1303 I0.0004 J-0.0251
G2 X1.4698 Y1.1225 I-0.022 J-0.0305
G3 X1.4699 Y1.1223 I0.0088 J0.0066
G2 X1.4778 Y1.111 I-0.0968 J-0.0759
G3 X1.4981 Y1.1168 I0.0094 J0.0058
G1 Y1.1301
G1 X1.5182
G1 Y0.981
G1 X1.4949
G1 Y1.0228
G3 X1.4934 Y1.0668 I-0.5165 J0.0044
G3 X1.4909 Y1.0828 I-0.1037 J-0.0081
G3 X1.4908 Y1.0831 I-0.0107 J-0.0025
G3 X1.4863 Y1.0952 I-0.0666 J-0.0181
G3 X1.4768 Y1.1075 I-0.0328 J-0.0154
G3 X1.4765 Y1.1077 I-0.0071 J-0.0084
G3 X1.4543 Y1.1154 I-0.0222 J-0.0283
G0 Z0.125
G0 X2.5334 Y1.0509
G0 Z0.0625
G1 F4.0 Z-0.02
G3 F8.0 X2.5336 Y1.0518 I-0.1114 J0.0224
G3 X2.5337 Y1.0519 I-0.0238 J0.0046
G3 X2.5369 Y1.0896 I-0.1928 J0.0357
G3 X2.5357 Y1.1121 I-0.1929 J0.0009
G2 X2.5377 Y1.0863 I-0.1443 J-0.0239
G3 Y1.0857 I0.0242 J-0.0003
G2 X2.5334 Y1.0509 I-0.1318 J-0.0017
G1 F4.0 X2.5377 Y1.0497
G2 F8.0 X2.5363 Y1.0448 I-0.1319 J0.0343
G2 X2.5171 Y1.0115 I-0.0818 J0.0251
G2 X2.489 Y0.9921 I-0.0584 J0.0543
G2 X2.4545 Y0.9858 I-0.0334 J0.0853
G3 X2.454 I-0.0002 J-0.0198
G2 X2.4265 Y0.9893 I-0.001 J0.1031
G2 X2.4035 Y1.0004 I0.0177 J0.0655
G2 X2.3863 Y1.0203 I0.0414 J0.0534
G2 X2.3816 Y1.0295 I0.0976 J0.0556
G1 X2.3895 Y1.032
G3 X2.3913 Y1.0281 I0.1098 J0.0461
G3 X2.4086 Y1.0042 I0.0674 J0.0308
G3 X2.4088 Y1.004 I0.0134 J0.0146
G3 X2.4546 Y0.9869 I0.0449 J0.0505
G3 X2.5119 Y1.0132 I0.0016 J0.0721
G3 X2.5235 Y1.0329 I-0.0566 J0.0467
G3 X2.5293 Y1.0526 I-0.1015 J0.0403
G3 Y1.0527 I-0.0194 J0.0038
G3 X2.5325 Y1.0896 I-0.1885 J0.0349
G3 X2.5308 Y1.1162 I-0.1885 J0.0009
G3 X2.5232 Y1.1445 I-0.111 J-0.0147
G3 X2.5231 Y1.1446 I-0.0183 J-0.0076
G3 X2.5116 Y1.1634 I-0.0675 J-0.0285
G1 X2.5115 Y1.1635
G3 X2.4852 Y1.183 I-0.0559 J-0.0477
G3 X2.4849 Y1.1832 I-0.008 J-0.0181
G3 X2.4539 Y1.1893 I-0.0304 J-0.0722
G3 X2.4093 Y1.1744 I-0.0016 J-0.0696
G3 X2.4091 Y1.1742 I0.0122 J-0.0156
G3 X2.3916 Y1.1532 I0.0439 J-0.0542
G1 X2.3834 Y1.1551
G2 X2.3835 Y1.1554 I0.0895 J-0.046
G2 X2.3946 Y1.1703 I0.0503 J-0.0259
G2 X2.4199 Y1.1856 I0.0478 J-0.0505
G2 X2.4511 Y1.1905 I0.03 J-0.0909
G3 X2.4516 I0.0002 J0.0198
G2 X2.4878 Y1.1841 I0.0013 J-0.0988
G2 X2.5168 Y1.1641 I-0.029 J-0.0734
G2 X2.5364 Y1.1293 I-0.0637 J-0.0586
G2 X2.5421 Y1.0863 I-0.1449 J-0.0411
G3 Y1.0858 I0.0198 J-0.0003
G2 X2.5377 Y1.0497 I-0.1362 J-0.0017
G1 F4.0 X2.5462 Y1.0475
G2 F8.0 X2.5447 Y1.0423 I-0.1404 J0.0365
G2 X2.5235 Y1.0055 I-0.0902 J0.0276
G2 X2.4923 Y0.9839 I-0.0648 J0.0603
G2 X2.4544 Y0.977 I-0.0367 J0.0935
G3 X2.4541 I-0.0001 J-0.011
G2 X2.4242 Y0.9808 I-0.0011 J0.1119
G2 X2.3982 Y0.9934 I0.02 J0.074
G2 X2.3786 Y1.0159 I0.0467 J0.0604
G2 X2.3698 Y1.035 I0.1052 J0.06
G1 X2.3948 Y1.0429
G3 X2.3993 Y1.0317 I0.1045 J0.0352
G3 X2.4146 Y1.0107 I0.0594 J0.0272
G3 X2.4147 Y1.0106 I0.0074 J0.0081
G3 X2.4547 Y0.9957 I0.0391 J0.0439
G3 X2.5051 Y1.0188 I0.0016 J0.0633
G3 X2.5154 Y1.0362 I-0.0498 J0.0411
G3 X2.5207 Y1.0543 I-0.0933 J0.0371
G3 X2.5237 Y1.0896 I-0.1799 J0.0333
G3 X2.522 Y1.1151 I-0.1797 J0.001
G3 X2.5151 Y1.1411 I-0.1022 J-0.0135
G1 X2.515
G3 X2.5048 Y1.1577 I-0.0594 J-0.0251
G1 Y1.1578
G3 X2.4817 Y1.175 I-0.0492 J-0.042
G3 X2.4815 I-0.0044 J-0.0101
G3 X2.4538 Y1.1805 I-0.027 J-0.0641
G3 X2.4147 Y1.1675 I-0.0015 J-0.0608
G3 X2.4146 Y1.1674 I0.0068 J-0.0086
G3 X2.3965 Y1.1429 I0.0384 J-0.0474
G1 X2.371 Y1.149
G2 X2.3757 Y1.1594 I0.1019 J-0.0399
G1 Y1.1595
G2 X2.3885 Y1.1767 I0.0582 J-0.03
G2 X2.4171 Y1.194 I0.0539 J-0.0568
G2 X2.4512 Y1.1992 I0.0329 J-0.0993
G3 X2.4515 Y1.1993 I0.0001 J0.011
G2 X2.491 Y1.1923 I0.0014 J-0.1076
G2 X2.5233 Y1.1701 I-0.0322 J-0.0816
G2 X2.5448 Y1.1317 I-0.0701 J-0.0645
G2 X2.5509 Y1.0862 I-0.1534 J-0.0435
G3 Y1.0859 I0.011 J-0.0001
G2 X2.5462 Y1.0475 I-0.145 J-0.0018
G0 Z0.125
M5
M30
