( Made using CamBam - http://www.cambam.co.uk )
( 029-copper-tile-only 12/11/2013 10:38:00 PM )
( T0 : 0.0313 )
G20 G90 G91.1 G64 G40
G0 Z0.125
( T0 : 0.0313 )
T0 M6
( Pocket3 )
G17
M3 S10000
G0 X0.9495 Y1.3551
G0 Z0.0625
G1 F4.0 Z-0.01
G1 F8.0 X0.9505 Y1.3304
G3 X0.9389 Y1.3493 I-0.2709 J-0.1528
G3 X0.9495 Y1.3551 I-0.0139 J0.0382
G1 F4.0 X0.9619 Y1.3556
G1 F8.0 X0.9659 Y1.2648
G3 X0.9577 Y1.2862 I-0.5916 J-0.2139
G3 X0.915 Y1.3612 I-0.2781 J-0.1086
G3 X0.9507 Y1.376 I0.01 J0.0263
G1 X0.9601 Y1.3972
G1 X0.9619 Y1.3556
G0 Z0.125
G0 X0.5836 Y1.2073
G0 Z0.0625
G1 F4.0 Z-0.01
G3 F8.0 X0.5801 Y1.127 I0.847 J-0.0769
G3 X0.5833 Y1.055 I0.6927 J-0.005
G2 X0.5738 Y1.1276 I0.2544 J0.0702
G3 Y1.1284 I-0.0531 J0.0005
G2 X0.5836 Y1.2073 I0.3106 J0.0017
G1 F4.0 X0.596 Y1.2062
G3 F8.0 X0.5926 Y1.127 I0.8345 J-0.0758
G3 X0.5994 Y1.0257 I0.6802 J-0.005
G3 Y1.0255 I0.0402 J0.0057
G3 X0.6109 Y0.9733 I0.3878 J0.0575
G3 X0.6141 Y0.9629 I0.2409 J0.0694
G2 X0.5932 Y0.9962 I0.1782 J0.135
G3 X0.593 Y0.9966 I-0.0362 J-0.0185
G2 X0.5613 Y1.1277 I0.2447 J0.1285
G3 Y1.1284 I-0.0406 J0.0004
G2 X0.5943 Y1.2724 I0.3231 J0.0018
G3 X0.5944 Y1.2725 I-0.0365 J0.0179
G2 X0.6181 Y1.3129 I0.2633 J-0.1275
G3 X0.6136 Y1.2997 I0.2105 J-0.0782
G3 X0.5966 Y1.212 I0.4246 J-0.1282
G3 X0.596 Y1.2062 I0.834 J-0.0816
G1 F4.0 X0.6085 Y1.205
G3 F8.0 X0.6051 Y1.127 I0.8221 J-0.0746
G3 X0.6118 Y1.0275 I0.6677 J-0.005
G3 Y1.0274 I0.0278 J0.004
G3 X0.6229 Y0.9767 I0.3754 J0.0556
G3 X0.6438 Y0.9265 I0.2289 J0.0659
G3 X0.648 Y0.9208 I0.0246 J0.0137
G3 X0.6976 Y0.882 I0.1588 J0.152
G2 X0.6689 Y0.8967 I0.0885 J0.2087
G2 X0.5821 Y0.9905 I0.1234 J0.2013
G3 X0.5819 Y0.9908 I-0.025 J-0.0128
G2 X0.5488 Y1.1279 I0.2558 J0.1343
G3 Y1.1283 I-0.0281 J0.0003
G2 X0.5831 Y1.2779 I0.3356 J0.0019
G3 Y1.278 I-0.0253 J0.0124
G2 X0.6202 Y1.3365 I0.2746 J-0.1329
G2 X0.6698 Y1.3816 I0.171 J-0.1382
G3 X0.67 Y1.3817 I-0.0155 J0.0235
G2 X0.6913 Y1.3942 I0.1113 J-0.1659
G3 X0.6525 Y1.3529 I0.1094 J-0.1417
G3 X0.6524 Y1.3528 I0.0233 J-0.0158
G3 X0.6256 Y1.2961 I0.1762 J-0.118
G3 X0.609 Y1.2108 I0.4126 J-0.1246
G3 X0.6085 Y1.205 I0.8215 J-0.0804
G1 F4.0 X0.6209 Y1.2039
G3 F8.0 X0.6176 Y1.127 I0.8096 J-0.0735
G3 X0.6242 Y1.0293 I0.6552 J-0.005
G1 Y1.0292
G3 X0.6349 Y0.9802 I0.3631 J0.0538
G3 X0.6547 Y0.9326 I0.2169 J0.0624
G3 X0.6571 Y0.9294 I0.0136 J0.0076
G3 X0.7212 Y0.884 I0.1497 J0.1434
G3 X0.7214 Y0.8839 I0.0065 J0.0142
G3 X0.7988 Y0.868 I0.0761 J0.1737
G3 X0.8634 Y0.8791 I0.0018 J0.1838
G3 X0.8636 I-0.0053 J0.0147
G3 X0.9198 Y0.9145 I-0.0583 J0.1548
G3 X0.92 Y0.9147 I-0.0108 J0.0113
G3 X0.9641 Y0.9834 I-0.1335 J0.1342
G3 X0.9816 Y1.0457 I-0.3394 J0.1289
G1 X0.9932
G2 X0.9751 Y0.9759 I-0.3404 J0.0512
G1 Y0.9758
G2 X0.9278 Y0.9035 I-0.1847 J0.0689
G2 X0.8638 Y0.8639 I-0.1266 J0.1336
G2 X0.7885 Y0.8516 I-0.0729 J0.2086
G3 X0.7881 I-0.0002 J-0.0156
G2 X0.6624 Y0.886 I-0.0021 J0.2391
G2 X0.5709 Y0.9848 I0.1299 J0.212
G3 Y0.985 I-0.0139 J-0.0071
G2 X0.5363 Y1.128 I0.2668 J0.1401
G3 Y1.1282 I-0.0156 J0.0001
G2 X0.5718 Y1.2834 I0.3481 J0.0019
G1 X0.5719
G2 X0.6105 Y1.3444 I0.2858 J-0.1384
G2 X0.6629 Y1.392 I0.1807 J-0.146
G1 X0.663 Y1.3921
G2 X0.7816 Y1.4281 I0.1183 J-0.1763
G1 X0.7817
G2 X0.8499 Y1.4159 I0.0004 J-0.1936
G2 X0.9145 Y1.3759 I-0.0777 J-0.198
G3 X0.9393 Y1.3811 I0.0105 J0.0116
G1 X0.9597 Y1.427
G1 X0.9714
G1 X0.9806 Y1.2148
G1 X0.9687
G3 X0.9461 Y1.2816 I-0.5944 J-0.164
G3 X0.9036 Y1.3554 I-0.2665 J-0.104
G3 X0.9035 Y1.3555 I-0.0122 J-0.0097
G3 X0.8519 Y1.398 I-0.1297 J-0.1051
G3 X0.8516 Y1.3981 I-0.0073 J-0.0138
G3 X0.7856 Y1.4137 I-0.0649 J-0.1279
G3 X0.715 Y1.3953 I-0.0015 J-0.1386
G3 X0.7147 Y1.3951 I0.0078 J-0.0136
G3 X0.6628 Y1.3459 I0.086 J-0.1426
G1 Y1.3458
G3 X0.6376 Y1.2924 I0.1658 J-0.1111
G3 X0.6214 Y1.2096 I0.4006 J-0.121
G3 X0.6209 Y1.2039 I0.8091 J-0.0792
G0 Z0.125
G0 X1.1592 Y1.1876
G0 Z0.0625
G1 F4.0 Z-0.01
G1 F8.0 X1.1688 Y1.1881
G1 Y1.1636
G3 X1.1592 Y1.1876 I-0.0732 J-0.0153
G1 F4.0 X1.1486 Y1.181
G3 F8.0 X1.1322 Y1.1987 I-0.053 J-0.0327
G1 X1.1813 Y1.2012
G1 Y0.9853
G3 X1.1861 Y0.9453 I0.1534 J-0.0018
G3 X1.208 Y0.9043 I0.0944 J0.024
G3 X1.2083 Y0.9039 I0.0209 J0.0188
G3 X1.2687 Y0.8742 I0.0691 J0.0641
G2 X1.2517 Y0.8727 I-0.0181 J0.1065
G1 X1.2516
G2 X1.2152 Y0.8791 I-0.0011 J0.1006
G2 X1.1853 Y0.8986 I0.0321 J0.0817
G2 X1.1638 Y0.9389 I0.0603 J0.0581
G3 X1.1637 Y0.9393 I-0.0275 J-0.006
G2 X1.1578 Y0.9934 I0.2175 J0.051
G3 Y0.9938 I-0.0281 J0.0004
G1 Y1.1496
G3 Y1.1507 I-0.0281 J0.0
G3 X1.1486 Y1.181 I-0.0622 J-0.0024
G0 Z0.125
G0 X1.4042 Y1.1876
G0 Z0.0625
G1 F4.0 Z-0.01
G1 F8.0 X1.4121 Y1.1881
G1 Y1.171
G3 X1.4042 Y1.1876 I-0.0642 J-0.0203
G0 Z0.125
G0 X1.4121 Y0.9791
G0 Z0.0625
G1 F4.0 Z-0.01
G1 F8.0 Y0.9404
G3 X1.4036 Y0.951 I-0.0355 J-0.0197
G3 X1.4121 Y0.9791 I-0.148 J0.0599
G0 Z0.125
G0 X1.4199 Y0.8922
G0 Z0.0625
G1 F4.0 Z-0.01
G3 F8.0 X1.4201 Y0.8918 I0.0609 J0.03
G1 X1.4199
G1 Y0.8922
G1 F4.0 X1.4311 Y0.8978
G3 F8.0 X1.442 Y0.8826 I0.0497 J0.0245
G3 X1.4444 Y0.8806 I0.0197 J0.0201
G3 X1.4454 Y0.8798 I0.0414 J0.0528
G1 X1.4085 Y0.879
G1 X1.4046 Y0.9232
G3 X1.3879 Y0.9464 I-0.028 J-0.0025
G3 X1.4027 Y1.0157 I-0.1322 J0.0645
G1 Y1.1492
G3 X1.3803 Y1.195 I-0.0549 J0.0015
G3 X1.3792 Y1.1957 I-0.0166 J-0.0227
G3 X1.3744 Y1.1986 I-0.0352 J-0.0531
G1 X1.4246 Y1.2012
G1 Y0.9287
G3 X1.4275 Y0.9069 I0.0756 J-0.0009
G3 X1.4311 Y0.8978 I0.0532 J0.0153
G1 F4.0 X1.4423 Y0.9033
G3 F8.0 X1.4508 Y0.8916 I0.0385 J0.0189
G3 X1.4521 Y0.8904 I0.0109 J0.0112
G3 X1.4888 Y0.8789 I0.0336 J0.0429
G1 X1.5035
G1 Y0.8684
G1 X1.3971 Y0.8663
G1 X1.3921 Y0.9221
G3 X1.363 Y0.9284 I-0.0156 J-0.0014
G2 X1.3135 Y0.8779 I-0.1191 J0.0672
G3 X1.3133 Y0.8778 I0.008 J-0.0134
G2 X1.2518 Y0.8602 I-0.0628 J0.1029
G2 X1.2107 Y0.8674 I-0.0012 J0.1131
G2 X1.1764 Y0.8899 I0.0366 J0.0934
G2 X1.1516 Y0.9362 I0.0692 J0.0668
G3 X1.1515 Y0.9364 I-0.0153 J-0.0033
G2 X1.1453 Y0.9935 I0.2297 J0.0539
G3 Y0.9938 I-0.0156 J0.0002
G1 Y1.1496
G3 Y1.1502 I-0.0156 J0.0
G3 X1.1208 Y1.1912 I-0.0497 J-0.0019
G3 X1.1178 Y1.1926 I-0.0079 J-0.0135
G3 X1.1025 Y1.1956 I-0.0194 J-0.0587
G3 X1.0816 Y1.1969 I-0.0419 J-0.5039
G1 Y1.2086
G1 X1.1938 Y1.2144
G1 Y0.9853
G3 X1.1982 Y0.9484 I0.1409 J-0.0017
G3 X1.2173 Y0.9126 I0.0823 J0.0209
G3 X1.2175 Y0.9124 I0.0116 J0.0104
G3 X1.28 Y0.8863 I0.0599 J0.0556
G3 X1.3585 Y0.924 I-0.0002 J0.1011
G3 X1.3902 Y1.0155 I-0.1029 J0.0869
G1 Y1.1493
G3 X1.3729 Y1.1849 I-0.0424 J0.0013
G3 X1.3723 Y1.1853 I-0.0092 J-0.0126
G3 X1.3541 Y1.1928 I-0.0283 J-0.0427
G3 X1.3262 Y1.1966 I-0.0452 J-0.2258
G1 Y1.2086
G1 X1.4371 Y1.2144
G1 Y0.9286
G3 X1.4396 Y0.9104 I0.0631 J-0.0008
G3 X1.4423 Y0.9033 I0.0412 J0.0118
( Pocket2 )
S10000
G0 Z0.125
G0 X0.7419 Y0.2774
G0 Z0.0625
G1 F4.0 Z-0.01
G3 F8.0 X0.7375 Y0.2776 I-0.0039 J-0.0317
G3 X0.7228 Y0.2754 I-0.0006 J-0.0448
G1 X0.7227 Y0.2753
G3 X0.7041 Y0.2581 I0.01 J-0.0295
G3 X0.704 Y0.2579 I0.0092 J-0.0039
G3 X0.7002 Y0.237 I0.0482 J-0.0195
G3 X0.7016 Y0.2231 I0.0665 J-0.0005
G3 X0.7057 Y0.2118 I0.0411 J0.0085
G3 X0.7203 Y0.198 I0.0277 J0.0149
G3 X0.7205 Y0.1979 I0.0042 J0.0091
G3 X0.738 Y0.1945 I0.0166 J0.0386
G3 X0.7517 Y0.1972 I0.0003 J0.0349
G3 X0.7519 Y0.1973 I-0.0038 J0.0092
G3 X0.7637 Y0.2063 I-0.0127 J0.029
G3 X0.7638 I-0.0077 J0.0063
G3 X0.771 Y0.221 I-0.0297 J0.0237
G3 X0.7727 Y0.2353 I-0.0554 J0.0138
G3 X0.7709 Y0.2502 I-0.0576 J0.0005
G3 X0.7635 Y0.265 I-0.0385 J-0.0099
G3 X0.7419 Y0.2774 I-0.0255 J-0.0193
G0 Z0.125
G0 X0.7062 Y0.2746
G0 Z0.0625
G1 F4.0 Z-0.01
G3 F8.0 X0.6967 Y0.2612 I0.0265 J-0.0288
G3 X0.6966 Y0.2609 I0.0165 J-0.0071
G3 X0.6953 Y0.2573 I0.0556 J-0.0225
G2 X0.7003 Y0.2826 I0.0786 J-0.0024
G3 X0.7062 Y0.2746 I0.0169 J0.0062
G1 F4.0 X0.7111 Y0.281
G3 F8.0 X0.7213 Y0.2798 I0.0061 J0.0079
G2 X0.7307 Y0.2833 I0.0283 J-0.0617
G2 X0.7393 Y0.2846 I0.0091 J-0.0306
G2 X0.7577 Y0.2816 I0.0007 J-0.0532
G2 X0.7725 Y0.2719 I-0.0136 J-0.037
G2 X0.7821 Y0.2562 I-0.029 J-0.0285
G2 X0.785 Y0.2366 I-0.0582 J-0.0187
G3 Y0.2364 I0.01 J-0.0001
G2 X0.782 Y0.2168 I-0.0594 J-0.0007
G2 X0.7721 Y0.2007 I-0.0413 J0.0143
G1 X0.772
G2 X0.7575 Y0.1908 I-0.0302 J0.0286
G2 X0.7399 Y0.1876 I-0.0171 J0.0441
G3 X0.7395 I-0.0001 J-0.01
G2 X0.7154 Y0.192 I-0.0013 J0.0604
G2 X0.7018 Y0.202 I0.0153 J0.0352
G2 X0.6947 Y0.213 I0.0352 J0.0302
G2 X0.6889 Y0.2333 I0.0709 J0.0315
G2 X0.6872 Y0.2555 I0.1402 J0.0213
G2 X0.6933 Y0.2869 I0.0867 J-0.0006
G2 X0.7094 Y0.3158 I0.1214 J-0.0483
G3 X0.7095 Y0.316 I-0.0081 J0.0059
G2 X0.7305 Y0.3391 I0.101 J-0.071
G2 X0.7509 Y0.351 I0.0428 J-0.0499
G1 X0.7549 Y0.3468
G3 X0.7305 Y0.3265 I0.0756 J-0.1156
G3 X0.7177 Y0.311 I0.0905 J-0.0878
G3 X0.7078 Y0.2925 I0.0692 J-0.0487
G3 X0.7111 Y0.281 I0.0093 J-0.0036
G0 Z0.125
G0 X0.844 Y0.1984
G0 Z0.0625
G1 F4.0 Z-0.01
G1 F8.0 X0.8442 Y0.1988
G3 X0.8481 Y0.1965 I0.0357 J0.0565
G3 X0.8482 Y0.1964 I0.0067 J0.0123
G3 X0.8501 Y0.1954 I0.0236 J0.0443
G2 X0.844 Y0.1984 I0.0194 J0.0478
G0 Z0.125
G0 X0.892 Y0.194
G0 Z0.0625
G1 F4.0 Z-0.01
G3 F8.0 X0.8993 Y0.1977 I-0.0151 J0.0381
G3 X0.8994 Y0.1978 I-0.0076 J0.0117
G3 X0.913 Y0.215 I-0.0197 J0.0295
G3 Y0.2152 I-0.0131 J0.0048
G3 X0.916 Y0.233 I-0.0477 J0.0171
G3 X0.9129 Y0.2496 I-0.0443 J0.0003
G3 X0.9128 Y0.2497 I-0.013 J-0.0051
G3 X0.9074 Y0.2591 I-0.0372 J-0.0152
G2 X0.9096 Y0.2575 I-0.0262 J-0.0367
G2 X0.9181 Y0.2463 I-0.0184 J-0.0229
G2 X0.9209 Y0.2314 I-0.0352 J-0.0143
G3 Y0.2309 I0.014 J-0.0002
G2 X0.918 Y0.2145 I-0.0438 J-0.0007
G2 X0.9091 Y0.2024 I-0.0282 J0.0115
G2 X0.8924 Y0.1941 I-0.0273 J0.0336
G2 X0.892 Y0.194 I-0.02 J0.0784
G0 Z0.125
G0 X0.8934 Y0.2708
G0 Z0.0625
G1 F4.0 Z-0.01
G3 F8.0 X0.8863 Y0.2737 I-0.0198 J-0.038
G1 X0.8862
G3 X0.8801 Y0.2752 I-0.0162 J-0.0532
G3 X0.8814 Y0.2755 I-0.0109 J0.0614
G3 X0.8923 Y0.2793 I-0.0081 J0.0405
G3 X0.8931 Y0.2797 I-0.0146 J0.0283
G3 X0.8934 Y0.2708 I0.0134 J-0.0039
G0 Z0.125
G0 X0.9058 Y0.2928
G0 Z0.0625
G1 F4.0 Z-0.01
G3 F8.0 X0.9064 Y0.2939 I-0.0282 J0.0149
G3 X0.9066 Y0.2942 I-0.0126 J0.006
G3 X0.91 Y0.3112 I-0.0364 J0.0162
G3 X0.908 Y0.3251 I-0.0461 J0.0004
G3 X0.891 Y0.3448 I-0.0309 J-0.0093
G3 X0.8906 Y0.345 I-0.006 J-0.0126
G3 X0.8851 Y0.3471 I-0.0191 J-0.0433
G2 X0.8908 Y0.3459 I-0.0118 J-0.0725
G1 X0.8909
G2 X0.9052 Y0.3389 I-0.0087 J-0.036
G2 X0.9125 Y0.3292 I-0.0155 J-0.0193
G2 X0.915 Y0.3158 I-0.0323 J-0.0128
G3 Y0.3153 I0.014 J-0.0002
G2 X0.9111 Y0.2995 I-0.0321 J-0.0007
G2 X0.9058 Y0.2928 I-0.0281 J0.0167
G1 F4.0 X0.9023 Y0.2946
G3 F8.0 X0.9028 Y0.2956 I-0.0246 J0.013
G3 X0.9029 Y0.2959 I-0.009 J0.0043
G3 X0.906 Y0.3111 I-0.0328 J0.0146
G3 X0.9042 Y0.3239 I-0.0421 J0.0005
G3 X0.8893 Y0.3412 I-0.027 J-0.0082
G3 X0.889 Y0.3414 I-0.0043 J-0.009
G3 X0.8703 Y0.345 I-0.0175 J-0.0397
G3 X0.8516 Y0.3402 I0.0005 J-0.0399
G1 Y0.3401
G3 X0.8469 Y0.3373 I0.0283 J-0.0517
G1 X0.8431 Y0.3429
G2 X0.8436 Y0.3432 I0.0142 J-0.0214
G2 X0.8518 Y0.3475 I0.0291 J-0.0454
G3 X0.8519 Y0.3476 I-0.0039 J0.0092
G2 X0.8724 Y0.352 I0.0208 J-0.047
G2 X0.8918 Y0.3498 I0.0009 J-0.0774
G2 X0.9077 Y0.342 I-0.0097 J-0.0399
G2 X0.9162 Y0.3307 I-0.018 J-0.0225
G2 X0.919 Y0.3158 I-0.036 J-0.0143
G3 Y0.3154 I0.01 J-0.0002
G2 X0.9146 Y0.2975 I-0.0361 J-0.0007
G2 X0.9015 Y0.2845 I-0.0316 J0.0187
G3 X0.9022 Y0.2668 I0.005 J-0.0086
G2 X0.9121 Y0.2606 I-0.0209 J-0.0444
G2 X0.9218 Y0.2478 I-0.0209 J-0.026
G2 X0.9249 Y0.2313 I-0.0389 J-0.0159
G3 Y0.231 I0.01 J-0.0002
G2 X0.9218 Y0.2131 I-0.0478 J-0.0008
G2 X0.9116 Y0.1993 I-0.0319 J0.0129
G2 X0.8934 Y0.1902 I-0.0298 J0.0367
G2 X0.8715 Y0.1876 I-0.021 J0.0823
G3 X0.8712 I-0.0001 J-0.01
G2 X0.85 Y0.1912 I-0.0006 J0.0608
G2 X0.8384 Y0.1972 I0.0196 J0.0521
G1 X0.843 Y0.2044
G3 X0.85 Y0.2 I0.0369 J0.0509
G3 X0.8716 Y0.1945 I0.0217 J0.0408
G3 X0.8858 Y0.1962 I0.0006 J0.0569
G3 X0.8971 Y0.2011 I-0.0089 J0.0358
G3 X0.8972 I-0.0055 J0.0084
G3 X0.9092 Y0.2164 I-0.0175 J0.0261
G1 X0.9093 Y0.2165
G3 X0.912 Y0.233 I-0.044 J0.0157
G3 X0.9092 Y0.2481 I-0.0403 J0.0004
G3 X0.9091 Y0.2482 I-0.0093 J-0.0037
G3 X0.8999 Y0.2614 I-0.0335 J-0.0137
G3 X0.8851 Y0.2699 I-0.0263 J-0.0286
G3 X0.8739 Y0.272 I-0.015 J-0.0494
G1 Y0.2785
G3 X0.8806 Y0.2794 I-0.0048 J0.0582
G3 X0.8904 Y0.2829 I-0.0074 J0.0366
G3 X0.9023 Y0.2946 I-0.0128 J0.0247
G0 Z0.125
G0 X0.9947 Y0.199
G0 Z0.0625
G1 F4.0 Z-0.01
G2 F8.0 X0.997 Y0.2 I0.0023 J-0.0024
G3 X0.9976 I0.0003 J0.018
G2 X0.9998 Y0.1991 I0.0001 J-0.0029
G3 X1.0004 Y0.1985 I0.013 J0.0124
G2 X1.0013 Y0.1963 I-0.002 J-0.0021
G3 Y0.1957 I0.018 J-0.0003
G2 X1.0003 Y0.1933 I-0.0033 J-0.0001
G3 X0.9998 Y0.1928 I0.0125 J-0.0129
G2 X0.9976 Y0.1919 I-0.0021 J0.002
G3 X0.997 I-0.0003 J-0.018
G2 X0.9946 Y0.1929 I-0.0001 J0.0033
G3 X0.9944 Y0.1931 I-0.0129 J-0.0125
G2 X0.9933 Y0.1957 I0.0025 J0.0025
G3 Y0.1963 I-0.018 J0.0003
G2 X0.9943 Y0.1986 I0.0031 J0.0001
G3 X0.9946 Y0.199 I-0.0126 J0.0129
G2 X0.9947 I0.0024 J-0.0023
G1 F4.0 X0.9891 Y0.2048
G2 F8.0 X0.9972 Y0.208 I0.0078 J-0.0081
G3 X0.9975 I0.0002 J0.01
G2 X1.0056 Y0.2046 I0.0002 J-0.0109
G3 X1.0059 Y0.2043 I0.0072 J0.0069
G2 X1.0093 Y0.1962 I-0.0075 J-0.0079
G3 Y0.1958 I0.01 J-0.0002
G2 X1.0059 Y0.1875 I-0.0113 J-0.0002
G3 X1.0056 Y0.1873 I0.007 J-0.0072
G2 X0.9975 Y0.1839 I-0.0079 J0.0075
G3 X0.9972 I-0.0002 J-0.01
G2 X0.9889 Y0.1873 I-0.0002 J0.0113
G3 X0.9887 Y0.1875 I-0.0072 J-0.007
G2 X0.9853 Y0.1958 I0.0081 J0.0082
G3 Y0.1962 I-0.01 J0.0002
G2 X0.9887 Y0.2043 I0.0111 J0.0002
G3 X0.9889 Y0.2045 I-0.007 J0.0072
G2 X0.9891 Y0.2048 I0.0081 J-0.0079
G0 Z0.125
G0 X1.0839 Y0.1984
G0 Z0.0625
G1 F4.0 Z-0.01
G1 F8.0 X1.0842 Y0.199
G3 X1.0876 Y0.1972 I0.056 J0.098
G1 X1.0877 Y0.1971
G3 X1.0952 Y0.1938 I0.0307 J0.0592
G2 X1.0921 Y0.1947 I0.0163 J0.0586
G2 X1.0839 Y0.1984 I0.0183 J0.0529
G0 Z0.125
G0 X1.1283 Y0.1931
G0 Z0.0625
G1 F4.0 Z-0.01
G3 F8.0 X1.1309 Y0.194 I-0.0157 J0.0466
G3 X1.1313 Y0.1942 I-0.0052 J0.013
G3 X1.1528 Y0.2176 I-0.0156 J0.036
G3 X1.1567 Y0.2425 I-0.0683 J0.0233
G3 X1.1552 Y0.2588 I-0.0808 J0.0007
G3 X1.1468 Y0.2775 I-0.0424 J-0.0079
G3 X1.1464 Y0.278 I-0.011 J-0.0086
G3 X1.1288 Y0.2891 I-0.0271 J-0.0233
G3 X1.1242 Y0.2902 I-0.0156 J-0.0557
G2 X1.1384 Y0.2877 I-0.0024 J-0.0535
G2 X1.1511 Y0.2795 I-0.0098 J-0.0292
G2 X1.1592 Y0.265 I-0.0264 J-0.0242
G2 X1.1617 Y0.246 I-0.0648 J-0.0181
G3 Y0.2456 I0.014 J-0.0002
G2 X1.1591 Y0.2228 I-0.0926 J-0.0011
G2 X1.153 Y0.2086 I-0.0458 J0.0112
G2 X1.1366 Y0.1955 I-0.0284 J0.0188
G3 X1.1365 I0.0049 J-0.0131
G2 X1.1283 Y0.1931 I-0.0194 J0.0507
G0 Z0.125
G0 X1.085 Y0.2823
G0 Z0.0625
G1 F4.0 Z-0.01
G1 F8.0 Y0.3456
G1 X1.0963
G3 X1.0876 Y0.3326 I0.0053 J-0.013
G1 Y0.3006
G3 X1.0955 Y0.288 I0.014 J0.0
G3 X1.0896 Y0.2851 I0.0173 J-0.0433
G3 X1.085 Y0.2823 I0.0347 J-0.0605
G1 F4.0 X1.081
G1 F8.0 Y0.3496
G1 X1.1574
G1 Y0.3426
G1 X1.1016
G3 X1.0916 Y0.3326 I0.0 J-0.01
G1 Y0.3006
G3 X1.1055 Y0.2914 I0.01 J0.0
G2 X1.1206 Y0.2943 I0.0143 J-0.0338
G3 X1.121 I0.0002 J0.01
G2 X1.1396 Y0.2915 I0.0009 J-0.0576
G2 X1.154 Y0.2822 I-0.011 J-0.033
G2 X1.163 Y0.2661 I-0.0293 J-0.0269
G2 X1.1657 Y0.2459 I-0.0687 J-0.0192
G3 Y0.2457 I0.01 J-0.0001
G2 X1.163 Y0.2219 I-0.0966 J-0.0012
G2 X1.1564 Y0.2065 I-0.0497 J0.0121
G2 X1.138 Y0.1918 I-0.0317 J0.0209
G1 X1.1379
G2 X1.1255 Y0.1885 I-0.0208 J0.0545
G2 X1.1121 Y0.1876 I-0.013 J0.0876
G3 X1.112 I0.0 J-0.01
G2 X1.0909 Y0.1909 I-0.0005 J0.0648
G2 X1.0787 Y0.1968 I0.0196 J0.0567
G1 X1.0825 Y0.2047
G3 X1.0895 Y0.2007 I0.0577 J0.0923
G3 X1.0998 Y0.1965 I0.0288 J0.0556
G3 X1.1118 Y0.1945 I0.0126 J0.0401
G3 X1.1294 Y0.1978 I0.0009 J0.0452
G3 X1.1297 Y0.1979 I-0.0037 J0.0093
G3 X1.1491 Y0.2189 I-0.014 J0.0323
G3 X1.1527 Y0.2424 I-0.0645 J0.022
G3 X1.1512 Y0.2581 I-0.0768 J0.0007
G3 X1.1436 Y0.275 I-0.0385 J-0.0071
G3 X1.1433 Y0.2754 I-0.0079 J-0.0061
G3 X1.1277 Y0.2853 I-0.0241 J-0.0207
G3 X1.1123 Y0.2873 I-0.0146 J-0.0518
G3 X1.0916 Y0.2816 I0.0005 J-0.0426
G3 X1.0825 Y0.2754 I0.0327 J-0.0571
G1 X1.081 Y0.2764
G1 Y0.2823
G0 Z0.125
G0 X1.2315
G0 Z0.0625
G1 F4.0 Z-0.01
G1 F8.0 Y0.3456
G1 X1.2428
G3 X1.234 Y0.3326 I0.0053 J-0.013
G1 Y0.3006
G3 X1.242 Y0.288 I0.014 J0.0
G3 X1.2361 Y0.2851 I0.0173 J-0.0433
G3 X1.2315 Y0.2823 I0.0347 J-0.0605
G0 Z0.125
G0 X1.2707 Y0.2902
G0 Z0.0625
G1 F4.0 Z-0.01
G2 F8.0 X1.2849 Y0.2877 I-0.0024 J-0.0535
G2 X1.2976 Y0.2795 I-0.0098 J-0.0292
G2 X1.3057 Y0.265 I-0.0264 J-0.0242
G2 X1.3081 Y0.246 I-0.0648 J-0.0181
G3 Y0.2456 I0.014 J-0.0002
G2 X1.3056 Y0.2228 I-0.0926 J-0.0011
G2 X1.2995 Y0.2086 I-0.0458 J0.0112
G2 X1.2831 Y0.1955 I-0.0284 J0.0188
G3 X1.2829 I0.0049 J-0.0131
G2 X1.2748 Y0.1931 I-0.0194 J0.0507
G3 X1.2774 Y0.194 I-0.0157 J0.0466
G3 X1.2778 Y0.1942 I-0.0052 J0.013
G3 X1.2993 Y0.2176 I-0.0156 J0.036
G3 X1.3032 Y0.2425 I-0.0683 J0.0233
G3 X1.3016 Y0.2588 I-0.0808 J0.0007
G3 X1.2933 Y0.2775 I-0.0424 J-0.0079
G3 X1.2928 Y0.278 I-0.011 J-0.0086
G3 X1.2753 Y0.2891 I-0.0271 J-0.0233
G3 X1.2707 Y0.2902 I-0.0156 J-0.0557
G0 Z0.125
G0 X1.2307 Y0.199
G0 Z0.0625
G1 F4.0 Z-0.01
G3 F8.0 X1.2341 Y0.1972 I0.056 J0.098
G1 X1.2342 Y0.1971
G3 X1.2417 Y0.1938 I0.0307 J0.0592
G2 X1.2386 Y0.1947 I0.0163 J0.0586
G2 X1.2304 Y0.1984 I0.0183 J0.0529
G1 X1.2307 Y0.199
G1 F4.0 X1.2271 Y0.2007
G1 F8.0 X1.229 Y0.2047
G3 X1.2359 Y0.2007 I0.0577 J0.0923
G1 X1.236
G3 X1.2462 Y0.1965 I0.0288 J0.0556
G3 X1.2583 Y0.1945 I0.0126 J0.0401
G3 X1.2759 Y0.1978 I0.0009 J0.0452
G3 X1.2762 Y0.1979 I-0.0037 J0.0093
G3 X1.2955 Y0.2189 I-0.014 J0.0323
G3 X1.2992 Y0.2424 I-0.0645 J0.022
G3 X1.2977 Y0.2581 I-0.0768 J0.0007
G3 X1.2901 Y0.275 I-0.0385 J-0.0071
G3 X1.2898 Y0.2754 I-0.0079 J-0.0061
G3 X1.2742 Y0.2853 I-0.0241 J-0.0207
G3 X1.2588 Y0.2873 I-0.0146 J-0.0518
G3 X1.2381 Y0.2816 I0.0005 J-0.0426
G1 X1.238
G3 X1.229 Y0.2754 I0.0327 J-0.0571
G1 X1.2275 Y0.2764
G1 Y0.3496
G1 X1.3038
G1 Y0.3426
G1 X1.248
G3 X1.238 Y0.3326 I0.0 J-0.01
G1 Y0.3006
G3 X1.2519 Y0.2914 I0.01 J0.0
G2 X1.2671 Y0.2943 I0.0143 J-0.0338
G3 X1.2675 I0.0002 J0.01
G2 X1.2861 Y0.2915 I0.0009 J-0.0576
G2 X1.3005 Y0.2822 I-0.011 J-0.033
G2 X1.3095 Y0.2661 I-0.0293 J-0.0269
G2 X1.3121 Y0.2459 I-0.0687 J-0.0192
G3 Y0.2457 I0.01 J-0.0001
G2 X1.3095 Y0.2219 I-0.0966 J-0.0012
G2 X1.3029 Y0.2065 I-0.0497 J0.0121
G2 X1.2845 Y0.1918 I-0.0317 J0.0209
G1 X1.2844
G2 X1.272 Y0.1885 I-0.0208 J0.0545
G2 X1.2586 Y0.1876 I-0.013 J0.0876
G3 X1.2585 I0.0 J-0.01
G2 X1.2373 Y0.1909 I-0.0005 J0.0648
G2 X1.2252 Y0.1968 I0.0196 J0.0567
G1 X1.2271 Y0.2007
( Pocket4 )
S10000
G0 Z0.125
G0 X0.611 Y0.5309
G0 Z0.0625
G1 F4.0 Z-0.01
G1 F8.0 X0.6172 Y0.5289
G2 X0.613 Y0.5208 I-0.101 J0.047
G2 X0.5959 Y0.5011 I-0.0579 J0.0331
G2 X0.5733 Y0.4901 I-0.0401 J0.0536
G2 X0.5609 Y0.4876 I-0.0263 J0.0988
G3 X0.5918 Y0.5034 I-0.0147 J0.0669
G3 X0.592 Y0.5036 I-0.0138 J0.0155
G3 X0.6095 Y0.5277 I-0.0507 J0.0553
G3 X0.611 Y0.5309 I-0.1089 J0.0505
G0 Z0.125
G0 X0.5197 Y0.4901
G0 Z0.0625
G1 F4.0 Z-0.01
G2 F8.0 X0.5113 Y0.4929 I0.0247 J0.0873
G2 X0.4836 Y0.5121 I0.03 J0.0729
G1 Y0.5122
G2 X0.4645 Y0.5451 I0.0619 J0.0577
G2 X0.4588 Y0.5858 I0.1296 J0.0389
G3 Y0.5863 I-0.0207 J0.0003
G2 X0.4645 Y0.629 I0.1497 J0.0019
G2 X0.4838 Y0.6635 I0.0823 J-0.0235
G2 X0.5125 Y0.6833 I0.0574 J-0.0528
G2 X0.5158 Y0.6844 I0.0345 J-0.0916
G3 X0.5147 Y0.684 I0.0297 J-0.0735
G3 X0.5144 Y0.6839 I0.008 J-0.0191
G3 X0.4878 Y0.6641 I0.03 J-0.0681
G1 X0.4877 Y0.664
G3 X0.476 Y0.6449 I0.0566 J-0.0479
G3 Y0.6448 I0.0191 J-0.008
G3 X0.4683 Y0.6164 I0.1042 J-0.0432
G3 X0.4666 Y0.5896 I0.1876 J-0.0258
G3 X0.4698 Y0.5526 I0.1926 J-0.0019
G3 Y0.5524 I0.0204 J0.0038
G3 X0.4756 Y0.5326 I0.1081 J0.0209
G3 X0.4874 Y0.5126 I0.0691 J0.0272
G3 X0.5197 Y0.4901 I0.0563 J0.0465
G0 Z0.125
G0 X0.6089 Y0.6542
G0 Z0.0625
G1 F4.0 Z-0.01
G3 F8.0 X0.5915 Y0.6749 I-0.0618 J-0.0342
G3 X0.5913 Y0.6751 I-0.013 J-0.0161
G3 X0.5611 Y0.6889 I-0.0436 J-0.0555
G2 X0.5798 Y0.6848 I-0.0111 J-0.0942
G2 X0.6048 Y0.6697 I-0.0222 J-0.0649
G2 X0.6153 Y0.6557 I-0.0386 J-0.0402
G1 X0.6089 Y0.6542
G1 F4.0 X0.6008 Y0.6497
G3 F8.0 X0.5857 Y0.6678 I-0.0538 J-0.0298
G3 X0.5856 Y0.6679 I-0.0072 J-0.0089
G3 X0.5462 Y0.681 I-0.0379 J-0.0482
G3 X0.5183 Y0.6755 I-0.0007 J-0.0701
G3 X0.5181 Y0.6754 I0.0045 J-0.0106
G3 X0.4948 Y0.6581 I0.0262 J-0.0597
G3 X0.4845 Y0.6413 I0.0496 J-0.042
G3 X0.4775 Y0.6151 I0.0957 J-0.0397
G3 X0.4758 Y0.5896 I0.1785 J-0.0246
G3 X0.4788 Y0.5543 I0.1834 J-0.0019
G1 X0.4789 Y0.5542
G3 X0.4842 Y0.536 I0.0991 J0.0191
G3 X0.4945 Y0.5184 I0.0605 J0.0238
G3 X0.5453 Y0.4952 I0.0492 J0.0406
G3 X0.5856 Y0.5102 I0.0009 J0.0593
G3 X0.5858 Y0.5103 I-0.0076 J0.0086
G3 X0.6012 Y0.5315 I-0.0445 J0.0486
G3 X0.6055 Y0.5423 I-0.1005 J0.0466
G1 X0.6295 Y0.5347
G2 X0.6209 Y0.5162 I-0.1133 J0.0412
G2 X0.6015 Y0.4938 I-0.0659 J0.0376
G2 X0.5757 Y0.4812 I-0.0457 J0.0609
G2 X0.5459 Y0.4775 I-0.0287 J0.1077
G3 X0.5456 I-0.0001 J-0.0115
G2 X0.5079 Y0.4844 I-0.0012 J0.0999
G2 X0.4768 Y0.5059 I0.0334 J0.0815
G2 X0.4557 Y0.5424 I0.0687 J0.064
G2 X0.4496 Y0.5859 I0.1384 J0.0416
G3 Y0.5862 I-0.0115 J0.0001
G2 X0.4556 Y0.6316 I0.1589 J0.002
G2 X0.477 Y0.6698 I0.0912 J-0.026
G2 X0.5092 Y0.6918 I0.0642 J-0.059
G2 X0.5485 Y0.6988 I0.0379 J-0.1002
G3 X0.5488 Y0.6987 I0.0002 J0.0115
G2 X0.5827 Y0.6935 I0.0012 J-0.1041
G2 X0.6111 Y0.6763 I-0.0251 J-0.0736
G2 X0.6239 Y0.6592 I-0.045 J-0.0468
G2 X0.6284 Y0.6494 I-0.0967 J-0.0501
G1 X0.6038 Y0.6435
G3 X0.6008 Y0.6497 I-0.0568 J-0.0235
G0 Z0.125
G0 X0.7042 Y0.5934
G0 Z0.0625
G1 F4.0 Z-0.01
G2 F8.0 X0.7204 Y0.6118 I0.049 J-0.0267
G3 X0.7168 Y0.608 I0.0414 J-0.0421
G3 X0.7029 Y0.5813 I0.0496 J-0.0429
G3 X0.6998 Y0.5556 I0.0964 J-0.0247
G3 X0.7029 Y0.5298 I0.0995 J-0.001
G3 X0.7168 Y0.5031 I0.0636 J0.0162
G3 X0.7215 Y0.4982 I0.045 J0.0383
G2 X0.7034 Y0.5176 I0.0281 J0.0443
G2 X0.6968 Y0.5363 I0.0604 J0.0319
G2 X0.6947 Y0.5578 I0.105 J0.0209
G1 Y0.5579
G2 X0.7034 Y0.5918 I0.0719 J-0.0003
G3 X0.7036 Y0.5922 I-0.0182 J0.0098
G2 X0.7042 Y0.5934 I0.0496 J-0.0254
G0 Z0.125
G0 X0.8062 Y0.6097
G0 Z0.0625
G1 F4.0 Z-0.01
G2 F8.0 X0.811 Y0.6053 I-0.0389 J-0.0467
G3 X0.8112 Y0.6051 I0.0149 J0.0144
G2 X0.8253 Y0.5832 I-0.0443 J-0.0442
G2 X0.8299 Y0.5563 I-0.0713 J-0.026
G3 Y0.5558 I0.0207 J-0.0002
G2 X0.8252 Y0.5285 I-0.0768 J-0.0009
G2 X0.8108 Y0.5062 I-0.0602 J0.0231
G3 X0.8106 Y0.506 I0.0147 J-0.0146
G2 X0.8078 Y0.5033 I-0.0445 J0.0431
G3 X0.8217 Y0.5301 I-0.0498 J0.0427
G3 X0.8247 Y0.5559 I-0.0981 J0.0248
G3 X0.8216 Y0.5815 I-0.0979 J0.001
G3 X0.8077 Y0.608 I-0.0635 J-0.0164
G3 X0.8062 Y0.6097 I-0.0448 J-0.0378
G1 F4.0 X0.8121 Y0.6167
G2 F8.0 X0.8176 Y0.6117 I-0.0448 J-0.0537
G3 X0.8177 Y0.6116 I0.0083 J0.008
G2 X0.834 Y0.5864 I-0.0508 J-0.0507
G2 X0.8391 Y0.5562 I-0.08 J-0.0292
G3 Y0.5559 I0.0115 J-0.0001
G2 X0.8339 Y0.5253 I-0.086 J-0.001
G2 X0.8173 Y0.4997 I-0.0688 J0.0263
G3 X0.8172 Y0.4996 I0.0082 J-0.0081
G2 X0.7925 Y0.483 I-0.0511 J0.0495
G2 X0.7626 Y0.4776 I-0.0289 J0.0756
G3 X0.7625 I-0.0001 J-0.0115
G2 X0.7227 Y0.487 I-0.0001 J0.0884
G3 X0.7226 Y0.4871 I-0.0052 J-0.0103
G2 X0.6953 Y0.5133 I0.027 J0.0554
G2 X0.6878 Y0.5345 I0.0685 J0.0363
G2 X0.6855 Y0.5579 I0.114 J0.0227
G2 X0.6953 Y0.5962 I0.0811 J-0.0003
G3 X0.6954 Y0.5964 I-0.0101 J0.0055
G2 X0.722 Y0.6238 I0.0578 J-0.0296
G2 X0.762 Y0.6335 I0.0389 J-0.0728
G3 X0.7623 I0.0002 J0.0115
G2 X0.7926 Y0.6282 I0.001 J-0.084
G2 X0.8121 Y0.6167 I-0.0253 J-0.0653
G0 Z0.125
G0 X0.7988 Y0.6041
G0 Z0.0625
G1 F4.0 Z-0.01
G3 F8.0 X0.7623 Y0.6196 I-0.0359 J-0.034
G3 X0.7238 Y0.602 I-0.0005 J-0.0499
G3 X0.7118 Y0.579 I0.0427 J-0.0369
G3 X0.7089 Y0.5556 I0.0875 J-0.0225
G3 X0.7118 Y0.5321 I0.0904 J-0.001
G3 X0.7238 Y0.5091 I0.0547 J0.0139
G3 X0.7623 Y0.4915 I0.038 J0.0324
G3 X0.8007 Y0.5091 I0.0006 J0.0494
G3 X0.8128 Y0.5323 I-0.0428 J0.0369
G3 X0.8156 Y0.5559 I-0.0892 J0.0226
G3 X0.8127 Y0.5792 I-0.0887 J0.001
G3 X0.8007 Y0.602 I-0.0546 J-0.0141
G3 X0.7988 Y0.6041 I-0.0378 J-0.0318
G0 Z0.125
G0 X0.9101 Y0.5972
G0 Z0.0625
G1 F4.0 Z-0.01
G3 F8.0 X0.9111 Y0.5963 I0.0169 J0.0188
G3 X0.9101 Y0.5938 I0.0627 J-0.0274
G1 Y0.5972
G0 Z0.125
G0 Y0.5201
G0 Z0.0625
G1 F4.0 Z-0.01
G3 F8.0 X0.9142 Y0.5108 I0.0691 J0.0254
G3 X0.9101 Y0.5066 I0.0159 J-0.0197
G1 Y0.5201
G1 F4.0 X0.9144 Y0.5216
G3 F8.0 X0.9203 Y0.5094 I0.0648 J0.0238
G3 X0.9094 Y0.4911 I0.0097 J-0.0183
G1 Y0.4256
G1 X0.9055
G1 Y0.6204
G1 X0.9063
G1 Y0.616
G3 X0.917 Y0.5979 I0.0207 J0.0
G3 X0.9116 Y0.583 I0.0568 J-0.029
G3 X0.9089 Y0.5585 I0.1014 J-0.0235
G3 X0.9115 Y0.5321 I0.1242 J-0.0012
G3 X0.9144 Y0.5216 I0.0677 J0.0133
G0 Z0.125
G0 X1.0019 Y0.4924
G0 Z0.0625
G1 F4.0 Z-0.01
G3 F8.0 X1.0114 Y0.5019 I-0.0325 J0.0425
G3 X1.0117 Y0.5022 I-0.0163 J0.0128
G3 X1.0241 Y0.531 I-0.0529 J0.0399
G3 X1.0263 Y0.5562 I-0.1291 J0.0241
G3 X1.0238 Y0.5812 I-0.1164 J0.0011
G3 X1.0112 Y0.6089 I-0.0648 J-0.013
G3 X1.011 Y0.6091 I-0.0163 J-0.0127
G3 X0.9984 Y0.6207 I-0.0448 J-0.0359
G2 X1.0151 Y0.6083 I-0.0175 J-0.041
G3 X1.0153 Y0.608 I0.0159 J0.0133
G2 X1.0274 Y0.5856 I-0.0428 J-0.0374
G2 X1.031 Y0.5568 I-0.1012 J-0.0275
G3 Y0.5563 I0.0207 J-0.0003
G2 X1.0273 Y0.5266 I-0.1104 J-0.0013
G2 X1.0151 Y0.5033 I-0.0568 J0.0151
G2 X1.0019 Y0.4924 I-0.0385 J0.0331
G1 F4.0 X1.0064 Y0.4844
G2 F8.0 X1.0031 Y0.4826 I-0.0298 J0.052
G2 X0.9801 Y0.4776 I-0.0225 J0.0479
G3 X0.9799 I-0.0001 J-0.0115
G2 X0.9593 Y0.4821 I-0.0006 J0.0468
G2 X0.9487 Y0.4892 I0.0255 J0.0497
G2 X0.9385 Y0.4989 I0.0698 J0.0832
G3 X0.9186 Y0.4911 I-0.0085 J-0.0078
G1 Y0.4164
G1 X0.8963
G1 Y0.6296
G1 X0.9155
G1 Y0.616
G3 X0.9367 Y0.6098 I0.0115 J0.0
G2 X0.9549 Y0.6269 I0.0435 J-0.0279
G2 X0.9802 Y0.6335 I0.0247 J-0.0433
G3 X0.9804 I0.0001 J0.0115
G2 X1.0221 Y0.6142 I0.0005 J-0.0538
G3 X1.0223 Y0.6141 I0.0088 J0.0074
G2 X1.0362 Y0.588 I-0.0498 J-0.0434
G2 X1.0402 Y0.5567 I-0.1101 J-0.0299
G3 Y0.5564 I0.0115 J-0.0001
G2 X1.0362 Y0.5242 I-0.1196 J-0.0014
G2 X1.0221 Y0.4973 I-0.0657 J0.0174
G2 X1.0064 Y0.4844 I-0.0455 J0.0391
G0 Z0.125
G0 X0.9956 Y0.4992
G0 Z0.0625
G1 F4.0 Z-0.01
G3 F8.0 X1.0042 Y0.5075 I-0.0262 J0.0357
G3 X1.0043 Y0.5077 I-0.0091 J0.0071
G3 X1.0151 Y0.5326 I-0.0456 J0.0344
G3 X1.0171 Y0.5562 I-0.1201 J0.0224
G3 X1.0148 Y0.5794 I-0.1072 J0.0011
G3 X1.0039 Y0.6032 I-0.0558 J-0.0111
G3 X1.0038 Y0.6034 I-0.0091 J-0.0071
G3 X0.9883 Y0.6161 I-0.0376 J-0.0302
G3 X0.9881 Y0.6162 I-0.0053 J-0.0102
G3 X0.9681 Y0.6207 I-0.0196 J-0.0399
G3 X0.9316 Y0.6036 I-0.0006 J-0.0461
G3 X0.9205 Y0.5809 I0.0422 J-0.0347
G3 X0.9181 Y0.5585 I0.0925 J-0.0215
G3 X0.9205 Y0.5339 I0.115 J-0.0012
G3 X0.9319 Y0.5087 I0.0587 J0.0115
G3 X0.9321 Y0.5085 I0.0091 J0.0071
G3 X0.948 Y0.4955 I0.0395 J0.032
G3 X0.9482 Y0.4954 I0.0053 J0.0102
G3 X0.9689 Y0.4906 I0.0204 J0.0406
G3 X0.9956 Y0.4992 I0.0005 J0.0443
G0 Z0.125
G0 X1.1117 Y0.5066
G0 Z0.0625
G1 F4.0 Z-0.01
G1 F8.0 Y0.5201
G3 X1.1158 Y0.5108 I0.0691 J0.0254
G3 X1.1117 Y0.5066 I0.0159 J-0.0197
G0 Z0.125
G0 Y0.5938
G0 Z0.0625
G1 F4.0 Z-0.01
G1 F8.0 Y0.5972
G3 X1.1127 Y0.5963 I0.0169 J0.0188
G3 X1.1117 Y0.5938 I0.0627 J-0.0274
G1 F4.0 X1.116 Y0.5921
G3 F8.0 X1.1132 Y0.583 I0.0594 J-0.0232
G3 X1.1105 Y0.5585 I0.1014 J-0.0235
G3 X1.1131 Y0.5321 I0.1242 J-0.0012
G3 X1.1219 Y0.5094 I0.0677 J0.0133
G3 X1.1109 Y0.4911 I0.0097 J-0.0183
G1 Y0.4256
G1 X1.1071
G1 Y0.6204
G1 X1.1079
G1 Y0.616
G3 X1.1186 Y0.5979 I0.0207 J0.0
G3 X1.116 Y0.5921 I0.0568 J-0.029
G0 Z0.125
G0 X1.2 Y0.6207
G0 Z0.0625
G1 F4.0 Z-0.01
G2 F8.0 X1.2166 Y0.6083 I-0.0175 J-0.041
G3 X1.2169 Y0.608 I0.0159 J0.0133
G2 X1.2289 Y0.5856 I-0.0428 J-0.0374
G2 X1.2326 Y0.5568 I-0.1012 J-0.0275
G3 Y0.5563 I0.0207 J-0.0003
G2 X1.2289 Y0.5266 I-0.1104 J-0.0013
G2 X1.2167 Y0.5033 I-0.0568 J0.0151
G2 X1.2034 Y0.4924 I-0.0385 J0.0331
G3 X1.213 Y0.5019 I-0.0325 J0.0425
G3 X1.2133 Y0.5022 I-0.0163 J0.0128
G3 X1.2257 Y0.531 I-0.0529 J0.0399
G3 X1.2279 Y0.5562 I-0.1291 J0.0241
G3 X1.2254 Y0.5812 I-0.1164 J0.0011
G3 X1.2127 Y0.6089 I-0.0648 J-0.013
G3 X1.2126 Y0.6091 I-0.0163 J-0.0127
G3 X1.2 Y0.6207 I-0.0448 J-0.0359
G1 F4.0 X1.2036 Y0.6292
G2 F8.0 X1.2237 Y0.6142 I-0.0211 J-0.0495
G3 X1.2239 Y0.6141 I0.0088 J0.0074
G2 X1.2378 Y0.588 I-0.0498 J-0.0434
G2 X1.2418 Y0.5567 I-0.1101 J-0.0299
G3 Y0.5564 I0.0115 J-0.0001
G2 X1.2378 Y0.5242 I-0.1196 J-0.0014
G2 X1.2236 Y0.4973 I-0.0657 J0.0174
G2 X1.2047 Y0.4826 I-0.0455 J0.0391
G2 X1.1817 Y0.4776 I-0.0225 J0.0479
G3 X1.1814 I-0.0001 J-0.0115
G2 X1.1609 Y0.4821 I-0.0006 J0.0468
G2 X1.1503 Y0.4892 I0.0255 J0.0497
G2 X1.1401 Y0.4989 I0.0698 J0.0832
G3 X1.1201 Y0.4911 I-0.0085 J-0.0078
G1 Y0.4164
G1 X1.0979
G1 Y0.6296
G1 X1.1171
G1 Y0.616
G3 X1.1383 Y0.6098 I0.0115 J0.0
G2 X1.1564 Y0.6269 I0.0435 J-0.0279
G1 X1.1565
G2 X1.1818 Y0.6335 I0.0247 J-0.0433
G3 X1.182 I0.0001 J0.0115
G2 X1.2036 Y0.6292 I0.0005 J-0.0538
G0 Z0.125
G0 X1.1937 Y0.6138
G0 Z0.0625
G1 F4.0 Z-0.01
G3 F8.0 X1.1898 Y0.6161 I-0.026 J-0.0406
G3 X1.1897 Y0.6162 I-0.0053 J-0.0102
G3 X1.1697 Y0.6207 I-0.0196 J-0.0399
G3 X1.1332 Y0.6036 I-0.0006 J-0.0461
G3 X1.1221 Y0.5809 I0.0422 J-0.0347
G3 X1.1197 Y0.5585 I0.0925 J-0.0215
G3 X1.1221 Y0.5339 I0.115 J-0.0012
G3 X1.1335 Y0.5087 I0.0587 J0.0115
G3 X1.1337 Y0.5085 I0.0091 J0.0071
G3 X1.1496 Y0.4955 I0.0395 J0.032
G3 X1.1498 Y0.4954 I0.0053 J0.0102
G3 X1.1705 Y0.4906 I0.0204 J0.0406
G3 X1.2058 Y0.5075 I0.0005 J0.0443
G3 X1.2059 Y0.5077 I-0.0091 J0.0071
G3 X1.2166 Y0.5326 I-0.0456 J0.0344
G3 X1.2187 Y0.5562 I-0.1201 J0.0224
G3 X1.2164 Y0.5794 I-0.1072 J0.0011
G3 X1.2055 Y0.6032 I-0.0558 J-0.0111
G3 X1.2054 Y0.6034 I-0.0091 J-0.0071
G3 X1.1937 Y0.6138 I-0.0376 J-0.0302
G0 Z0.125
G0 X1.3013 Y0.5576
G0 Z0.0625
G1 F4.0 Z-0.01
G3 F8.0 X1.3017 Y0.557 I0.0219 J0.0126
G3 X1.3013 Y0.5564 I0.0207 J-0.0145
G2 Y0.5576 I0.0972 J-0.0006
G1 F4.0 X1.3053 Y0.5599
G3 F8.0 X1.3075 Y0.5568 I0.0179 J0.0103
G3 X1.3017 Y0.5423 I0.0149 J-0.0143
G3 X1.3052 Y0.5198 I0.0808 J0.001
G3 X1.3134 Y0.503 I0.0565 J0.0172
G2 X1.3097 Y0.5074 I0.0336 J0.0316
G2 X1.2998 Y0.5286 I0.0522 J0.0373
G2 X1.2967 Y0.5541 I0.0958 J0.0246
G3 Y0.5545 I-0.0207 J0.0002
G2 X1.3007 Y0.5839 I0.1018 J0.0013
G2 X1.3094 Y0.6018 I0.0557 J-0.0162
G3 X1.3053 Y0.5914 I0.0498 J-0.0256
G3 X1.3026 Y0.5698 I0.0714 J-0.02
G3 X1.3053 Y0.5599 I0.0207 J0.0004
G0 Z0.125
G0 X1.4104 Y0.5632
G0 Z0.0625
G1 F4.0 Z-0.01
G3 F8.0 X1.4116 Y0.5705 I-0.0195 J0.007
G3 X1.4097 Y0.5868 I-0.0809 J-0.001
G2 X1.4136 Y0.5703 I-0.0827 J-0.0282
G3 Y0.5702 I0.0205 J0.0028
G2 X1.4144 Y0.5632 I-0.1648 J-0.023
G1 X1.4104
G1 F4.0 Y0.554
G1 F8.0 X1.3224
G3 X1.3109 Y0.5424 I0.0 J-0.0115
G3 X1.314 Y0.5225 I0.0716 J0.0009
G1 Y0.5224
G3 X1.3249 Y0.5033 I0.0477 J0.0145
G3 X1.3594 Y0.4885 I0.0338 J0.031
G3 X1.3844 Y0.4967 I0.0009 J0.0393
G3 X1.3847 Y0.4969 I-0.007 J0.0091
G3 X1.3944 Y0.5089 I-0.0251 J0.0303
G3 X1.3958 Y0.5116 I-0.0545 J0.029
G1 X1.4169 Y0.508
G2 X1.4133 Y0.5023 I-0.0639 J0.0364
G2 X1.3994 Y0.4885 I-0.0461 J0.0325
G2 X1.3807 Y0.4802 I-0.0326 J0.048
G2 X1.3591 Y0.4776 I-0.0208 J0.0847
G3 X1.3588 I-0.0001 J-0.0115
G2 X1.3265 Y0.4832 I-0.0016 J0.0865
G2 X1.3023 Y0.502 I0.0204 J0.0514
G2 X1.2909 Y0.5263 I0.0596 J0.0427
G2 X1.2875 Y0.5542 I0.1047 J0.0269
G3 Y0.5544 I-0.0115 J0.0001
G2 X1.2918 Y0.5865 I0.111 J0.0014
G2 X1.3067 Y0.6131 I0.0645 J-0.0187
G1 X1.3068
G2 X1.3542 Y0.6335 I0.0458 J-0.0412
G3 X1.3547 I0.0003 J0.0115
G2 X1.3833 Y0.6284 I0.0012 J-0.0771
G2 X1.406 Y0.6122 I-0.0219 J-0.0547
G1 X1.4061
G2 X1.4153 Y0.5977 I-0.0449 J-0.039
G2 X1.4227 Y0.5715 I-0.0883 J-0.0391
G1 Y0.5714
G2 X1.4243 Y0.554 I-0.1739 J-0.0243
G1 X1.4104
G1 F4.0 X1.3997 Y0.5629
G3 F8.0 X1.4024 Y0.5704 I-0.0088 J0.0074
G3 X1.3997 Y0.5892 I-0.0718 J-0.0009
G3 X1.3893 Y0.6078 I-0.0441 J-0.0125
G3 X1.3573 Y0.6218 I-0.0316 J-0.0285
G3 X1.3241 Y0.6071 I-0.0008 J-0.0429
G3 X1.3141 Y0.5889 I0.0351 J-0.031
G3 X1.3117 Y0.57 I0.0625 J-0.0175
G3 X1.3232 Y0.5587 I0.0115 J0.0002
G1 X1.3909
G3 X1.3997 Y0.5629 I0.0 J0.0115
G0 Z0.125
G0 X1.4961 Y0.5894
G0 Z0.0625
G1 F4.0 Z-0.01
G1 F8.0 Y0.5978
G3 X1.4985 Y0.596 I0.0168 J0.019
G3 X1.4961 Y0.5894 I0.0773 J-0.031
G1 F4.0 X1.5005 Y0.588
G3 F8.0 X1.4998 Y0.5856 I0.0753 J-0.023
G3 X1.4997 Y0.585 I0.02 J-0.0054
G3 X1.4969 Y0.5676 I0.1107 J-0.0263
G3 X1.4954 Y0.5228 I0.5247 J-0.0404
G1 Y0.4907
G1 X1.4915
G1 Y0.6204
G1 X1.4922
G1 Y0.6168
G3 X1.5043 Y0.598 I0.0207 J0.0
G3 X1.5005 Y0.588 I0.0715 J-0.0329
G1 F4.0 X1.5093 Y0.5853
G3 F8.0 X1.5087 Y0.5832 I0.0665 J-0.0203
G3 X1.5086 Y0.5829 I0.0111 J-0.003
G3 X1.5061 Y0.5669 I0.1017 J-0.0242
G3 X1.5046 Y0.5228 I0.5155 J-0.0397
G1 Y0.4815
G1 X1.4823
G1 Y0.6296
G1 X1.5014
G1 Y0.6168
G3 X1.5227 Y0.6107 I0.0115 J0.0
G2 X1.5305 Y0.622 I0.1042 J-0.0644
G3 X1.5306 Y0.6222 I-0.009 J0.0071
G2 X1.5386 Y0.6299 I0.0296 J-0.0224
G2 X1.5517 Y0.6335 I0.0128 J-0.0211
G1 X1.5518
G2 X1.5674 Y0.6307 I-0.0003 J-0.046
G1 X1.5612 Y0.6131
G3 X1.5466 Y0.6159 I-0.0152 J-0.0405
G3 X1.5232 Y0.6081 I-0.001 J-0.0364
G3 X1.5229 Y0.6079 I0.0071 J-0.009
G3 X1.5133 Y0.5954 I0.0236 J-0.0282
G3 X1.5093 Y0.5853 I0.0625 J-0.0304
( Profile1 )
S1000
G0 Z0.125
G0 X0.125 Y0.1094
G0 Z0.0625
G1 F6.0 Z-0.01
G1 F8.0 X1.875
G3 X1.8906 Y0.125 I0.0 J0.0156
G1 Y1.875
G3 X1.875 Y1.8906 I-0.0156 J0.0
G1 X0.125
G3 X0.1094 Y1.875 I0.0 J-0.0156
G1 Y0.125
G3 X0.125 Y0.1094 I0.0156 J0.0
( Pocket1 )
S10000
G0 Z0.125
G0 X1.3821 Y1.5081
G0 Z0.0625
G1 F4.0 Z-0.02
G1 F8.0 X1.3956 Y1.5279
G3 X1.4032 Y1.5081 I0.0281 J-0.0005
G1 X1.3821
G1 F4.0 X1.3718 Y1.5151
G1 F8.0 X1.4476 Y1.6268
G3 X1.468 Y1.6625 I-0.1992 J0.1376
G1 X1.4681 Y1.6626
G3 X1.4756 Y1.683 I-0.1256 J0.0574
G3 X1.4789 Y1.7062 I-0.0863 J0.0242
G3 X1.4753 Y1.727 I-0.0557 J0.001
G3 X1.4751 Y1.7273 I-0.0146 J-0.0056
G3 X1.4498 Y1.7516 I-0.0399 J-0.0162
G3 X1.4223 Y1.7561 I-0.0258 J-0.072
G3 X1.3835 Y1.7438 I-0.0005 J-0.0658
G3 X1.3833 Y1.7436 I0.0091 J-0.0127
G3 X1.3688 Y1.73 I0.0538 J-0.0716
G1 X1.3569 Y1.7394
G2 X1.3777 Y1.758 I0.0577 J-0.0435
G3 X1.3781 Y1.7582 I-0.008 J0.0134
G2 X1.4203 Y1.7701 I0.0415 J-0.0661
G3 X1.4206 I0.0001 J0.0156
G2 X1.4546 Y1.7662 I0.0015 J-0.1356
G2 X1.4829 Y1.7524 I-0.0175 J-0.0719
G2 X1.4982 Y1.7326 I-0.0316 J-0.0401
G2 X1.503 Y1.7067 I-0.061 J-0.0248
G1 Y1.7066
G2 X1.5003 Y1.6876 I-0.0751 J0.0009
G2 X1.4888 Y1.6583 I-0.1481 J0.0412
G1 Y1.6582
G2 X1.4722 Y1.6297 I-0.2617 J0.1335
G1 X1.4721
G1 X1.4106 Y1.5359
G3 X1.4237 Y1.5117 I0.0131 J-0.0086
G1 X1.5208
G1 Y1.4956
G1 X1.3585
G1 X1.3718 Y1.5151
G0 Z0.125
G0 X1.6249 Y1.6486
G0 Z0.0625
G1 F4.0 Z-0.02
G3 F8.0 X1.6317 Y1.6383 I0.058 J0.0306
G3 X1.6743 Y1.6178 I0.0419 J0.0326
G3 X1.6987 Y1.6216 I0.001 J0.0742
G1 X1.6988
G3 X1.7295 Y1.65 I-0.0164 J0.0485
G3 X1.7296 Y1.6502 I-0.0144 J0.0061
G3 X1.7359 Y1.6848 I-0.0798 J0.0324
G3 X1.7336 Y1.7081 I-0.1144 J0.0008
G3 X1.727 Y1.7269 I-0.07 J-0.0141
G3 X1.7032 Y1.75 I-0.0462 J-0.0239
G3 X1.7028 Y1.7502 I-0.0067 J-0.0141
G3 X1.6737 Y1.7561 I-0.0278 J-0.0625
G3 X1.631 Y1.7359 I-0.0014 J-0.0524
G3 X1.6192 Y1.7117 I0.05 J-0.0394
G3 X1.6164 Y1.6877 I0.0935 J-0.0231
G3 X1.6194 Y1.663 I0.0966 J-0.0009
G3 X1.6249 Y1.6486 I0.0635 J0.0162
G0 Z0.125
G0 X1.7303 Y1.6192
G0 Z0.0625
G1 F4.0 Z-0.02
G3 F8.0 X1.7385 Y1.6283 I-0.048 J0.0509
G2 X1.7346 Y1.6143 I-0.125 J0.0265
G3 X1.7303 Y1.6192 I-0.0279 J-0.02
G1 F4.0 X1.726 Y1.6237
G3 F8.0 X1.7409 Y1.6451 I-0.0437 J0.0463
G3 X1.7411 Y1.6455 I-0.0258 J0.011
G3 X1.7472 Y1.6674 I-0.0914 J0.0371
G2 X1.7475 Y1.6539 I-0.2193 J-0.0116
G2 X1.738 Y1.6052 I-0.134 J0.0009
G2 X1.7346 Y1.5973 I-0.1944 J0.0776
G3 X1.7202 Y1.6189 I-0.028 J-0.0031
G3 X1.726 Y1.6237 I-0.0379 J0.0512
G1 F4.0 X1.7153 Y1.6073
G3 F8.0 X1.7005 Y1.6086 I-0.0086 J-0.0131
G2 X1.6872 Y1.6048 I-0.0208 J0.0481
G2 X1.6717 Y1.6037 I-0.0149 J0.0992
G3 X1.6714 I-0.0001 J-0.0156
G2 X1.6401 Y1.6088 I-0.0012 J0.0909
G2 X1.6147 Y1.6252 I0.0235 J0.0642
G1 Y1.6253
G2 X1.5983 Y1.6522 I0.0495 J0.0486
G2 X1.5933 Y1.6855 I0.0998 J0.0319
G3 Y1.6859 I-0.0156 J0.0002
G2 X1.5985 Y1.7195 I0.103 J0.0013
G2 X1.6154 Y1.7473 I0.0713 J-0.0244
G3 X1.6155 Y1.7474 I-0.0113 J0.0108
G2 X1.6702 Y1.7702 I0.0528 J-0.0497
G3 X1.6707 Y1.7701 I0.0004 J0.0156
G2 X1.6923 Y1.7684 I0.0006 J-0.1241
G3 X1.6924 Y1.7683 I0.0026 J0.0154
G2 X1.7248 Y1.755 I-0.0119 J-0.075
G2 X1.7419 Y1.7362 I-0.0411 J-0.0546
G2 X1.7562 Y1.6977 I-0.0979 J-0.0581
G3 Y1.6975 I0.0154 J0.0027
G2 X1.76 Y1.6538 I-0.2284 J-0.0417
G2 X1.7496 Y1.6006 I-0.1465 J0.001
G2 X1.7224 Y1.5516 I-0.206 J0.0823
G3 X1.7222 Y1.5513 I0.0126 J-0.0092
G2 X1.6868 Y1.5124 I-0.1694 J0.1188
G1 X1.6867
G2 X1.6515 Y1.492 I-0.0724 J0.0846
G1 X1.6432 Y1.5008
G3 X1.6808 Y1.5309 I-0.1346 J0.2063
G1 X1.6809 Y1.531
G3 X1.7208 Y1.5876 I-0.1376 J0.1395
G3 X1.7153 Y1.6073 I-0.0142 J0.0066
G0 Z0.125
M5
M30
