( Made using CamBam - http://www.cambam.co.uk )
( 030-zinc 1/23/2014 11:53:38 AM )
( T0 : 0.0313 )
G20 G90 G91.1 G64 G40
G0 Z0.125
( T0 : 0.0313 )
T0 M6
( Pocket1 )
G17
M3 S10000
G0 X0.7531 Y2.75
G0 Z0.0625
G1 F4.0 Z-0.0313
G2 F8.0 X0.7484 Y2.7473 I-0.0031 J0.0
G2 Y2.7527 I0.0016 J0.0027
G2 X0.7531 Y2.75 I0.0016 J-0.0027
G1 F4.0 X0.7594
G2 F8.0 X0.7453 Y2.7419 I-0.0094 J0.0
G2 Y2.7581 I0.0047 J0.0081
G2 X0.7594 Y2.75 I0.0047 J-0.0081
G1 F4.0 X0.7719
G2 F8.0 X0.7391 Y2.7311 I-0.0219 J0.0
G2 Y2.7689 I0.0109 J0.0189
G2 X0.7719 Y2.75 I0.0109 J-0.0189
G1 F4.0 X0.7844
G2 F8.0 X0.7328 Y2.7202 I-0.0344 J0.0
G2 Y2.7798 I0.0172 J0.0298
G2 X0.7844 Y2.75 I0.0172 J-0.0298
G1 F4.0 X0.7969
G2 F8.0 X0.7266 Y2.7094 I-0.0469 J0.0
G2 Y2.7906 I0.0234 J0.0406
G2 X0.7969 Y2.75 I0.0234 J-0.0406
G0 Z0.125
G0 X0.7531
G0 Z0.0312
G1 F4.0 Z-0.0625
G2 F8.0 X0.7484 Y2.7473 I-0.0031 J0.0
G2 Y2.7527 I0.0016 J0.0027
G2 X0.7531 Y2.75 I0.0016 J-0.0027
G1 F4.0 X0.7594
G2 F8.0 X0.7453 Y2.7419 I-0.0094 J0.0
G2 Y2.7581 I0.0047 J0.0081
G2 X0.7594 Y2.75 I0.0047 J-0.0081
G1 F4.0 X0.7719
G2 F8.0 X0.7391 Y2.7311 I-0.0219 J0.0
G2 Y2.7689 I0.0109 J0.0189
G2 X0.7719 Y2.75 I0.0109 J-0.0189
G1 F4.0 X0.7844
G2 F8.0 X0.7328 Y2.7202 I-0.0344 J0.0
G2 Y2.7798 I0.0172 J0.0298
G2 X0.7844 Y2.75 I0.0172 J-0.0298
G1 F4.0 X0.7969
G2 F8.0 X0.7266 Y2.7094 I-0.0469 J0.0
G2 Y2.7906 I0.0234 J0.0406
G2 X0.7969 Y2.75 I0.0234 J-0.0406
G0 Z0.125
G0 X0.7531
G0 Z0.0
G1 F4.0 Z-0.0938
G2 F8.0 X0.7484 Y2.7473 I-0.0031 J0.0
G2 Y2.7527 I0.0016 J0.0027
G2 X0.7531 Y2.75 I0.0016 J-0.0027
G1 F4.0 X0.7594
G2 F8.0 X0.7453 Y2.7419 I-0.0094 J0.0
G2 Y2.7581 I0.0047 J0.0081
G2 X0.7594 Y2.75 I0.0047 J-0.0081
G1 F4.0 X0.7719
G2 F8.0 X0.7391 Y2.7311 I-0.0219 J0.0
G2 Y2.7689 I0.0109 J0.0189
G2 X0.7719 Y2.75 I0.0109 J-0.0189
G1 F4.0 X0.7844
G2 F8.0 X0.7328 Y2.7202 I-0.0344 J0.0
G2 Y2.7798 I0.0172 J0.0298
G2 X0.7844 Y2.75 I0.0172 J-0.0298
G1 F4.0 X0.7969
G2 F8.0 X0.7266 Y2.7094 I-0.0469 J0.0
G2 Y2.7906 I0.0234 J0.0406
G2 X0.7969 Y2.75 I0.0234 J-0.0406
G0 Z0.125
G0 X0.7531
G0 Z-0.0323
G1 F4.0 Z-0.126
G2 F8.0 X0.7484 Y2.7473 I-0.0031 J0.0
G2 Y2.7527 I0.0016 J0.0027
G2 X0.7531 Y2.75 I0.0016 J-0.0027
G1 F4.0 X0.7594
G2 F8.0 X0.7453 Y2.7419 I-0.0094 J0.0
G2 Y2.7581 I0.0047 J0.0081
G2 X0.7594 Y2.75 I0.0047 J-0.0081
G1 F4.0 X0.7719
G2 F8.0 X0.7391 Y2.7311 I-0.0219 J0.0
G2 Y2.7689 I0.0109 J0.0189
G2 X0.7719 Y2.75 I0.0109 J-0.0189
G1 F4.0 X0.7844
G2 F8.0 X0.7328 Y2.7202 I-0.0344 J0.0
G2 Y2.7798 I0.0172 J0.0298
G2 X0.7844 Y2.75 I0.0172 J-0.0298
G1 F4.0 X0.7969
G2 F8.0 X0.7266 Y2.7094 I-0.0469 J0.0
G2 Y2.7906 I0.0234 J0.0406
G2 X0.7969 Y2.75 I0.0234 J-0.0406
G0 Z0.125
G0 X3.2469
G0 Z0.0625
G1 F4.0 Z-0.0313
G2 F8.0 X3.2484 Y2.7527 I0.0031 J0.0
G2 X3.2531 Y2.75 I0.0016 J-0.0027
G2 X3.2484 Y2.7473 I-0.0031 J0.0
G2 X3.2469 Y2.75 I0.0016 J0.0027
G1 F4.0 X3.2406
G2 F8.0 X3.2453 Y2.7581 I0.0094 J0.0
G2 X3.2594 Y2.75 I0.0047 J-0.0081
G2 X3.2453 Y2.7419 I-0.0094 J0.0
G2 X3.2406 Y2.75 I0.0047 J0.0081
G1 F4.0 X3.2281
G2 F8.0 X3.2391 Y2.7689 I0.0219 J0.0
G2 X3.2719 Y2.75 I0.0109 J-0.0189
G2 X3.2391 Y2.7311 I-0.0219 J0.0
G2 X3.2281 Y2.75 I0.0109 J0.0189
G1 F4.0 X3.2156
G2 F8.0 X3.2328 Y2.7798 I0.0344 J0.0
G2 X3.2844 Y2.75 I0.0172 J-0.0298
G2 X3.2328 Y2.7202 I-0.0344 J0.0
G2 X3.2156 Y2.75 I0.0172 J0.0298
G1 F4.0 X3.2031
G2 F8.0 X3.2266 Y2.7906 I0.0469 J0.0
G2 X3.2969 Y2.75 I0.0234 J-0.0406
G2 X3.2266 Y2.7094 I-0.0469 J0.0
G2 X3.2031 Y2.75 I0.0234 J0.0406
G0 Z0.125
G0 X3.2469
G0 Z0.0312
G1 F4.0 Z-0.0625
G2 F8.0 X3.2484 Y2.7527 I0.0031 J0.0
G2 X3.2531 Y2.75 I0.0016 J-0.0027
G2 X3.2484 Y2.7473 I-0.0031 J0.0
G2 X3.2469 Y2.75 I0.0016 J0.0027
G1 F4.0 X3.2406
G2 F8.0 X3.2453 Y2.7581 I0.0094 J0.0
G2 X3.2594 Y2.75 I0.0047 J-0.0081
G2 X3.2453 Y2.7419 I-0.0094 J0.0
G2 X3.2406 Y2.75 I0.0047 J0.0081
G1 F4.0 X3.2281
G2 F8.0 X3.2391 Y2.7689 I0.0219 J0.0
G2 X3.2719 Y2.75 I0.0109 J-0.0189
G2 X3.2391 Y2.7311 I-0.0219 J0.0
G2 X3.2281 Y2.75 I0.0109 J0.0189
G1 F4.0 X3.2156
G2 F8.0 X3.2328 Y2.7798 I0.0344 J0.0
G2 X3.2844 Y2.75 I0.0172 J-0.0298
G2 X3.2328 Y2.7202 I-0.0344 J0.0
G2 X3.2156 Y2.75 I0.0172 J0.0298
G1 F4.0 X3.2031
G2 F8.0 X3.2266 Y2.7906 I0.0469 J0.0
G2 X3.2969 Y2.75 I0.0234 J-0.0406
G2 X3.2266 Y2.7094 I-0.0469 J0.0
G2 X3.2031 Y2.75 I0.0234 J0.0406
G0 Z0.125
G0 X3.2469
G0 Z0.0
G1 F4.0 Z-0.0938
G2 F8.0 X3.2484 Y2.7527 I0.0031 J0.0
G2 X3.2531 Y2.75 I0.0016 J-0.0027
G2 X3.2484 Y2.7473 I-0.0031 J0.0
G2 X3.2469 Y2.75 I0.0016 J0.0027
G1 F4.0 X3.2406
G2 F8.0 X3.2453 Y2.7581 I0.0094 J0.0
G2 X3.2594 Y2.75 I0.0047 J-0.0081
G2 X3.2453 Y2.7419 I-0.0094 J0.0
G2 X3.2406 Y2.75 I0.0047 J0.0081
G1 F4.0 X3.2281
G2 F8.0 X3.2391 Y2.7689 I0.0219 J0.0
G2 X3.2719 Y2.75 I0.0109 J-0.0189
G2 X3.2391 Y2.7311 I-0.0219 J0.0
G2 X3.2281 Y2.75 I0.0109 J0.0189
G1 F4.0 X3.2156
G2 F8.0 X3.2328 Y2.7798 I0.0344 J0.0
G2 X3.2844 Y2.75 I0.0172 J-0.0298
G2 X3.2328 Y2.7202 I-0.0344 J0.0
G2 X3.2156 Y2.75 I0.0172 J0.0298
G1 F4.0 X3.2031
G2 F8.0 X3.2266 Y2.7906 I0.0469 J0.0
G2 X3.2969 Y2.75 I0.0234 J-0.0406
G2 X3.2266 Y2.7094 I-0.0469 J0.0
G2 X3.2031 Y2.75 I0.0234 J0.0406
G0 Z0.125
G0 X3.2469
G0 Z-0.0323
G1 F4.0 Z-0.126
G2 F8.0 X3.2484 Y2.7527 I0.0031 J0.0
G2 X3.2531 Y2.75 I0.0016 J-0.0027
G2 X3.2484 Y2.7473 I-0.0031 J0.0
G2 X3.2469 Y2.75 I0.0016 J0.0027
G1 F4.0 X3.2406
G2 F8.0 X3.2453 Y2.7581 I0.0094 J0.0
G2 X3.2594 Y2.75 I0.0047 J-0.0081
G2 X3.2453 Y2.7419 I-0.0094 J0.0
G2 X3.2406 Y2.75 I0.0047 J0.0081
G1 F4.0 X3.2281
G2 F8.0 X3.2391 Y2.7689 I0.0219 J0.0
G2 X3.2719 Y2.75 I0.0109 J-0.0189
G2 X3.2391 Y2.7311 I-0.0219 J0.0
G2 X3.2281 Y2.75 I0.0109 J0.0189
G1 F4.0 X3.2156
G2 F8.0 X3.2328 Y2.7798 I0.0344 J0.0
G2 X3.2844 Y2.75 I0.0172 J-0.0298
G2 X3.2328 Y2.7202 I-0.0344 J0.0
G2 X3.2156 Y2.75 I0.0172 J0.0298
G1 F4.0 X3.2031
G2 F8.0 X3.2266 Y2.7906 I0.0469 J0.0
G2 X3.2969 Y2.75 I0.0234 J-0.0406
G2 X3.2266 Y2.7094 I-0.0469 J0.0
G2 X3.2031 Y2.75 I0.0234 J0.0406
G0 Z0.125
G0 X3.2499 Y0.2531
G0 Z0.0625
G1 F4.0 Z-0.0313
G2 F8.0 X3.2531 Y0.25 I0.0001 J-0.0031
G2 X3.2484 Y0.2473 I-0.0031 J0.0
G2 Y0.2527 I0.0016 J0.0027
G2 X3.2499 Y0.2531 I0.0016 J-0.0027
G1 F4.0 X3.2498 Y0.2594
G2 F8.0 X3.2594 Y0.25 I0.0002 J-0.0094
G2 X3.2453 Y0.2419 I-0.0094 J0.0
G2 Y0.2581 I0.0047 J0.0081
G2 X3.2498 Y0.2594 I0.0047 J-0.0081
G1 F4.0 X3.2496 Y0.2719
G2 F8.0 X3.2719 Y0.25 I0.0004 J-0.0219
G2 X3.2391 Y0.2311 I-0.0219 J0.0
G2 Y0.2689 I0.0109 J0.0189
G2 X3.2496 Y0.2719 I0.0109 J-0.0189
G1 F4.0 X3.2494 Y0.2844
G2 F8.0 X3.2844 Y0.25 I0.0006 J-0.0344
G2 X3.2328 Y0.2202 I-0.0344 J0.0
G2 Y0.2798 I0.0172 J0.0298
G2 X3.2494 Y0.2844 I0.0172 J-0.0298
G1 F4.0 X3.2491 Y0.2969
G2 F8.0 X3.2969 Y0.25 I0.0009 J-0.0469
G2 X3.2266 Y0.2094 I-0.0469 J0.0
G2 Y0.2906 I0.0234 J0.0406
G2 X3.2491 Y0.2969 I0.0234 J-0.0406
G0 Z0.125
G0 X3.2499 Y0.2531
G0 Z0.0312
G1 F4.0 Z-0.0625
G2 F8.0 X3.2531 Y0.25 I0.0001 J-0.0031
G2 X3.2484 Y0.2473 I-0.0031 J0.0
G2 Y0.2527 I0.0016 J0.0027
G2 X3.2499 Y0.2531 I0.0016 J-0.0027
G1 F4.0 X3.2498 Y0.2594
G2 F8.0 X3.2594 Y0.25 I0.0002 J-0.0094
G2 X3.2453 Y0.2419 I-0.0094 J0.0
G2 Y0.2581 I0.0047 J0.0081
G2 X3.2498 Y0.2594 I0.0047 J-0.0081
G1 F4.0 X3.2496 Y0.2719
G2 F8.0 X3.2719 Y0.25 I0.0004 J-0.0219
G2 X3.2391 Y0.2311 I-0.0219 J0.0
G2 Y0.2689 I0.0109 J0.0189
G2 X3.2496 Y0.2719 I0.0109 J-0.0189
G1 F4.0 X3.2494 Y0.2844
G2 F8.0 X3.2844 Y0.25 I0.0006 J-0.0344
G2 X3.2328 Y0.2202 I-0.0344 J0.0
G2 Y0.2798 I0.0172 J0.0298
G2 X3.2494 Y0.2844 I0.0172 J-0.0298
G1 F4.0 X3.2491 Y0.2969
G2 F8.0 X3.2969 Y0.25 I0.0009 J-0.0469
G2 X3.2266 Y0.2094 I-0.0469 J0.0
G2 Y0.2906 I0.0234 J0.0406
G2 X3.2491 Y0.2969 I0.0234 J-0.0406
G0 Z0.125
G0 X3.2499 Y0.2531
G0 Z0.0
G1 F4.0 Z-0.0938
G2 F8.0 X3.2531 Y0.25 I0.0001 J-0.0031
G2 X3.2484 Y0.2473 I-0.0031 J0.0
G2 Y0.2527 I0.0016 J0.0027
G2 X3.2499 Y0.2531 I0.0016 J-0.0027
G1 F4.0 X3.2498 Y0.2594
G2 F8.0 X3.2594 Y0.25 I0.0002 J-0.0094
G2 X3.2453 Y0.2419 I-0.0094 J0.0
G2 Y0.2581 I0.0047 J0.0081
G2 X3.2498 Y0.2594 I0.0047 J-0.0081
G1 F4.0 X3.2496 Y0.2719
G2 F8.0 X3.2719 Y0.25 I0.0004 J-0.0219
G2 X3.2391 Y0.2311 I-0.0219 J0.0
G2 Y0.2689 I0.0109 J0.0189
G2 X3.2496 Y0.2719 I0.0109 J-0.0189
G1 F4.0 X3.2494 Y0.2844
G2 F8.0 X3.2844 Y0.25 I0.0006 J-0.0344
G2 X3.2328 Y0.2202 I-0.0344 J0.0
G2 Y0.2798 I0.0172 J0.0298
G2 X3.2494 Y0.2844 I0.0172 J-0.0298
G1 F4.0 X3.2491 Y0.2969
G2 F8.0 X3.2969 Y0.25 I0.0009 J-0.0469
G2 X3.2266 Y0.2094 I-0.0469 J0.0
G2 Y0.2906 I0.0234 J0.0406
G2 X3.2491 Y0.2969 I0.0234 J-0.0406
G0 Z0.125
G0 X3.2499 Y0.2531
G0 Z-0.0323
G1 F4.0 Z-0.126
G2 F8.0 X3.2531 Y0.25 I0.0001 J-0.0031
G2 X3.2484 Y0.2473 I-0.0031 J0.0
G2 Y0.2527 I0.0016 J0.0027
G2 X3.2499 Y0.2531 I0.0016 J-0.0027
G1 F4.0 X3.2498 Y0.2594
G2 F8.0 X3.2594 Y0.25 I0.0002 J-0.0094
G2 X3.2453 Y0.2419 I-0.0094 J0.0
G2 Y0.2581 I0.0047 J0.0081
G2 X3.2498 Y0.2594 I0.0047 J-0.0081
G1 F4.0 X3.2496 Y0.2719
G2 F8.0 X3.2719 Y0.25 I0.0004 J-0.0219
G2 X3.2391 Y0.2311 I-0.0219 J0.0
G2 Y0.2689 I0.0109 J0.0189
G2 X3.2496 Y0.2719 I0.0109 J-0.0189
G1 F4.0 X3.2494 Y0.2844
G2 F8.0 X3.2844 Y0.25 I0.0006 J-0.0344
G2 X3.2328 Y0.2202 I-0.0344 J0.0
G2 Y0.2798 I0.0172 J0.0298
G2 X3.2494 Y0.2844 I0.0172 J-0.0298
G1 F4.0 X3.2491 Y0.2969
G2 F8.0 X3.2969 Y0.25 I0.0009 J-0.0469
G2 X3.2266 Y0.2094 I-0.0469 J0.0
G2 Y0.2906 I0.0234 J0.0406
G2 X3.2491 Y0.2969 I0.0234 J-0.0406
G0 Z0.125
G0 X0.7531 Y0.2501
G0 Z0.0625
G1 F4.0 Z-0.0313
G1 F8.0 Y0.25
G2 X0.7484 Y0.2473 I-0.0031 J0.0
G2 Y0.2527 I0.0016 J0.0027
G2 X0.7531 Y0.2501 I0.0016 J-0.0027
G1 F4.0 X0.7594 Y0.2502
G2 F8.0 Y0.25 I-0.0094 J-0.0002
G2 X0.7453 Y0.2419 I-0.0094 J0.0
G2 Y0.2581 I0.0047 J0.0081
G2 X0.7594 Y0.2502 I0.0047 J-0.0081
G1 F4.0 X0.7719 Y0.2504
G2 F8.0 Y0.25 I-0.0219 J-0.0004
G2 X0.7391 Y0.2311 I-0.0219 J0.0
G2 Y0.2689 I0.0109 J0.0189
G2 X0.7719 Y0.2504 I0.0109 J-0.0189
G1 F4.0 X0.7844 Y0.2506
G2 F8.0 Y0.25 I-0.0344 J-0.0006
G2 X0.7328 Y0.2202 I-0.0344 J0.0
G2 Y0.2798 I0.0172 J0.0298
G2 X0.7844 Y0.2506 I0.0172 J-0.0298
G1 F4.0 X0.7969 Y0.2509
G2 F8.0 Y0.25 I-0.0469 J-0.0009
G2 X0.7266 Y0.2094 I-0.0469 J0.0
G2 Y0.2906 I0.0234 J0.0406
G2 X0.7969 Y0.2509 I0.0234 J-0.0406
G0 Z0.125
G0 X0.7531 Y0.2501
G0 Z0.0312
G1 F4.0 Z-0.0625
G1 F8.0 Y0.25
G2 X0.7484 Y0.2473 I-0.0031 J0.0
G2 Y0.2527 I0.0016 J0.0027
G2 X0.7531 Y0.2501 I0.0016 J-0.0027
G1 F4.0 X0.7594 Y0.2502
G2 F8.0 Y0.25 I-0.0094 J-0.0002
G2 X0.7453 Y0.2419 I-0.0094 J0.0
G2 Y0.2581 I0.0047 J0.0081
G2 X0.7594 Y0.2502 I0.0047 J-0.0081
G1 F4.0 X0.7719 Y0.2504
G2 F8.0 Y0.25 I-0.0219 J-0.0004
G2 X0.7391 Y0.2311 I-0.0219 J0.0
G2 Y0.2689 I0.0109 J0.0189
G2 X0.7719 Y0.2504 I0.0109 J-0.0189
G1 F4.0 X0.7844 Y0.2506
G2 F8.0 Y0.25 I-0.0344 J-0.0006
G2 X0.7328 Y0.2202 I-0.0344 J0.0
G2 Y0.2798 I0.0172 J0.0298
G2 X0.7844 Y0.2506 I0.0172 J-0.0298
G1 F4.0 X0.7969 Y0.2509
G2 F8.0 Y0.25 I-0.0469 J-0.0009
G2 X0.7266 Y0.2094 I-0.0469 J0.0
G2 Y0.2906 I0.0234 J0.0406
G2 X0.7969 Y0.2509 I0.0234 J-0.0406
G0 Z0.125
G0 X0.7531 Y0.2501
G0 Z0.0
G1 F4.0 Z-0.0938
G1 F8.0 Y0.25
G2 X0.7484 Y0.2473 I-0.0031 J0.0
G2 Y0.2527 I0.0016 J0.0027
G2 X0.7531 Y0.2501 I0.0016 J-0.0027
G1 F4.0 X0.7594 Y0.2502
G2 F8.0 Y0.25 I-0.0094 J-0.0002
G2 X0.7453 Y0.2419 I-0.0094 J0.0
G2 Y0.2581 I0.0047 J0.0081
G2 X0.7594 Y0.2502 I0.0047 J-0.0081
G1 F4.0 X0.7719 Y0.2504
G2 F8.0 Y0.25 I-0.0219 J-0.0004
G2 X0.7391 Y0.2311 I-0.0219 J0.0
G2 Y0.2689 I0.0109 J0.0189
G2 X0.7719 Y0.2504 I0.0109 J-0.0189
G1 F4.0 X0.7844 Y0.2506
G2 F8.0 Y0.25 I-0.0344 J-0.0006
G2 X0.7328 Y0.2202 I-0.0344 J0.0
G2 Y0.2798 I0.0172 J0.0298
G2 X0.7844 Y0.2506 I0.0172 J-0.0298
G1 F4.0 X0.7969 Y0.2509
G2 F8.0 Y0.25 I-0.0469 J-0.0009
G2 X0.7266 Y0.2094 I-0.0469 J0.0
G2 Y0.2906 I0.0234 J0.0406
G2 X0.7969 Y0.2509 I0.0234 J-0.0406
G0 Z0.125
G0 X0.7531 Y0.2501
G0 Z-0.0323
G1 F4.0 Z-0.126
G1 F8.0 Y0.25
G2 X0.7484 Y0.2473 I-0.0031 J0.0
G2 Y0.2527 I0.0016 J0.0027
G2 X0.7531 Y0.2501 I0.0016 J-0.0027
G1 F4.0 X0.7594 Y0.2502
G2 F8.0 Y0.25 I-0.0094 J-0.0002
G2 X0.7453 Y0.2419 I-0.0094 J0.0
G2 Y0.2581 I0.0047 J0.0081
G2 X0.7594 Y0.2502 I0.0047 J-0.0081
G1 F4.0 X0.7719 Y0.2504
G2 F8.0 Y0.25 I-0.0219 J-0.0004
G2 X0.7391 Y0.2311 I-0.0219 J0.0
G2 Y0.2689 I0.0109 J0.0189
G2 X0.7719 Y0.2504 I0.0109 J-0.0189
G1 F4.0 X0.7844 Y0.2506
G2 F8.0 Y0.25 I-0.0344 J-0.0006
G2 X0.7328 Y0.2202 I-0.0344 J0.0
G2 Y0.2798 I0.0172 J0.0298
G2 X0.7844 Y0.2506 I0.0172 J-0.0298
G1 F4.0 X0.7969 Y0.2509
G2 F8.0 Y0.25 I-0.0469 J-0.0009
G2 X0.7266 Y0.2094 I-0.0469 J0.0
G2 Y0.2906 I0.0234 J0.0406
G2 X0.7969 Y0.2509 I0.0234 J-0.0406
( Pocket3 )
S10000
G0 Z0.125
G0 X1.0719 Y0.5719
G0 Z0.0625
G1 F4.0 Z-0.01
G1 F8.0 Y0.5766
G3 X1.0766 Y0.5719 I0.0531 J0.0484
G1 X1.0719
G1 F4.0 X1.0656
G1 F8.0 Y0.5971
G3 X1.0971 Y0.5656 I0.0594 J0.0279
G1 X1.0656
G1 Y0.5719
G0 Z0.125
G0 X1.8636 Y1.3906
G0 Z0.0625
G1 F4.0 Z-0.01
G3 F8.0 X1.8674 Y1.4037 I-0.056 J0.0235
G3 X1.8678 Y1.4055 I-0.0963 J0.0182
G3 X1.872 Y1.3906 I0.0562 J0.0081
G1 X1.8636
G0 Z0.125
G0 X1.8672 Y1.5852
G0 Z0.0625
G1 F4.0 Z-0.01
G3 F8.0 X1.8619 Y1.6109 I-0.2033 J-0.0283
G1 Y1.611
G3 X1.8583 Y1.6224 I-0.1464 J-0.0403
G3 X1.8672 Y1.6342 I-0.0274 J0.03
G1 Y1.5852
G0 Z0.125
G0 X1.8736 Y1.679
G0 Z0.0625
G1 F4.0 Z-0.01
G2 F8.0 X1.8748 Y1.6889 I0.4328 J-0.0473
G1 X1.8785 Y1.6886
G3 X1.8736 Y1.679 I0.061 J-0.0372
G1 F4.0 X1.8612 Y1.6804
G2 F8.0 X1.8641 Y1.702 I0.4452 J-0.0486
G1 X1.9054 Y1.6995
G3 X1.8992 Y1.6944 I0.0354 J-0.0498
G3 X1.8991 Y1.6943 I0.0192 J-0.0206
G3 X1.8831 Y1.6684 I0.0404 J-0.0429
G3 X1.8797 Y1.6443 I0.077 J-0.023
G1 Y1.4133
G3 Y1.4127 I0.0281 J0.0
G3 X1.8975 Y1.3781 I0.0443 J0.0009
G1 X1.8394
G1 X1.8395
G3 X1.8428 Y1.3811 I-0.0172 J0.0223
G3 X1.8551 Y1.406 I-0.0351 J0.033
G3 X1.8566 Y1.4228 I-0.084 J0.016
G1 Y1.5549
G3 X1.8499 Y1.6076 I-0.1927 J0.0019
G1 X1.8498
G3 X1.843 Y1.627 I-0.1343 J-0.037
G3 X1.859 Y1.6511 I-0.0121 J0.0254
G2 X1.8612 Y1.6804 I0.4474 J-0.0194
G1 F4.0 X1.8488 Y1.6817
G3 F8.0 X1.8465 Y1.6517 I0.4576 J-0.05
G2 X1.8221 Y1.6394 I-0.0156 J0.0007
G2 X1.8378 Y1.6043 I-0.1066 J-0.0687
G2 X1.8441 Y1.555 I-0.1739 J-0.0474
G1 Y1.4227
G2 X1.8428 Y1.4082 I-0.073 J-0.0008
G2 X1.8336 Y1.3897 I-0.0352 J0.006
G2 X1.8318 Y1.388 I-0.0114 J0.0107
G2 X1.813 Y1.3801 I-0.0245 J0.0317
G2 X1.798 Y1.3789 I-0.0142 J0.0855
G1 X1.7805
G1 Y1.3656
G1 X1.9555
G1 Y1.3789
G1 X1.9387
G2 X1.9241 Y1.3801 I-0.0008 J0.0838
G2 X1.9065 Y1.387 I0.0063 J0.0415
G2 X1.8922 Y1.413 I0.0175 J0.0266
G2 Y1.4133 I0.0156 J0.0003
G1 Y1.6444
G2 X1.895 Y1.6648 I0.0679 J0.0009
G2 X1.9076 Y1.6852 I0.0444 J-0.0134
G1 X1.9077
G2 X1.9285 Y1.6967 I0.0331 J-0.0355
G2 X1.9485 Y1.6992 I0.0192 J-0.0721
G1 X1.959
G1 Y1.7087
G1 X1.8537 Y1.7152
G3 X1.8488 Y1.6817 I0.4527 J-0.0835
G0 Z0.125
G0 X1.0766 Y2.4281
G0 Z0.0625
G1 F4.0 Z-0.01
G3 F8.0 X1.0719 Y2.4234 I0.0484 J-0.0531
G1 Y2.4281
G1 X1.0766
G1 F4.0 Y2.4344
G1 F8.0 X1.0971
G3 X1.0656 Y2.4029 I0.0279 J-0.0594
G1 Y2.4344
G1 X1.0766
G0 Z0.125
G0 X2.9234 Y2.4281
G0 Z0.0625
G1 F4.0 Z-0.01
G1 F8.0 X2.9281
G1 Y2.4234
G3 X2.9234 Y2.4281 I-0.0531 J-0.0484
G1 F4.0 X2.9192 Y2.4235
G3 F8.0 X2.9029 Y2.4344 I-0.0442 J-0.0485
G1 X2.9344
G1 Y2.4029
G3 X2.9192 Y2.4235 I-0.0594 J-0.0279
G0 Z0.125
G0 X2.9281 Y0.5766
G0 Z0.0625
G1 F4.0 Z-0.01
G1 F8.0 Y0.5719
G1 X2.9234
G3 X2.9281 Y0.5766 I-0.0484 J0.0531
G1 F4.0 X2.9344
G1 F8.0 Y0.5656
G1 X2.9029
G3 X2.9344 Y0.5971 I-0.0279 J0.0594
G1 Y0.5766
G0 Z0.125
G0 X2.8968 Y0.6073
G0 Z0.0625
G1 F4.0 Z-0.01
G3 F8.0 X2.9031 Y0.625 I-0.0218 J0.0177
G1 Y2.375
G3 X2.875 Y2.4031 I-0.0281 J0.0
G1 X1.125
G3 X1.0969 Y2.375 I0.0 J-0.0281
G1 Y0.625
G3 X1.125 Y0.5969 I0.0281 J0.0
G1 X2.875
G3 X2.8968 Y0.6073 I0.0 J0.0281
G1 F4.0 X2.8871 Y0.6151
G3 F8.0 X2.8906 Y0.625 I-0.0121 J0.0099
G1 Y2.375
G3 X2.875 Y2.3906 I-0.0156 J0.0
G1 X1.125
G3 X1.1094 Y2.375 I0.0 J-0.0156
G1 Y0.625
G3 X1.125 Y0.6094 I0.0156 J0.0
G1 X2.875
G3 X2.8871 Y0.6151 I0.0 J0.0156
G0 Z0.125
G0 X2.9065 Y0.5994
G0 Z0.0625
G1 F4.0 Z-0.01
G2 F8.0 X2.875 Y0.5844 I-0.0315 J0.0256
G1 X1.125
G2 X1.0844 Y0.625 I0.0 J0.0406
G1 Y2.375
G2 X1.125 Y2.4156 I0.0406 J0.0
G1 X2.875
G2 X2.9156 Y2.375 I0.0 J-0.0406
G1 Y0.625
G2 X2.9065 Y0.5994 I-0.0406 J0.0
G1 F4.0 X2.9162 Y0.5915
G2 F8.0 X2.875 Y0.5719 I-0.0412 J0.0335
G1 X1.125
G2 X1.0719 Y0.625 I0.0 J0.0531
G1 Y2.375
G2 X1.125 Y2.4281 I0.0531 J0.0
G1 X2.875
G2 X2.9281 Y2.375 I0.0 J-0.0531
G1 Y0.625
G2 X2.9162 Y0.5915 I-0.0531 J0.0
G0 Z0.125
G0 X2.9469
G0 Z0.0625
G1 F4.0 Z-0.01
G1 F8.0 Y0.5531
G1 X1.0531
G1 Y2.4469
G1 X2.9469
G1 Y0.5915
G1 F4.0 X2.9594
G1 F8.0 Y0.5406
G1 X1.0406
G1 Y2.4594
G1 X2.9594
G1 Y0.5915
G1 F4.0 X2.9719
G1 F8.0 Y0.5281
G1 X1.0281
G1 Y2.4719
G1 X2.9719
G1 Y0.5915
G1 F4.0 X2.9844
G1 F8.0 Y0.5156
G1 X1.0156
G1 Y2.4844
G1 X2.9844
G1 Y0.5915
G0 Z0.125
G0 X2.4088 Y1.3906
G0 Z0.0625
G1 F4.0 Z-0.01
G1 F8.0 X2.394
G3 X2.3876 Y1.4167 I-0.0404 J0.0039
G1 X2.0791 Y1.8914
G1 X2.0939
G3 X2.1003 Y1.8654 I0.0404 J-0.0039
G1 X2.4088 Y1.3906
G1 F4.0 Y1.3781
G1 F8.0 X2.3764
G3 X2.3771 Y1.4099 I-0.0228 J0.0164
G1 X2.0578 Y1.9013
G1 Y1.9039
G1 X2.1115
G3 X2.1108 Y1.8722 I0.0228 J-0.0164
G1 X2.4318 Y1.3781
G1 X2.4088
G0 Z0.125
G0 X2.0951 Y1.3969
G0 Z0.0625
G1 F4.0 Z-0.01
G1 F8.0 X2.0798
G1 X2.079 Y1.414
G3 X2.0951 Y1.3969 I0.1368 J0.1119
G1 F4.0 X2.0993 Y1.4014
G3 F8.0 X2.1121 Y1.3906 I0.1164 J0.1245
G1 X2.0739
G1 X2.0718 Y1.4347
G3 X2.0993 Y1.4014 I0.144 J0.0912
G1 F4.0 X2.1079 Y1.4106
G3 F8.0 X2.1434 Y1.3856 I0.1079 J0.1154
G3 X2.1439 Y1.3853 I0.0129 J0.025
G3 X2.1608 Y1.3781 I0.0751 J0.154
G1 X2.062
G1 X2.0559 Y1.504
G3 X2.0645 Y1.4783 I0.6506 J0.2023
G3 X2.0646 Y1.478 I0.0265 J0.0094
G3 X2.08 Y1.4452 I0.1949 J0.0716
G3 X2.0801 Y1.445 I0.0243 J0.0141
G3 X2.1079 Y1.4106 I0.1356 J0.081
G0 Z0.125
G0 X2.3868 Y1.8829
G0 Z0.0625
G1 F4.0 Z-0.01
G3 F8.0 X2.3866 Y1.8833 I-0.1974 J-0.1601
G3 X2.385 Y1.8852 I-0.1138 J-0.091
G1 X2.3867
G1 X2.3868 Y1.8829
G1 F4.0 X2.382 Y1.879
G3 F8.0 X2.3817 Y1.8793 I-0.1926 J-0.1562
G3 X2.3709 Y1.8914 I-0.1089 J-0.0871
G1 X2.3927
G1 X2.3942 Y1.8627
G3 X2.382 Y1.879 I-0.2048 J-0.1398
G1 F4.0 X2.3723 Y1.8711
G3 F8.0 X2.372 Y1.8715 I-0.1829 J-0.1483
G3 X2.3399 Y1.9001 I-0.0992 J-0.0793
G3 X2.333 Y1.9031 I-0.0149 J-0.0239
G3 X2.3304 Y1.9039 I-0.0858 J-0.2876
G1 X2.4045
G1 X2.4097 Y1.8049
G3 X2.3937 Y1.8398 I-0.2283 J-0.0831
G3 X2.3935 Y1.8402 I-0.0246 J-0.0137
G3 X2.3723 Y1.8711 I-0.2041 J-0.1173
G1 F4.0 X2.3626 Y1.8633
G3 F8.0 X2.3623 Y1.8636 I-0.1732 J-0.1404
G3 X2.3333 Y1.8894 I-0.0895 J-0.0714
G3 X2.3295 Y1.8911 I-0.0083 J-0.0133
G3 X2.2428 Y1.9031 I-0.0823 J-0.2756
G1 X2.1344
G3 X2.1213 Y1.879 I0.0 J-0.0156
G1 X2.4449 Y1.3809
G1 Y1.3656
G1 X2.0501
G1 X2.0406 Y1.5625
G1 X2.0533
G3 X2.0762 Y1.4825 I0.6532 J0.1438
G3 X2.0763 Y1.4823 I0.0147 J0.0052
G3 X2.0908 Y1.4515 I0.1832 J0.0673
G3 X2.0909 Y1.4514 I0.0135 J0.0079
G3 X2.1491 Y1.3967 I0.1249 J0.0746
G3 X2.1494 Y1.3965 I0.0072 J0.0139
G3 X2.1941 Y1.3824 I0.0696 J0.1428
G3 X2.2387 Y1.3789 I0.0429 J0.2617
G1 X2.3535
G3 X2.3666 Y1.403 I0.0 J0.0156
G1 X2.0453 Y1.8976
G1 Y1.9164
G1 X2.4164
G1 X2.4257 Y1.7359
G1 X2.4138
G3 X2.4047 Y1.7786 I-0.4602 J-0.0762
G3 X2.3828 Y1.8338 I-0.2233 J-0.0568
G3 X2.3827 Y1.834 I-0.0137 J-0.0076
G3 X2.3626 Y1.8633 I-0.1933 J-0.1111
G0 Z0.125
G0 X1.6239 Y1.4046
G0 Z0.0625
G1 F4.0 Z-0.01
G3 F8.0 X1.6285 Y1.3906 I0.061 J0.0125
G1 X1.6198
G3 X1.6237 Y1.4037 I-0.056 J0.0235
G3 X1.6239 Y1.4046 I-0.0963 J0.0182
G1 F4.0 X1.6361 Y1.4071
G3 F8.0 X1.6532 Y1.3787 I0.0488 J0.01
G3 X1.6539 Y1.3781 I0.0179 J0.0217
G1 X1.5957
G3 X1.5962 Y1.3785 I-0.0316 J0.0401
G3 X1.599 Y1.3811 I-0.0177 J0.0219
G3 X1.6114 Y1.406 I-0.0351 J0.033
G3 X1.6129 Y1.4228 I-0.084 J0.016
G1 Y1.5969
G3 Y1.5972 I-0.0281 J0.0
G2 X1.6258 Y1.6558 I0.132 J0.0017
G3 X1.6261 Y1.6565 I-0.0254 J0.0121
G2 X1.6563 Y1.6913 I0.072 J-0.0321
G2 X1.705 Y1.7027 I0.0459 J-0.0857
G3 X1.7063 I0.0008 J0.0281
G2 X1.7286 Y1.701 I0.0017 J-0.1217
G3 X1.6864 Y1.6885 I0.0062 J-0.0984
G3 X1.6858 Y1.6881 I0.0138 J-0.0245
G3 X1.6501 Y1.6534 I0.0554 J-0.0926
G3 X1.6485 Y1.6504 I0.0237 J-0.0151
G3 X1.637 Y1.6083 I0.1093 J-0.0524
G3 X1.6352 Y1.5718 I0.3202 J-0.0345
G1 Y1.4196
G3 X1.6361 Y1.4071 I0.0497 J-0.0025
G1 F4.0 X1.6483 Y1.4096
G3 F8.0 X1.6611 Y1.3883 I0.0365 J0.0075
G3 X1.6626 Y1.3873 I0.0099 J0.0121
G3 X1.6838 Y1.3799 I0.0257 J0.0398
G3 X1.7008 Y1.3789 I0.016 J0.1268
G1 X1.7109
G1 Y1.3656
G1 X1.5367
G1 Y1.3789
G1 X1.5546
G3 X1.5694 Y1.38 I0.0008 J0.0861
G3 X1.5883 Y1.3882 I-0.0053 J0.0382
G3 X1.5899 Y1.3897 I-0.0098 J0.0122
G3 X1.5991 Y1.4082 I-0.026 J0.0245
G3 X1.6004 Y1.4227 I-0.0717 J0.0138
G1 Y1.5969
G3 Y1.5971 I-0.0156 J0.0
G2 X1.6145 Y1.6612 I0.1445 J0.0019
G3 X1.6147 Y1.6616 I-0.0141 J0.0067
G2 X1.65 Y1.7021 I0.0834 J-0.0372
G2 X1.7054 Y1.7152 I0.0522 J-0.0966
G3 X1.7061 I0.0005 J0.0156
G2 X1.7761 Y1.6967 I0.0019 J-0.1342
G3 X1.7762 Y1.6966 I0.0079 J0.0135
G2 X1.8157 Y1.6484 I-0.0431 J-0.0756
G3 X1.8142 Y1.6503 I-0.1002 J-0.0777
G3 X1.736 Y1.6887 I-0.0777 J-0.0594
G3 X1.6926 Y1.6776 I-0.0012 J-0.0861
G3 X1.6922 Y1.6774 I0.0077 J-0.0136
G3 X1.6606 Y1.6467 I0.0489 J-0.0818
G3 X1.6597 Y1.645 I0.0132 J-0.0084
G3 X1.6494 Y1.6071 I0.098 J-0.047
G3 X1.6477 Y1.5718 I0.3077 J-0.0333
G1 Y1.4193
G3 X1.6483 Y1.4096 I0.0372 J-0.0022
G0 Z0.125
G0 X1.3613 Y2.0053
G0 Z0.0625
G1 F4.0 Z-0.01
G2 F8.0 X1.3602 Y2.0048 I-0.0267 J0.0554
G2 X1.3421 Y1.9993 I-0.0347 J0.0815
G3 X1.3622 Y2.0093 I-0.0161 J0.0578
G3 X1.3629 Y2.0099 I-0.0132 J0.0174
G3 X1.384 Y2.0394 I-0.0455 J0.0548
G3 X1.3914 Y2.0645 I-0.1329 J0.0526
G3 X1.395 Y2.0888 I-0.2459 J0.0493
G3 X1.3972 Y2.1357 I-0.4573 J0.0444
G3 X1.3951 Y2.1747 I-0.3396 J0.0017
G3 X1.3858 Y2.2156 I-0.1723 J-0.0177
G3 X1.3691 Y2.2439 I-0.0824 J-0.0296
G3 X1.3688 Y2.2442 I-0.0164 J-0.0145
G3 X1.3492 Y2.2586 I-0.0463 J-0.0423
G2 X1.3557 Y2.2557 I-0.0274 J-0.0682
G2 X1.3827 Y2.231 I-0.039 J-0.0698
G3 X1.3829 Y2.2308 I0.0181 J0.0123
G2 X1.4028 Y2.1881 I-0.1106 J-0.0775
G2 X1.4088 Y2.1395 I-0.1787 J-0.047
G3 Y2.1392 I0.0219 J-0.0002
G2 X1.4065 Y2.0937 I-0.4029 J-0.0018
G3 X1.4064 Y2.0936 I0.0217 J-0.0024
G2 X1.3975 Y2.051 I-0.2085 J0.0217
G2 X1.3861 Y2.0272 I-0.0965 J0.0314
G2 X1.3613 Y2.0053 I-0.0516 J0.0336
G0 Z0.125
G0 X1.3044 Y1.9998
G0 Z0.0625
G1 F4.0 Z-0.01
G2 F8.0 X1.2882 Y2.0058 I0.0172 J0.0706
G2 X1.2623 Y2.0303 I0.0358 J0.0637
G1 Y2.0304
G2 X1.2429 Y2.078 I0.1179 J0.0758
G1 Y2.0781
G2 X1.2375 Y2.1326 I0.2491 J0.0522
G3 Y2.1329 I-0.0219 J0.0002
G2 X1.2408 Y2.1806 I0.3166 J0.0021
G3 Y2.1807 I-0.0216 J0.0031
G2 X1.2532 Y2.2236 I0.1532 J-0.0211
G2 X1.2683 Y2.2453 I0.0704 J-0.0328
G2 X1.2983 Y2.2615 I0.0432 J-0.0441
G3 X1.2984 Y2.2616 I-0.0047 J0.0214
G2 X1.303 Y2.2625 I0.0212 J-0.0943
G3 X1.2631 Y2.2288 I0.0161 J-0.0597
G3 X1.2547 Y2.2036 I0.0965 J-0.0461
G3 X1.2511 Y2.1802 I0.2146 J-0.0448
G1 Y2.1801
G3 X1.2491 Y2.1354 I0.4429 J-0.0422
G3 X1.2502 Y2.0995 I0.5508 J-0.0015
G3 X1.2549 Y2.0623 I0.2792 J0.0162
G3 X1.2633 Y2.0354 I0.1183 J0.0225
G1 X1.2634
G3 X1.2885 Y2.0066 I0.0601 J0.0272
G3 X1.2893 Y2.0062 I0.0116 J0.0185
G3 X1.3044 Y1.9998 I0.0343 J0.0604
G1 F4.0 X1.3029 Y1.9937
G2 F8.0 X1.2853 Y2.0003 I0.0186 J0.0767
G2 X1.2571 Y2.027 I0.0387 J0.0693
G1 X1.257
G2 X1.2368 Y2.0768 I0.1232 J0.0792
G1 X1.2367
G2 X1.2312 Y2.1326 I0.2552 J0.0535
G3 Y2.1329 I-0.0156 J0.0001
G2 X1.2346 Y2.1815 I0.3229 J0.0021
G3 Y2.1816 I-0.0155 J0.0022
G2 X1.2475 Y2.2262 I0.1594 J-0.022
G2 X1.2639 Y2.2498 I0.076 J-0.0354
G2 X1.297 Y2.2676 I0.0476 J-0.0486
G1 X1.2971 Y2.2677
G2 X1.3203 Y2.2701 I0.0225 J-0.1004
G3 X1.3206 I0.0001 J0.0156
G2 X1.3586 Y2.2612 I0.0012 J-0.0797
G2 X1.3879 Y2.2345 I-0.0419 J-0.0753
G3 X1.388 Y2.2343 I0.0129 J0.0088
G2 X1.4088 Y2.1897 I-0.1157 J-0.0811
G2 X1.4151 Y2.1395 I-0.1848 J-0.0486
G3 Y2.1393 I0.0156 J-0.0001
G2 X1.4127 Y2.093 I-0.4091 J-0.0018
G2 X1.4034 Y2.0491 I-0.2147 J0.0223
G2 X1.3914 Y2.0238 I-0.1025 J0.0333
G2 X1.3628 Y1.9991 I-0.0568 J0.037
G2 X1.3236 Y1.9915 I-0.0372 J0.0872
G3 X1.323 I-0.0003 J-0.0156
G2 X1.3029 Y1.9937 I-0.0014 J0.0789
G1 F4.0 X1.3063 Y2.0057
G3 F8.0 X1.3249 Y2.0033 I0.0173 J0.0608
G3 X1.3584 Y2.0142 I0.001 J0.0538
G3 X1.3589 Y2.0147 I-0.0094 J0.0125
G3 X1.3782 Y2.0416 I-0.0415 J0.05
G3 X1.3853 Y2.0657 I-0.1271 J0.0503
G3 X1.3888 Y2.0894 I-0.2398 J0.0481
G3 X1.391 Y2.1357 I-0.4511 J0.0438
G3 X1.3889 Y2.174 I-0.3334 J0.0017
G3 X1.38 Y2.2135 I-0.1661 J-0.017
G3 X1.3644 Y2.2398 I-0.0765 J-0.0275
G3 X1.3642 Y2.24 I-0.0117 J-0.0103
G3 X1.3216 Y2.2583 I-0.0417 J-0.0381
G3 X1.2687 Y2.2262 I-0.0024 J-0.0556
G3 X1.2608 Y2.2023 I0.0909 J-0.0435
G3 X1.2573 Y2.1796 I0.2085 J-0.0436
G1 Y2.1795
G3 X1.2553 Y2.1354 I0.4367 J-0.0416
G3 X1.2564 Y2.0999 I0.5446 J-0.0015
G3 X1.261 Y2.0635 I0.273 J0.0158
G3 X1.269 Y2.038 I0.1122 J0.0213
G3 X1.2918 Y2.0119 I0.0544 J0.0246
G3 X1.2924 Y2.0116 I0.0083 J0.0133
G3 X1.3063 Y2.0057 I0.0312 J0.0549
G0 Z0.125
G0 X1.5168 Y2.2151
G0 Z0.0625
G1 F4.0 Z-0.01
G2 F8.0 X1.5202 Y2.2289 I0.0534 J-0.0059
G2 X1.5219 Y2.2324 I0.0341 J-0.0145
G3 X1.5192 Y2.2251 I0.0535 J-0.0244
G3 X1.5168 Y2.2151 I0.0785 J-0.024
G1 F4.0 X1.5291 Y2.213
G3 F8.0 X1.5281 Y2.2003 I0.0685 J-0.0119
G3 X1.5332 Y2.1751 I0.0591 J-0.0012
G3 X1.5333 Y2.1748 I0.0143 J0.0064
G3 X1.5536 Y2.1539 I0.0412 J0.0196
G3 X1.5698 Y2.1482 I0.0284 J0.0546
G3 X1.582 Y2.1465 I0.019 J0.095
G1 Y2.1335
G3 X1.5624 Y2.1299 I0.0053 J-0.0853
G3 X1.5379 Y2.1158 I0.019 J-0.0612
G3 X1.5227 Y2.0942 I0.04 J-0.0442
G3 X1.5226 Y2.094 I0.0145 J-0.0059
G3 X1.518 Y2.0691 I0.0619 J-0.0243
G3 X1.5225 Y2.0417 I0.0773 J-0.0013
G3 X1.5226 Y2.0416 I0.0147 J0.0053
G3 X1.5423 Y2.0165 I0.0485 J0.0178
G3 X1.5425 Y2.0164 I0.0087 J0.013
G3 X1.5611 Y2.0083 I0.0332 J0.051
G3 X1.5846 Y2.0056 I0.0224 J0.0917
G3 X1.6204 Y2.0146 I-0.0002 J0.0765
G3 X1.6205 I-0.0073 J0.0138
G3 X1.633 Y2.0226 I-0.0497 J0.0918
G1 X1.6421 Y2.0086
G2 X1.6214 Y1.9977 I-0.054 J0.0777
G2 X1.5853 Y1.9915 I-0.0352 J0.0971
G3 X1.585 I-0.0001 J-0.0156
G2 X1.5478 Y1.996 I-0.0016 J0.1439
G1 X1.5477
G2 X1.5167 Y2.0116 I0.0198 J0.0781
G2 X1.4993 Y2.0351 I0.0373 J0.0457
G2 X1.4939 Y2.0657 I0.0761 J0.0292
G3 Y2.0662 I-0.0156 J0.0003
G2 X1.4992 Y2.0944 I0.0717 J0.0011
G2 X1.5159 Y2.1163 I0.0526 J-0.0228
G2 X1.5327 Y2.1269 I0.0525 J-0.065
G3 X1.5339 Y2.1545 I-0.0067 J0.0141
G2 X1.5114 Y2.1768 I0.0315 J0.0543
G2 X1.504 Y2.2075 I0.0544 J0.0294
G3 Y2.2081 I-0.0156 J0.0003
G2 X1.5086 Y2.2336 I0.0662 J0.0011
G2 X1.5233 Y2.2531 I0.0456 J-0.0192
G2 X1.5505 Y2.2663 I0.0437 J-0.0548
G1 Y2.2664
G2 X1.5833 Y2.2701 I0.0313 J-0.1274
G1 X1.5834
G2 X1.6182 Y2.2627 I-0.0006 J-0.0876
G3 X1.6184 Y2.2626 I0.0063 J0.0143
G2 X1.6324 Y2.2552 I-0.0357 J-0.0846
G2 X1.6342 Y2.254 I-0.0237 J-0.0374
G1 X1.6265 Y2.2426
G3 X1.6177 Y2.248 I-0.0558 J-0.0804
G3 X1.5869 Y2.2561 I-0.0315 J-0.0578
G3 X1.5559 Y2.25 I-0.0021 J-0.0716
G3 X1.5555 Y2.2498 I0.0063 J-0.0143
G3 X1.5311 Y2.2214 I0.0199 J-0.0418
G3 X1.5291 Y2.213 I0.0665 J-0.0203
( Pocket2 )
S10000
G0 Z0.125
G0 X2.3282 Y0.786
G0 Z0.0625
G1 F4.0 Z-0.01
G3 F8.0 X2.3356 Y0.7966 I-0.0114 J0.0159
G1 X2.3357
G2 X2.3419 Y0.7645 I-0.0824 J-0.0326
G2 Y0.7626 I-0.1504 J-0.0009
G3 X2.3393 Y0.7704 I-0.0643 J-0.0173
G3 X2.3391 Y0.7707 I-0.0181 J-0.0074
G3 X2.3282 Y0.786 I-0.0398 J-0.017
G1 F4.0 X2.3245 Y0.7818
G3 F8.0 X2.3149 Y0.7881 I-0.0251 J-0.0281
G3 X2.3299 Y0.8069 I0.0019 J0.0139
G3 X2.3185 Y0.8283 I-0.0912 J-0.0348
G3 X2.3039 Y0.846 I-0.1179 J-0.0826
G3 X2.2789 Y0.8673 I-0.1141 J-0.1086
G1 X2.2797 Y0.8682
G2 X2.3 Y0.856 I-0.0258 J-0.0659
G2 X2.3231 Y0.8307 I-0.0878 J-0.1032
G3 X2.3233 Y0.8305 I0.0115 J0.008
G2 X2.3409 Y0.7986 I-0.1157 J-0.0848
G2 X2.3475 Y0.7645 I-0.0876 J-0.0347
G2 X2.3457 Y0.7401 I-0.156 J-0.0009
G2 X2.3393 Y0.7181 I-0.0832 J0.0122
G2 X2.3319 Y0.7065 I-0.0447 J0.0203
G2 X2.3177 Y0.6961 I-0.0303 J0.0264
G2 X2.2918 Y0.6913 I-0.0245 J0.0601
G3 X2.2913 I-0.0003 J-0.014
G2 X2.2726 Y0.6947 I-0.0006 J0.0501
G2 X2.2573 Y0.7051 I0.0165 J0.0405
G3 Y0.7052 I-0.0102 J-0.0096
G2 X2.2468 Y0.7221 I0.0332 J0.0321
G2 X2.2435 Y0.7431 I0.0605 J0.0202
G3 Y0.7435 I-0.014 J0.0002
G2 X2.2467 Y0.7644 I0.0657 J0.0009
G2 X2.2568 Y0.7809 I0.0405 J-0.0134
G3 X2.2569 Y0.781 I-0.01 J0.0098
G2 X2.2724 Y0.7912 I0.0298 J-0.0286
G2 X2.292 Y0.7944 I0.0189 J-0.0535
G2 X2.3008 Y0.793 I-0.0006 J-0.0329
G1 X2.3009
G2 X2.3083 Y0.7904 I-0.0205 J-0.0703
G3 X2.294 Y0.7922 I-0.0137 J-0.0512
G3 X2.2626 Y0.7769 I-0.0006 J-0.0386
G3 X2.2539 Y0.7593 I0.037 J-0.0294
G3 X2.2518 Y0.7419 I0.0652 J-0.0168
G3 X2.2538 Y0.7252 I0.0668 J-0.0006
G3 X2.2624 Y0.7078 I0.044 J0.0109
G3 X2.2625 Y0.7076 I0.0109 J0.0087
G3 X2.2768 Y0.6968 I0.0296 J0.0242
G3 X2.277 Y0.6967 I0.0056 J0.0128
G3 X2.2935 Y0.6935 I0.0161 J0.0387
G3 X2.3141 Y0.6975 I0.0009 J0.0499
G3 X2.3144 Y0.6977 I-0.0055 J0.0129
G3 X2.3321 Y0.7142 I-0.0158 J0.0346
G3 X2.337 Y0.7277 I-0.0439 J0.0236
G3 X2.3386 Y0.7439 I-0.0757 J0.0156
G3 X2.3341 Y0.7683 I-0.061 J0.0015
G3 X2.334 Y0.7685 I-0.013 J-0.0053
G3 X2.3245 Y0.7818 I-0.0347 J-0.0148
G0 Z0.125
G0 X2.1677 Y0.8016
G0 Z0.0625
G1 F4.0 Z-0.01
G3 F8.0 X2.1675 Y0.8017 I-0.0271 J-0.0492
G3 X2.1677 Y0.802 I-0.0143 J0.0134
G1 Y0.8016
G1 F4.0 X2.1733
G1 F8.0 Y0.7913
G3 X2.1657 Y0.7963 I-0.0456 J-0.0614
G3 X2.1541 Y0.8011 I-0.0251 J-0.0439
G3 X2.1671 Y0.8151 I-0.001 J0.014
G1 Y0.8509
G3 X2.1531 Y0.8649 I-0.014 J0.0
G1 X2.0934
G1 Y0.8671
G1 X2.1733
G1 Y0.8016
G0 Z0.125
G0 X2.1466 Y0.8026
G0 Z0.0625
G1 F4.0 Z-0.01
G3 F8.0 X2.1319 Y0.8052 I-0.0139 J-0.0357
G2 X2.1313 I-0.0003 J0.014
G3 X2.1114 Y0.8022 I-0.0009 J-0.0617
G3 X2.0964 Y0.7926 I0.0115 J-0.0343
G3 X2.087 Y0.7756 I0.0308 J-0.0282
G3 X2.0841 Y0.7539 I0.0742 J-0.0208
G2 Y0.7535 I-0.014 J-0.0002
G3 X2.0871 Y0.7275 I0.1054 J-0.0013
G3 X2.0941 Y0.7112 I0.0529 J0.0129
G3 X2.1133 Y0.6958 I0.0332 J0.0219
G2 X2.1134 I-0.0049 J-0.0131
G3 X2.1267 Y0.6923 I0.0223 J0.0584
G3 X2.1413 Y0.6913 I0.0142 J0.0954
G2 X2.1415 I0.0001 J-0.014
G3 X2.1642 Y0.6949 I0.0005 J0.0698
G3 X2.1751 Y0.6999 I-0.0211 J0.0609
G1 X2.1733 Y0.7037
G2 X2.168 Y0.7007 I-0.0634 J0.1074
G1 X2.1679
G2 X2.156 Y0.6958 I-0.0336 J0.0648
G2 X2.1417 Y0.6935 I-0.0149 J0.0476
G2 X2.1209 Y0.6973 I-0.0011 J0.0534
G2 X2.1205 Y0.6974 I0.0052 J0.013
G2 X2.0973 Y0.7227 I0.0168 J0.0388
G2 X2.093 Y0.75 I0.0749 J0.0256
G2 X2.0947 Y0.768 I0.0888 J0.0007
G2 X2.1038 Y0.7881 I0.0458 J-0.0085
G2 X2.1042 Y0.7887 I0.011 J-0.0086
G2 X2.1231 Y0.8006 I0.0291 J-0.025
G2 X2.1411 Y0.803 I0.0171 J-0.0607
G2 X2.1466 Y0.8026 I-0.0006 J-0.0506
G0 Z0.125
G0 X2.0072 Y0.7008
G0 Z0.0625
G1 F4.0 Z-0.01
G2 F8.0 X2.008 Y0.6983 I-0.0032 J-0.0024
G3 Y0.6976 I0.0196 J-0.0004
G2 X2.0067 Y0.6943 I-0.0045 J-0.0001
G3 X2.0064 Y0.6941 I0.0138 J-0.0139
G2 X2.0033 Y0.6928 I-0.003 J0.003
G3 X2.0026 I-0.0003 J-0.0196
G2 X1.9998 Y0.6939 I-0.0001 J0.0038
G3 X1.9993 Y0.6945 I-0.0142 J-0.0135
G2 X1.998 Y0.6976 I0.003 J0.003
G3 Y0.6983 I-0.0196 J0.0003
G2 X1.9992 Y0.7011 I0.0038 J0.0001
G3 X1.9998 Y0.7017 I-0.0135 J0.0142
G2 X2.0026 Y0.7029 I0.0027 J-0.0026
G3 X2.0033 I0.0004 J0.0196
G2 X2.0064 Y0.7016 I0.0001 J-0.0042
G3 X2.0068 Y0.7013 I0.0141 J0.0136
G2 X2.0072 Y0.7008 I-0.0028 J-0.0029
G1 F4.0 X2.0118 Y0.7041
G2 F8.0 X2.0136 Y0.6982 I-0.0078 J-0.0057
G3 Y0.6977 I0.014 J-0.0003
G2 X2.0106 Y0.6903 I-0.0101 J-0.0002
G3 X2.0105 Y0.6902 I0.0099 J-0.0099
G2 X2.0032 Y0.6872 I-0.0071 J0.0069
G3 X2.0027 I-0.0002 J-0.014
G2 X1.9958 Y0.6901 I-0.0002 J0.0094
G3 X1.9954 Y0.6905 I-0.0101 J-0.0097
G2 X1.9924 Y0.6977 I0.0069 J0.0071
G3 Y0.6982 I-0.014 J0.0002
G2 X1.9953 Y0.7051 I0.0094 J0.0002
G3 X1.9958 Y0.7056 I-0.0097 J0.0101
G2 X2.0027 Y0.7085 I0.0068 J-0.0065
G3 X2.0032 I0.0003 J0.014
G2 X2.0105 Y0.7055 I0.0002 J-0.0098
G3 X2.0107 Y0.7053 I0.0101 J0.0097
G2 X2.0118 Y0.7041 I-0.0067 J-0.0069
G0 Z0.125
G0 X1.9103 Y0.7001
G0 Z0.0625
G1 F4.0 Z-0.01
G2 F8.0 X1.9002 Y0.6952 I-0.031 J0.0508
G2 X1.8774 Y0.6913 I-0.0222 J0.0614
G3 X1.8771 I-0.0001 J-0.014
G2 X1.8532 Y0.6941 I-0.0011 J0.0923
G2 X1.8338 Y0.7038 I0.0123 J0.0486
G2 X1.8234 Y0.7181 I0.0226 J0.0277
G2 X1.82 Y0.7371 I0.0474 J0.0182
G3 Y0.7375 I-0.014 J0.0002
G2 X1.8233 Y0.7549 I0.0442 J0.0007
G2 X1.8333 Y0.7681 I0.0318 J-0.0138
G2 X1.8438 Y0.7747 I0.0327 J-0.0406
G3 X1.8449 Y0.7994 I-0.006 J0.0127
G2 X1.8312 Y0.813 I0.0192 J0.0331
G2 X1.8267 Y0.8316 I0.0331 J0.0179
G3 Y0.8321 I-0.014 J0.0003
G2 X1.8295 Y0.8477 I0.0406 J0.0007
G2 X1.8382 Y0.8592 I0.0271 J-0.0114
G2 X1.855 Y0.8674 I0.0269 J-0.0337
G2 X1.876 Y0.8698 I0.02 J-0.0815
G2 X1.8978 Y0.8652 I-0.0004 J-0.0548
G3 X1.898 Y0.8651 I0.0057 J0.0128
G2 X1.9049 Y0.8616 I-0.0224 J-0.0531
G1 X1.9038 Y0.86
G3 X1.9007 Y0.8618 I-0.0362 J-0.0585
G1 X1.9006
G3 X1.8785 Y0.8676 I-0.0227 J-0.0417
G3 X1.8563 Y0.8633 I-0.0015 J-0.0513
G3 X1.8559 Y0.8631 I0.0056 J-0.0128
G3 X1.8378 Y0.842 I0.0148 J-0.0311
G3 X1.8356 Y0.8269 I0.0478 J-0.0146
G3 X1.8393 Y0.8086 I0.043 J-0.0008
G3 X1.8395 Y0.8083 I0.0128 J0.0057
G3 X1.8545 Y0.7927 I0.0307 J0.0146
G3 X1.8663 Y0.7886 I0.0206 J0.0396
G3 X1.8716 Y0.7878 I0.0134 J0.0669
G1 Y0.7856
G3 X1.8611 Y0.7834 I0.0071 J-0.0602
G1 X1.861
G3 X1.8433 Y0.7732 I0.0137 J-0.0443
G3 X1.8323 Y0.7575 I0.0291 J-0.0321
G3 X1.8322 Y0.7573 I0.013 J-0.0053
G3 X1.8289 Y0.7394 I0.0446 J-0.0175
G3 X1.8321 Y0.72 I0.0551 J-0.0009
G3 X1.8322 Y0.7198 I0.0132 J0.0047
G3 X1.8467 Y0.7013 I0.0357 J0.0131
G3 X1.8469 Y0.7012 I0.0078 J0.0116
G3 X1.8603 Y0.6954 I0.0241 J0.037
G1 X1.8604
G3 X1.8769 Y0.6935 I0.0158 J0.0646
G3 X1.9024 Y0.6999 I-0.0002 J0.0546
G3 X1.9025 I-0.0066 J0.0124
G3 X1.9082 Y0.7033 I-0.0349 J0.0644
G1 X1.9103 Y0.7001
G0 Z0.125
G0 X1.7537 Y0.7262
G0 Z0.0625
G1 F4.0 Z-0.01
G2 F8.0 X1.7516 Y0.7176 I-0.0596 J0.01
G2 X1.7423 Y0.7031 I-0.033 J0.011
G2 X1.7255 Y0.694 I-0.0277 J0.0313
G2 X1.7039 Y0.6913 I-0.0206 J0.0759
G3 X1.7036 I-0.0002 J-0.014
G2 X1.6817 Y0.6941 I-0.0009 J0.0776
G2 X1.6643 Y0.7035 I0.0124 J0.044
G2 X1.6543 Y0.718 I0.024 J0.0272
G2 X1.6511 Y0.7371 I0.051 J0.0183
G2 X1.6533 Y0.7474 I0.0275 J-0.0004
G1 Y0.7475
G2 X1.6596 Y0.7586 I0.0523 J-0.0219
G3 X1.6598 Y0.7589 I-0.0114 J0.0082
G2 X1.6685 Y0.7692 I0.0544 J-0.0372
G2 X1.6782 Y0.7759 I0.0254 J-0.0262
G3 X1.6789 Y0.8008 I-0.006 J0.0126
G2 X1.6718 Y0.8064 I0.0137 J0.0249
G1 X1.6717
G2 X1.6651 Y0.815 I0.0411 J0.0384
G3 Y0.8151 I-0.0119 J-0.0074
G2 X1.6603 Y0.8247 I0.0414 J0.0265
G2 X1.6587 Y0.8335 I0.0246 J0.0091
G1 Y0.8336
G2 X1.6613 Y0.8484 I0.0399 J0.0006
G2 X1.6693 Y0.8596 I0.0272 J-0.011
G2 X1.684 Y0.8674 I0.0245 J-0.0282
G2 X1.7029 Y0.8698 I0.018 J-0.0665
G3 X1.7032 I0.0002 J0.014
G2 X1.7213 Y0.8673 I0.0006 J-0.0619
G2 X1.7361 Y0.8594 I-0.0121 J-0.0404
G3 X1.7362 Y0.8593 I0.0089 J0.0108
G2 X1.7445 Y0.8483 I-0.0187 J-0.0229
G2 X1.7473 Y0.8338 I-0.0342 J-0.014
G2 X1.7423 Y0.8164 I-0.0347 J0.0006
G3 X1.7421 Y0.816 I0.012 J-0.0072
G2 X1.7285 Y0.8012 I-0.0383 J0.0214
G3 X1.7293 Y0.7776 I0.0079 J-0.0116
G2 X1.7477 Y0.7595 I-0.0269 J-0.0458
G3 X1.7479 Y0.7592 I0.0119 J0.0073
G2 X1.7545 Y0.7371 I-0.0353 J-0.0227
G2 X1.7537 Y0.7262 I-0.0605 J-0.0009
G1 F4.0 X1.7461 Y0.7277
G3 F8.0 X1.747 Y0.7375 I-0.0429 J0.0086
G3 X1.7364 Y0.7686 I-0.0506 J0.0001
G3 X1.7362 Y0.7688 I-0.0111 J-0.0086
G3 X1.7135 Y0.7876 I-0.0576 J-0.0462
G3 X1.6999 Y0.7874 I-0.0066 J-0.0123
G3 X1.6811 Y0.7745 I0.0696 J-0.1214
G3 X1.6643 Y0.7551 I0.0436 J-0.0548
G3 X1.6641 Y0.7549 I0.0121 J-0.0071
G3 X1.6587 Y0.7349 I0.0366 J-0.0207
G3 X1.6724 Y0.7042 I0.0387 J-0.0011
G3 X1.6878 Y0.6957 I0.028 J0.0329
G1 X1.6879
G3 X1.7036 Y0.6935 I0.0154 J0.0516
G3 X1.7349 Y0.7062 I0.0012 J0.0422
G3 X1.7351 Y0.7064 I-0.01 J0.0098
G3 X1.7461 Y0.7277 I-0.0319 J0.03
G0 Z0.125
G0 X1.7109 Y0.7931
G0 Z0.0625
G1 F4.0 Z-0.01
G3 F8.0 X1.7278 Y0.8065 I-0.0292 J0.0542
G3 X1.7356 Y0.8175 I-0.0382 J0.0354
G3 X1.7397 Y0.8334 I-0.0312 J0.0166
G3 X1.7341 Y0.8537 I-0.0349 J0.0013
G3 X1.7335 Y0.8546 I-0.0117 J-0.0076
G3 X1.7143 Y0.8665 I-0.0252 J-0.0192
G3 X1.7033 Y0.8676 I-0.0108 J-0.051
G3 X1.6779 Y0.8592 I-0.0014 J-0.0383
G3 X1.6776 Y0.859 I0.0088 J-0.0109
G3 X1.6664 Y0.8335 I0.0206 J-0.0243
G3 X1.669 Y0.8198 I0.0408 J0.0009
G3 X1.6743 Y0.8092 I0.0584 J0.022
G3 X1.682 Y0.7992 I0.0481 J0.0291
G3 X1.6937 Y0.7907 I0.0293 J0.0282
G3 X1.7051 Y0.7904 I0.006 J0.0126
G3 X1.7109 Y0.7931 I-0.0234 J0.057
( Pocket4 )
S10000
G0 Z0.125
G0 X2.0932 Y1.0007
G0 Z0.0625
G1 F4.0 Z-0.01
G1 F8.0 X2.0893
G1 Y1.1304
G1 X2.0932
G1 Y1.0007
G1 F4.0 Y0.9915
G1 F8.0 X2.0801
G1 Y1.1396
G1 X2.1024
G1 Y0.9915
G1 X2.0932
G0 Z0.125
G0 X1.9973 Y1.1067
G0 Z0.0625
G1 F4.0 Z-0.01
G3 F8.0 X1.9972 Y1.1069 I-0.0546 J-0.02
G3 X1.9973 Y1.107 I-0.0167 J0.019
G1 Y1.1067
G1 F4.0 X1.9929 Y1.1051
G3 F8.0 X1.9916 Y1.1085 I-0.0503 J-0.0185
G3 X2.0012 Y1.126 I-0.0111 J0.0175
G1 Y1.1304
G1 X2.0019
G1 Y1.0007
G1 X1.998
G1 Y1.0575
G3 X1.9974 Y1.0782 I-0.3493 J0.0012
G3 X1.9939 Y1.102 I-0.1121 J-0.0044
G3 X1.9936 Y1.1032 I-0.02 J-0.0052
G3 X1.9929 Y1.1051 I-0.051 J-0.0166
G1 F4.0 X1.9843 Y1.1019
G3 F8.0 X1.9766 Y1.1152 I-0.0417 J-0.0153
G3 X1.992 Y1.126 I0.0039 J0.0108
G1 Y1.1396
G1 X2.0111
G1 Y0.9915
G1 X1.9888
G1 Y1.0575
G3 X1.9882 Y1.0778 I-0.3401 J0.0012
G3 X1.985 Y1.0997 I-0.1029 J-0.0039
G3 X1.9848 Y1.1004 I-0.0111 J-0.0029
G3 X1.9843 Y1.1019 I-0.0422 J-0.0138
G0 Z0.125
G0 X1.9129 Y1.1331
G0 Z0.0625
G1 F4.0 Z-0.01
G3 F8.0 X1.9127 Y1.133 I0.0263 J-0.0394
G3 X1.9125 Y1.1329 I0.0115 J-0.0172
G3 X1.8951 Y1.1096 I0.026 J-0.0376
G3 X1.895 Y1.1092 I0.0197 J-0.0065
G3 X1.8924 Y1.0964 I0.0616 J-0.0191
G3 X1.8916 Y1.0863 I0.1647 J-0.0183
G3 X1.8912 Y1.0673 I0.3683 J-0.0178
G1 Y1.0007
G1 X1.8873
G1 Y1.0863
G1 Y1.0864
G2 X1.8877 Y1.1003 I0.2033 J0.0007
G3 Y1.1005 I-0.0207 J0.0013
G2 X1.8894 Y1.1123 I0.074 J-0.0042
G2 X1.8943 Y1.123 I0.027 J-0.006
G2 X1.9042 Y1.1302 I0.0188 J-0.0155
G3 X1.9049 Y1.1305 I-0.0075 J0.0193
G2 X1.9129 Y1.1331 I0.0184 J-0.0427
G1 F4.0 X1.9108 Y1.1421
G3 F8.0 X1.9013 Y1.139 I0.0125 J-0.0542
G2 X1.9009 Y1.1388 I-0.0046 J0.0106
G3 X1.8871 Y1.1287 I0.0122 J-0.0313
G3 X1.8804 Y1.1143 I0.0293 J-0.0223
G3 X1.8785 Y1.101 I0.0814 J-0.0181
G1 Y1.1009
G3 X1.8781 Y1.0864 I0.2121 J-0.0138
G1 Y1.0863
G1 Y0.9915
G1 X1.9004
G1 Y1.0673
G2 X1.9008 Y1.0859 I0.3596 J0.0012
G2 X1.9016 Y1.0955 I0.1564 J-0.0078
G2 X1.9038 Y1.1065 I0.0551 J-0.0053
G2 Y1.1067 I0.011 J-0.0034
G2 X1.9177 Y1.1253 I0.0347 J-0.0114
G2 X1.9179 Y1.1254 I0.0065 J-0.0095
G2 X1.94 Y1.1318 I0.0213 J-0.0317
G2 X1.9675 Y1.1234 I0.0004 J-0.0478
G2 X1.9683 Y1.1229 I-0.0249 J-0.0368
G3 X1.9504 Y1.1373 I-0.0492 J-0.0428
G3 X1.9242 Y1.1435 I-0.0255 J-0.0492
G2 X1.924 I-0.0001 J0.0115
G3 X1.9108 Y1.1421 I-0.0007 J-0.0557
G0 Z0.125
G0 X1.8043 Y1.0996
G0 Z0.0625
G1 F4.0 Z-0.01
G2 F8.0 X1.806 Y1.0947 I-0.0518 J-0.0207
G2 X1.81 Y1.0657 I-0.0953 J-0.0278
G3 Y1.0651 I0.0207 J-0.0003
G2 X1.806 Y1.0363 I-0.0982 J-0.0013
G2 X1.7933 Y1.0139 I-0.0543 J0.0161
G2 X1.7836 Y1.0059 I-0.0375 J0.0353
G3 X1.79 Y1.0126 I-0.0361 J0.0409
G3 X1.7902 Y1.0129 I-0.0161 J0.013
G3 X1.7988 Y1.0284 I-0.0445 J0.0348
G3 X1.8027 Y1.0427 I-0.079 J0.029
G3 Y1.0429 I-0.0204 J0.0036
G3 X1.8048 Y1.0687 I-0.1441 J0.0245
G3 X1.8037 Y1.0865 I-0.1355 J0.0006
G3 X1.7986 Y1.1064 I-0.0805 J-0.0099
G3 Y1.1065 I-0.0193 J-0.0076
G3 X1.792 Y1.1184 I-0.0494 J-0.0198
G2 X1.7932 Y1.1171 I-0.0361 J-0.0363
G2 X1.8043 Y1.0996 I-0.0407 J-0.0382
G0 Z0.125
G0 X1.7065 Y1.1217
G0 Z0.0625
G1 F4.0 Z-0.01
G3 F8.0 X1.7026 Y1.1159 I0.0374 J-0.0296
G1 X1.7015 Y1.1161
G2 X1.7065 Y1.1217 I0.0339 J-0.0258
G0 Z0.125
G0 X1.6992 Y1.0221
G0 Z0.0625
G1 F4.0 Z-0.01
G3 F8.0 X1.7076 Y1.0088 I0.0483 J0.0213
G2 X1.6971 Y1.0218 I0.0306 J0.0358
G1 X1.6992 Y1.0221
G1 F4.0 X1.7076 Y1.0258
G3 F8.0 X1.7173 Y1.012 I0.0399 J0.0176
G3 X1.7177 Y1.0117 I0.008 J0.0083
G3 X1.7316 Y1.0037 I0.0259 J0.0294
G1 X1.7317
G3 X1.7462 Y1.0015 I0.0143 J0.0457
G3 X1.7829 Y1.0184 I0.0014 J0.0453
G3 X1.783 Y1.0185 I-0.0089 J0.0072
G3 X1.7902 Y1.0315 I-0.0372 J0.0291
G3 X1.7936 Y1.0443 I-0.0703 J0.0258
G1 X1.7937 Y1.0444
G3 X1.7956 Y1.0686 I-0.135 J0.0229
G3 X1.7946 Y1.0854 I-0.1263 J0.0006
G3 X1.7901 Y1.103 I-0.0714 J-0.0087
G1 X1.79 Y1.1031
G3 X1.7829 Y1.115 I-0.0409 J-0.0164
G1 Y1.1151
G3 X1.7664 Y1.1272 I-0.0338 J-0.0286
G3 X1.7662 I-0.0045 J-0.0106
G3 X1.7472 Y1.1309 I-0.0187 J-0.046
G3 X1.7192 Y1.1216 I-0.0015 J-0.0422
G3 X1.7189 Y1.1214 I0.0072 J-0.009
G3 X1.709 Y1.1083 I0.025 J-0.0293
G3 X1.7078 Y1.1056 I0.0479 J-0.0222
G1 X1.687 Y1.1094
G2 X1.6911 Y1.1173 I0.0731 J-0.0338
G2 X1.7048 Y1.1321 I0.0442 J-0.0269
G2 X1.7243 Y1.141 I0.0317 J-0.0443
G1 X1.7244
G2 X1.7476 Y1.1435 I0.0222 J-0.0958
G3 X1.7478 I0.0001 J0.0115
G2 X1.7766 Y1.1388 I0.0012 J-0.0832
G2 X1.7999 Y1.1234 I-0.0207 J-0.0567
G2 X1.8148 Y1.0973 I-0.0474 J-0.0445
G2 X1.8192 Y1.0656 I-0.1042 J-0.0303
G3 Y1.0653 I0.0115 J-0.0002
G2 X1.8148 Y1.0337 I-0.1074 J-0.0014
G2 X1.8 Y1.0077 I-0.0631 J0.0187
G2 X1.777 Y0.9924 I-0.0442 J0.0415
G2 X1.7486 Y0.9876 I-0.0273 J0.0761
G3 X1.7483 I-0.0002 J-0.0115
G2 X1.7237 Y0.9906 I-0.001 J0.0954
G2 X1.7029 Y1.0008 I0.0141 J0.0549
G2 X1.6886 Y1.018 I0.0353 J0.0438
G2 X1.6838 Y1.0288 I0.0764 J0.0406
G1 X1.7051 Y1.0325
G3 X1.7068 Y1.0279 I0.078 J0.0255
G3 X1.7076 Y1.0258 I0.0407 J0.0155
G0 Z0.125
G0 X2.0893 Y1.195
G0 Z0.0625
G1 F4.0 Z-0.01
G1 F8.0 Y1.1955
G1 X2.0932
G1 Y1.195
G1 X2.0893
G1 F4.0 Y1.1858
G1 F8.0 X2.0801
G1 Y1.2047
G1 X2.1024
G1 Y1.1858
G1 X2.0893
G0 Z0.125
G0 X2.1814 Y1.1863
G0 Z0.0625
G1 F4.0 Z-0.01
G1 F8.0 X2.1834
G3 X2.1828 Y1.1846 I0.0282 J-0.0101
G1 X2.1814 Y1.1863
G1 F4.0 X2.1743 Y1.1805
G1 F8.0 X2.1694 Y1.1865
G1 Y1.1955
G1 X2.204
G3 X2.1955 Y1.1632 I0.0076 J-0.0193
G1 X2.3149 Y1.0157
G1 Y1.0007
G1 X2.2861
G3 X2.2942 Y1.0328 I-0.008 J0.0191
G1 X2.1743 Y1.1805
G1 F4.0 X2.1671 Y1.1747
G1 F8.0 X2.1602 Y1.1832
G1 Y1.2047
G1 X2.3101
G1 Y1.1878
G1 X2.2116
G3 X2.2026 Y1.169 I0.0 J-0.0115
G1 X2.3241 Y1.019
G1 Y0.9915
G1 X2.1552
G1 Y1.0083
G1 X2.2781
G3 X2.287 Y1.027 I0.0 J0.0115
G1 X2.1671 Y1.1747
( Engrave1 )
S10000
G0 Z0.125
G0 X0.0 Y3.0
G0 Z0.0625
G1 F4.0 Z-0.035
G1 F8.0 X4.0
G1 F4.0 Z-0.07
G1 F8.0 X0.0
G1 F4.0 Z-0.105
G1 F8.0 X4.0
G1 F4.0 Z-0.126
G1 F8.0 X0.0
G0 Z0.125
M5
M30
