( Made using CamBam - http://www.cambam.co.uk )
( 031-gallium 1/10/2014 4:36:27 PM )
( T0 : 0.0313 )
G20 G90 G91.1 G64 G40
G0 Z0.125
( T0 : 0.0313 )
T0 M6
( Pocket1 )
G17
M3 S10000
G0 X0.7531 Y2.75
G0 Z0.0625
G1 F4.0 Z-0.0313
G2 F8.0 X0.7484 Y2.7473 I-0.0031 J0.0
G2 Y2.7527 I0.0016 J0.0027
G2 X0.7531 Y2.75 I0.0016 J-0.0027
G1 F4.0 X0.7594
G2 F8.0 X0.7453 Y2.7419 I-0.0094 J0.0
G2 Y2.7581 I0.0047 J0.0081
G2 X0.7594 Y2.75 I0.0047 J-0.0081
G1 F4.0 X0.7719
G2 F8.0 X0.7391 Y2.7311 I-0.0219 J0.0
G2 Y2.7689 I0.0109 J0.0189
G2 X0.7719 Y2.75 I0.0109 J-0.0189
G1 F4.0 X0.7844
G2 F8.0 X0.7328 Y2.7202 I-0.0344 J0.0
G2 Y2.7798 I0.0172 J0.0298
G2 X0.7844 Y2.75 I0.0172 J-0.0298
G1 F4.0 X0.7969
G2 F8.0 X0.7266 Y2.7094 I-0.0469 J0.0
G2 Y2.7906 I0.0234 J0.0406
G2 X0.7969 Y2.75 I0.0234 J-0.0406
G0 Z0.125
G0 X0.7531
G0 Z0.0312
G1 F4.0 Z-0.0625
G2 F8.0 X0.7484 Y2.7473 I-0.0031 J0.0
G2 Y2.7527 I0.0016 J0.0027
G2 X0.7531 Y2.75 I0.0016 J-0.0027
G1 F4.0 X0.7594
G2 F8.0 X0.7453 Y2.7419 I-0.0094 J0.0
G2 Y2.7581 I0.0047 J0.0081
G2 X0.7594 Y2.75 I0.0047 J-0.0081
G1 F4.0 X0.7719
G2 F8.0 X0.7391 Y2.7311 I-0.0219 J0.0
G2 Y2.7689 I0.0109 J0.0189
G2 X0.7719 Y2.75 I0.0109 J-0.0189
G1 F4.0 X0.7844
G2 F8.0 X0.7328 Y2.7202 I-0.0344 J0.0
G2 Y2.7798 I0.0172 J0.0298
G2 X0.7844 Y2.75 I0.0172 J-0.0298
G1 F4.0 X0.7969
G2 F8.0 X0.7266 Y2.7094 I-0.0469 J0.0
G2 Y2.7906 I0.0234 J0.0406
G2 X0.7969 Y2.75 I0.0234 J-0.0406
G0 Z0.125
G0 X0.7531
G0 Z0.0
G1 F4.0 Z-0.0938
G2 F8.0 X0.7484 Y2.7473 I-0.0031 J0.0
G2 Y2.7527 I0.0016 J0.0027
G2 X0.7531 Y2.75 I0.0016 J-0.0027
G1 F4.0 X0.7594
G2 F8.0 X0.7453 Y2.7419 I-0.0094 J0.0
G2 Y2.7581 I0.0047 J0.0081
G2 X0.7594 Y2.75 I0.0047 J-0.0081
G1 F4.0 X0.7719
G2 F8.0 X0.7391 Y2.7311 I-0.0219 J0.0
G2 Y2.7689 I0.0109 J0.0189
G2 X0.7719 Y2.75 I0.0109 J-0.0189
G1 F4.0 X0.7844
G2 F8.0 X0.7328 Y2.7202 I-0.0344 J0.0
G2 Y2.7798 I0.0172 J0.0298
G2 X0.7844 Y2.75 I0.0172 J-0.0298
G1 F4.0 X0.7969
G2 F8.0 X0.7266 Y2.7094 I-0.0469 J0.0
G2 Y2.7906 I0.0234 J0.0406
G2 X0.7969 Y2.75 I0.0234 J-0.0406
G0 Z0.125
G0 X0.7531
G0 Z-0.0313
G1 F4.0 Z-0.125
G2 F8.0 X0.7484 Y2.7473 I-0.0031 J0.0
G2 Y2.7527 I0.0016 J0.0027
G2 X0.7531 Y2.75 I0.0016 J-0.0027
G1 F4.0 X0.7594
G2 F8.0 X0.7453 Y2.7419 I-0.0094 J0.0
G2 Y2.7581 I0.0047 J0.0081
G2 X0.7594 Y2.75 I0.0047 J-0.0081
G1 F4.0 X0.7719
G2 F8.0 X0.7391 Y2.7311 I-0.0219 J0.0
G2 Y2.7689 I0.0109 J0.0189
G2 X0.7719 Y2.75 I0.0109 J-0.0189
G1 F4.0 X0.7844
G2 F8.0 X0.7328 Y2.7202 I-0.0344 J0.0
G2 Y2.7798 I0.0172 J0.0298
G2 X0.7844 Y2.75 I0.0172 J-0.0298
G1 F4.0 X0.7969
G2 F8.0 X0.7266 Y2.7094 I-0.0469 J0.0
G2 Y2.7906 I0.0234 J0.0406
G2 X0.7969 Y2.75 I0.0234 J-0.0406
G0 Z0.125
G0 X3.2469
G0 Z0.0625
G1 F4.0 Z-0.0313
G2 F8.0 X3.2484 Y2.7527 I0.0031 J0.0
G2 X3.2531 Y2.75 I0.0016 J-0.0027
G2 X3.2484 Y2.7473 I-0.0031 J0.0
G2 X3.2469 Y2.75 I0.0016 J0.0027
G1 F4.0 X3.2406
G2 F8.0 X3.2453 Y2.7581 I0.0094 J0.0
G2 X3.2594 Y2.75 I0.0047 J-0.0081
G2 X3.2453 Y2.7419 I-0.0094 J0.0
G2 X3.2406 Y2.75 I0.0047 J0.0081
G1 F4.0 X3.2281
G2 F8.0 X3.2391 Y2.7689 I0.0219 J0.0
G2 X3.2719 Y2.75 I0.0109 J-0.0189
G2 X3.2391 Y2.7311 I-0.0219 J0.0
G2 X3.2281 Y2.75 I0.0109 J0.0189
G1 F4.0 X3.2156
G2 F8.0 X3.2328 Y2.7798 I0.0344 J0.0
G2 X3.2844 Y2.75 I0.0172 J-0.0298
G2 X3.2328 Y2.7202 I-0.0344 J0.0
G2 X3.2156 Y2.75 I0.0172 J0.0298
G1 F4.0 X3.2031
G2 F8.0 X3.2266 Y2.7906 I0.0469 J0.0
G2 X3.2969 Y2.75 I0.0234 J-0.0406
G2 X3.2266 Y2.7094 I-0.0469 J0.0
G2 X3.2031 Y2.75 I0.0234 J0.0406
G0 Z0.125
G0 X3.2469
G0 Z0.0312
G1 F4.0 Z-0.0625
G2 F8.0 X3.2484 Y2.7527 I0.0031 J0.0
G2 X3.2531 Y2.75 I0.0016 J-0.0027
G2 X3.2484 Y2.7473 I-0.0031 J0.0
G2 X3.2469 Y2.75 I0.0016 J0.0027
G1 F4.0 X3.2406
G2 F8.0 X3.2453 Y2.7581 I0.0094 J0.0
G2 X3.2594 Y2.75 I0.0047 J-0.0081
G2 X3.2453 Y2.7419 I-0.0094 J0.0
G2 X3.2406 Y2.75 I0.0047 J0.0081
G1 F4.0 X3.2281
G2 F8.0 X3.2391 Y2.7689 I0.0219 J0.0
G2 X3.2719 Y2.75 I0.0109 J-0.0189
G2 X3.2391 Y2.7311 I-0.0219 J0.0
G2 X3.2281 Y2.75 I0.0109 J0.0189
G1 F4.0 X3.2156
G2 F8.0 X3.2328 Y2.7798 I0.0344 J0.0
G2 X3.2844 Y2.75 I0.0172 J-0.0298
G2 X3.2328 Y2.7202 I-0.0344 J0.0
G2 X3.2156 Y2.75 I0.0172 J0.0298
G1 F4.0 X3.2031
G2 F8.0 X3.2266 Y2.7906 I0.0469 J0.0
G2 X3.2969 Y2.75 I0.0234 J-0.0406
G2 X3.2266 Y2.7094 I-0.0469 J0.0
G2 X3.2031 Y2.75 I0.0234 J0.0406
G0 Z0.125
G0 X3.2469
G0 Z0.0
G1 F4.0 Z-0.0938
G2 F8.0 X3.2484 Y2.7527 I0.0031 J0.0
G2 X3.2531 Y2.75 I0.0016 J-0.0027
G2 X3.2484 Y2.7473 I-0.0031 J0.0
G2 X3.2469 Y2.75 I0.0016 J0.0027
G1 F4.0 X3.2406
G2 F8.0 X3.2453 Y2.7581 I0.0094 J0.0
G2 X3.2594 Y2.75 I0.0047 J-0.0081
G2 X3.2453 Y2.7419 I-0.0094 J0.0
G2 X3.2406 Y2.75 I0.0047 J0.0081
G1 F4.0 X3.2281
G2 F8.0 X3.2391 Y2.7689 I0.0219 J0.0
G2 X3.2719 Y2.75 I0.0109 J-0.0189
G2 X3.2391 Y2.7311 I-0.0219 J0.0
G2 X3.2281 Y2.75 I0.0109 J0.0189
G1 F4.0 X3.2156
G2 F8.0 X3.2328 Y2.7798 I0.0344 J0.0
G2 X3.2844 Y2.75 I0.0172 J-0.0298
G2 X3.2328 Y2.7202 I-0.0344 J0.0
G2 X3.2156 Y2.75 I0.0172 J0.0298
G1 F4.0 X3.2031
G2 F8.0 X3.2266 Y2.7906 I0.0469 J0.0
G2 X3.2969 Y2.75 I0.0234 J-0.0406
G2 X3.2266 Y2.7094 I-0.0469 J0.0
G2 X3.2031 Y2.75 I0.0234 J0.0406
G0 Z0.125
G0 X3.2469
G0 Z-0.0313
G1 F4.0 Z-0.125
G2 F8.0 X3.2484 Y2.7527 I0.0031 J0.0
G2 X3.2531 Y2.75 I0.0016 J-0.0027
G2 X3.2484 Y2.7473 I-0.0031 J0.0
G2 X3.2469 Y2.75 I0.0016 J0.0027
G1 F4.0 X3.2406
G2 F8.0 X3.2453 Y2.7581 I0.0094 J0.0
G2 X3.2594 Y2.75 I0.0047 J-0.0081
G2 X3.2453 Y2.7419 I-0.0094 J0.0
G2 X3.2406 Y2.75 I0.0047 J0.0081
G1 F4.0 X3.2281
G2 F8.0 X3.2391 Y2.7689 I0.0219 J0.0
G2 X3.2719 Y2.75 I0.0109 J-0.0189
G2 X3.2391 Y2.7311 I-0.0219 J0.0
G2 X3.2281 Y2.75 I0.0109 J0.0189
G1 F4.0 X3.2156
G2 F8.0 X3.2328 Y2.7798 I0.0344 J0.0
G2 X3.2844 Y2.75 I0.0172 J-0.0298
G2 X3.2328 Y2.7202 I-0.0344 J0.0
G2 X3.2156 Y2.75 I0.0172 J0.0298
G1 F4.0 X3.2031
G2 F8.0 X3.2266 Y2.7906 I0.0469 J0.0
G2 X3.2969 Y2.75 I0.0234 J-0.0406
G2 X3.2266 Y2.7094 I-0.0469 J0.0
G2 X3.2031 Y2.75 I0.0234 J0.0406
G0 Z0.125
G0 X3.2499 Y0.2531
G0 Z0.0625
G1 F4.0 Z-0.0313
G2 F8.0 X3.2531 Y0.25 I0.0001 J-0.0031
G2 X3.2484 Y0.2473 I-0.0031 J0.0
G2 Y0.2527 I0.0016 J0.0027
G2 X3.2499 Y0.2531 I0.0016 J-0.0027
G1 F4.0 X3.2498 Y0.2594
G2 F8.0 X3.2594 Y0.25 I0.0002 J-0.0094
G2 X3.2453 Y0.2419 I-0.0094 J0.0
G2 Y0.2581 I0.0047 J0.0081
G2 X3.2498 Y0.2594 I0.0047 J-0.0081
G1 F4.0 X3.2496 Y0.2719
G2 F8.0 X3.2719 Y0.25 I0.0004 J-0.0219
G2 X3.2391 Y0.2311 I-0.0219 J0.0
G2 Y0.2689 I0.0109 J0.0189
G2 X3.2496 Y0.2719 I0.0109 J-0.0189
G1 F4.0 X3.2494 Y0.2844
G2 F8.0 X3.2844 Y0.25 I0.0006 J-0.0344
G2 X3.2328 Y0.2202 I-0.0344 J0.0
G2 Y0.2798 I0.0172 J0.0298
G2 X3.2494 Y0.2844 I0.0172 J-0.0298
G1 F4.0 X3.2491 Y0.2969
G2 F8.0 X3.2969 Y0.25 I0.0009 J-0.0469
G2 X3.2266 Y0.2094 I-0.0469 J0.0
G2 Y0.2906 I0.0234 J0.0406
G2 X3.2491 Y0.2969 I0.0234 J-0.0406
G0 Z0.125
G0 X3.2499 Y0.2531
G0 Z0.0312
G1 F4.0 Z-0.0625
G2 F8.0 X3.2531 Y0.25 I0.0001 J-0.0031
G2 X3.2484 Y0.2473 I-0.0031 J0.0
G2 Y0.2527 I0.0016 J0.0027
G2 X3.2499 Y0.2531 I0.0016 J-0.0027
G1 F4.0 X3.2498 Y0.2594
G2 F8.0 X3.2594 Y0.25 I0.0002 J-0.0094
G2 X3.2453 Y0.2419 I-0.0094 J0.0
G2 Y0.2581 I0.0047 J0.0081
G2 X3.2498 Y0.2594 I0.0047 J-0.0081
G1 F4.0 X3.2496 Y0.2719
G2 F8.0 X3.2719 Y0.25 I0.0004 J-0.0219
G2 X3.2391 Y0.2311 I-0.0219 J0.0
G2 Y0.2689 I0.0109 J0.0189
G2 X3.2496 Y0.2719 I0.0109 J-0.0189
G1 F4.0 X3.2494 Y0.2844
G2 F8.0 X3.2844 Y0.25 I0.0006 J-0.0344
G2 X3.2328 Y0.2202 I-0.0344 J0.0
G2 Y0.2798 I0.0172 J0.0298
G2 X3.2494 Y0.2844 I0.0172 J-0.0298
G1 F4.0 X3.2491 Y0.2969
G2 F8.0 X3.2969 Y0.25 I0.0009 J-0.0469
G2 X3.2266 Y0.2094 I-0.0469 J0.0
G2 Y0.2906 I0.0234 J0.0406
G2 X3.2491 Y0.2969 I0.0234 J-0.0406
G0 Z0.125
G0 X3.2499 Y0.2531
G0 Z0.0
G1 F4.0 Z-0.0938
G2 F8.0 X3.2531 Y0.25 I0.0001 J-0.0031
G2 X3.2484 Y0.2473 I-0.0031 J0.0
G2 Y0.2527 I0.0016 J0.0027
G2 X3.2499 Y0.2531 I0.0016 J-0.0027
G1 F4.0 X3.2498 Y0.2594
G2 F8.0 X3.2594 Y0.25 I0.0002 J-0.0094
G2 X3.2453 Y0.2419 I-0.0094 J0.0
G2 Y0.2581 I0.0047 J0.0081
G2 X3.2498 Y0.2594 I0.0047 J-0.0081
G1 F4.0 X3.2496 Y0.2719
G2 F8.0 X3.2719 Y0.25 I0.0004 J-0.0219
G2 X3.2391 Y0.2311 I-0.0219 J0.0
G2 Y0.2689 I0.0109 J0.0189
G2 X3.2496 Y0.2719 I0.0109 J-0.0189
G1 F4.0 X3.2494 Y0.2844
G2 F8.0 X3.2844 Y0.25 I0.0006 J-0.0344
G2 X3.2328 Y0.2202 I-0.0344 J0.0
G2 Y0.2798 I0.0172 J0.0298
G2 X3.2494 Y0.2844 I0.0172 J-0.0298
G1 F4.0 X3.2491 Y0.2969
G2 F8.0 X3.2969 Y0.25 I0.0009 J-0.0469
G2 X3.2266 Y0.2094 I-0.0469 J0.0
G2 Y0.2906 I0.0234 J0.0406
G2 X3.2491 Y0.2969 I0.0234 J-0.0406
G0 Z0.125
G0 X3.2499 Y0.2531
G0 Z-0.0313
G1 F4.0 Z-0.125
G2 F8.0 X3.2531 Y0.25 I0.0001 J-0.0031
G2 X3.2484 Y0.2473 I-0.0031 J0.0
G2 Y0.2527 I0.0016 J0.0027
G2 X3.2499 Y0.2531 I0.0016 J-0.0027
G1 F4.0 X3.2498 Y0.2594
G2 F8.0 X3.2594 Y0.25 I0.0002 J-0.0094
G2 X3.2453 Y0.2419 I-0.0094 J0.0
G2 Y0.2581 I0.0047 J0.0081
G2 X3.2498 Y0.2594 I0.0047 J-0.0081
G1 F4.0 X3.2496 Y0.2719
G2 F8.0 X3.2719 Y0.25 I0.0004 J-0.0219
G2 X3.2391 Y0.2311 I-0.0219 J0.0
G2 Y0.2689 I0.0109 J0.0189
G2 X3.2496 Y0.2719 I0.0109 J-0.0189
G1 F4.0 X3.2494 Y0.2844
G2 F8.0 X3.2844 Y0.25 I0.0006 J-0.0344
G2 X3.2328 Y0.2202 I-0.0344 J0.0
G2 Y0.2798 I0.0172 J0.0298
G2 X3.2494 Y0.2844 I0.0172 J-0.0298
G1 F4.0 X3.2491 Y0.2969
G2 F8.0 X3.2969 Y0.25 I0.0009 J-0.0469
G2 X3.2266 Y0.2094 I-0.0469 J0.0
G2 Y0.2906 I0.0234 J0.0406
G2 X3.2491 Y0.2969 I0.0234 J-0.0406
G0 Z0.125
G0 X0.7531 Y0.2501
G0 Z0.0625
G1 F4.0 Z-0.0313
G1 F8.0 Y0.25
G2 X0.7484 Y0.2473 I-0.0031 J0.0
G2 Y0.2527 I0.0016 J0.0027
G2 X0.7531 Y0.2501 I0.0016 J-0.0027
G1 F4.0 X0.7594 Y0.2502
G2 F8.0 Y0.25 I-0.0094 J-0.0002
G2 X0.7453 Y0.2419 I-0.0094 J0.0
G2 Y0.2581 I0.0047 J0.0081
G2 X0.7594 Y0.2502 I0.0047 J-0.0081
G1 F4.0 X0.7719 Y0.2504
G2 F8.0 Y0.25 I-0.0219 J-0.0004
G2 X0.7391 Y0.2311 I-0.0219 J0.0
G2 Y0.2689 I0.0109 J0.0189
G2 X0.7719 Y0.2504 I0.0109 J-0.0189
G1 F4.0 X0.7844 Y0.2506
G2 F8.0 Y0.25 I-0.0344 J-0.0006
G2 X0.7328 Y0.2202 I-0.0344 J0.0
G2 Y0.2798 I0.0172 J0.0298
G2 X0.7844 Y0.2506 I0.0172 J-0.0298
G1 F4.0 X0.7969 Y0.2509
G2 F8.0 Y0.25 I-0.0469 J-0.0009
G2 X0.7266 Y0.2094 I-0.0469 J0.0
G2 Y0.2906 I0.0234 J0.0406
G2 X0.7969 Y0.2509 I0.0234 J-0.0406
G0 Z0.125
G0 X0.7531 Y0.2501
G0 Z0.0312
G1 F4.0 Z-0.0625
G1 F8.0 Y0.25
G2 X0.7484 Y0.2473 I-0.0031 J0.0
G2 Y0.2527 I0.0016 J0.0027
G2 X0.7531 Y0.2501 I0.0016 J-0.0027
G1 F4.0 X0.7594 Y0.2502
G2 F8.0 Y0.25 I-0.0094 J-0.0002
G2 X0.7453 Y0.2419 I-0.0094 J0.0
G2 Y0.2581 I0.0047 J0.0081
G2 X0.7594 Y0.2502 I0.0047 J-0.0081
G1 F4.0 X0.7719 Y0.2504
G2 F8.0 Y0.25 I-0.0219 J-0.0004
G2 X0.7391 Y0.2311 I-0.0219 J0.0
G2 Y0.2689 I0.0109 J0.0189
G2 X0.7719 Y0.2504 I0.0109 J-0.0189
G1 F4.0 X0.7844 Y0.2506
G2 F8.0 Y0.25 I-0.0344 J-0.0006
G2 X0.7328 Y0.2202 I-0.0344 J0.0
G2 Y0.2798 I0.0172 J0.0298
G2 X0.7844 Y0.2506 I0.0172 J-0.0298
G1 F4.0 X0.7969 Y0.2509
G2 F8.0 Y0.25 I-0.0469 J-0.0009
G2 X0.7266 Y0.2094 I-0.0469 J0.0
G2 Y0.2906 I0.0234 J0.0406
G2 X0.7969 Y0.2509 I0.0234 J-0.0406
G0 Z0.125
G0 X0.7531 Y0.2501
G0 Z0.0
G1 F4.0 Z-0.0938
G1 F8.0 Y0.25
G2 X0.7484 Y0.2473 I-0.0031 J0.0
G2 Y0.2527 I0.0016 J0.0027
G2 X0.7531 Y0.2501 I0.0016 J-0.0027
G1 F4.0 X0.7594 Y0.2502
G2 F8.0 Y0.25 I-0.0094 J-0.0002
G2 X0.7453 Y0.2419 I-0.0094 J0.0
G2 Y0.2581 I0.0047 J0.0081
G2 X0.7594 Y0.2502 I0.0047 J-0.0081
G1 F4.0 X0.7719 Y0.2504
G2 F8.0 Y0.25 I-0.0219 J-0.0004
G2 X0.7391 Y0.2311 I-0.0219 J0.0
G2 Y0.2689 I0.0109 J0.0189
G2 X0.7719 Y0.2504 I0.0109 J-0.0189
G1 F4.0 X0.7844 Y0.2506
G2 F8.0 Y0.25 I-0.0344 J-0.0006
G2 X0.7328 Y0.2202 I-0.0344 J0.0
G2 Y0.2798 I0.0172 J0.0298
G2 X0.7844 Y0.2506 I0.0172 J-0.0298
G1 F4.0 X0.7969 Y0.2509
G2 F8.0 Y0.25 I-0.0469 J-0.0009
G2 X0.7266 Y0.2094 I-0.0469 J0.0
G2 Y0.2906 I0.0234 J0.0406
G2 X0.7969 Y0.2509 I0.0234 J-0.0406
G0 Z0.125
G0 X0.7531 Y0.2501
G0 Z-0.0313
G1 F4.0 Z-0.125
G1 F8.0 Y0.25
G2 X0.7484 Y0.2473 I-0.0031 J0.0
G2 Y0.2527 I0.0016 J0.0027
G2 X0.7531 Y0.2501 I0.0016 J-0.0027
G1 F4.0 X0.7594 Y0.2502
G2 F8.0 Y0.25 I-0.0094 J-0.0002
G2 X0.7453 Y0.2419 I-0.0094 J0.0
G2 Y0.2581 I0.0047 J0.0081
G2 X0.7594 Y0.2502 I0.0047 J-0.0081
G1 F4.0 X0.7719 Y0.2504
G2 F8.0 Y0.25 I-0.0219 J-0.0004
G2 X0.7391 Y0.2311 I-0.0219 J0.0
G2 Y0.2689 I0.0109 J0.0189
G2 X0.7719 Y0.2504 I0.0109 J-0.0189
G1 F4.0 X0.7844 Y0.2506
G2 F8.0 Y0.25 I-0.0344 J-0.0006
G2 X0.7328 Y0.2202 I-0.0344 J0.0
G2 Y0.2798 I0.0172 J0.0298
G2 X0.7844 Y0.2506 I0.0172 J-0.0298
G1 F4.0 X0.7969 Y0.2509
G2 F8.0 Y0.25 I-0.0469 J-0.0009
G2 X0.7266 Y0.2094 I-0.0469 J0.0
G2 Y0.2906 I0.0234 J0.0406
G2 X0.7969 Y0.2509 I0.0234 J-0.0406
( Pocket3 )
S10000
G0 Z0.125
G0 X2.0666 Y1.8321
G0 Z0.0625
G1 F4.0 Z-0.02
G3 F8.0 X2.0546 Y1.8133 I0.1912 J-0.1349
G1 X2.0563 Y1.8411
G3 X2.0666 Y1.8321 I0.0316 J0.0256
G1 F4.0 X2.0731 Y1.8428
G3 F8.0 X2.0872 Y1.8386 I0.0148 J0.0239
G3 X2.0653 Y1.8069 I0.1705 J-0.1413
G3 X2.046 Y1.7684 I0.324 J-0.1863
G3 Y1.7683 I0.0258 J-0.0111
G3 X2.0381 Y1.749 I0.6187 J-0.2633
G1 X2.0465 Y1.8857
G1 X2.0629 Y1.8539
G3 X2.0731 Y1.8428 I0.025 J0.0129
G0 Z0.125
G0 X2.0562 Y1.564
G0 Z0.0625
G1 F4.0 Z-0.02
G3 F8.0 X2.0523 Y1.543 I0.0526 J-0.0204
G1 Y1.4904
G3 X2.0558 Y1.4526 I0.186 J-0.002
G3 X2.0418 Y1.4461 I0.0098 J-0.0394
G1 Y1.5396
G3 X2.0377 Y1.564 I-0.0609 J0.0023
G1 X2.0562
G1 F4.0 X2.0678 Y1.5595
G3 F8.0 X2.0648 Y1.5431 I0.0409 J-0.0159
G1 Y1.4903
G3 X2.0715 Y1.4407 I0.1735 J-0.0019
G3 X2.0383 Y1.4197 I-0.0059 J-0.0275
G2 X2.0293 Y1.3832 I-2.3678 J0.5626
G1 Y1.5398
G3 X2.0148 Y1.5765 I-0.0484 J0.002
G1 X2.0797
G3 X2.0678 Y1.5595 I0.0291 J-0.0329
G0 Z0.125
G0 X2.4312 Y1.5402
G0 Z0.0625
G1 F4.0 Z-0.02
G3 F8.0 X2.4348 Y1.6175 I-0.752 J0.0737
G3 X2.4311 Y1.6971 I-0.7918 J0.0037
G2 X2.4337 Y1.6865 I-0.2398 J-0.0649
G2 X2.441 Y1.6185 I-0.3005 J-0.0665
G3 Y1.6174 I0.0531 J-0.0003
G2 X2.4312 Y1.5402 I-0.2741 J-0.0043
G1 F4.0 X2.4432 Y1.5369
G2 F8.0 X2.4217 Y1.4818 I-0.2763 J0.0763
G2 X2.3958 Y1.4424 I-0.2019 J0.1042
G3 X2.3999 Y1.4529 I-0.2321 J0.096
G3 X2.4001 Y1.4534 I-0.0382 J0.0138
G3 X2.4183 Y1.5373 I-0.3404 J0.1178
G3 X2.4223 Y1.6175 I-0.7391 J0.0766
G3 X2.4184 Y1.6991 I-0.7793 J0.0037
G3 X2.4002 Y1.7845 I-0.3653 J-0.0332
G3 X2.3999 Y1.7852 I-0.0384 J-0.0131
G3 X2.3968 Y1.7934 I-0.2317 J-0.0834
G2 X2.4217 Y1.7547 I-0.1924 J-0.1513
G3 X2.4219 Y1.7543 I0.0361 J0.0187
G2 X2.4459 Y1.6892 I-0.2306 J-0.1221
G2 X2.4535 Y1.6185 I-0.3127 J-0.0692
G3 Y1.6176 I0.0406 J-0.0002
G2 X2.4432 Y1.5369 I-0.2866 J-0.0045
G1 F4.0 X2.4553 Y1.5335
G2 F8.0 X2.4328 Y1.4761 I-0.2884 J0.0796
G2 X2.3441 Y1.381 I-0.213 J0.1099
G2 X2.3376 Y1.3773 I-0.1206 J0.2006
G3 X2.3638 Y1.4082 I-0.1077 J0.1178
G3 X2.3882 Y1.4571 I-0.2 J0.1301
G3 X2.3883 Y1.4575 I-0.0264 J0.0096
G3 X2.4059 Y1.5385 I-0.3286 J0.1137
G3 X2.4098 Y1.6175 I-0.7267 J0.0754
G3 X2.4059 Y1.6979 I-0.7668 J0.0037
G3 X2.3883 Y1.7805 I-0.3529 J-0.032
G3 X2.3882 Y1.7809 I-0.0266 J-0.0091
G3 X2.3627 Y1.8316 I-0.2199 J-0.0792
G1 X2.3626
G3 X2.3338 Y1.8645 I-0.1412 J-0.0944
G2 X2.3425 Y1.8592 I-0.1257 J-0.212
G3 X2.3427 Y1.859 I0.0153 J0.0236
G2 X2.4328 Y1.7604 I-0.1383 J-0.2169
G3 X2.433 Y1.7602 I0.025 J0.0129
G2 X2.4581 Y1.692 I-0.2417 J-0.128
G2 X2.466 Y1.6184 I-0.3249 J-0.072
G3 Y1.6178 I0.0281 J-0.0001
G2 X2.4553 Y1.5335 I-0.2991 J-0.0047
G1 F4.0 X2.4673 Y1.5302
G2 F8.0 X2.4439 Y1.4704 I-0.3004 J0.0829
G2 X2.3505 Y1.3703 I-0.2242 J0.1157
G2 X2.222 Y1.3351 I-0.1271 J0.2113
G3 X2.2216 I-0.0001 J-0.0156
G2 X2.1356 Y1.3572 I-0.0028 J0.1675
G2 X2.0799 Y1.4196 I0.0703 J0.1188
G3 X2.0504 Y1.4168 I-0.0143 J-0.0064
G2 X2.0288 Y1.3323 I-2.38 J0.5655
G1 X2.0168
G1 Y1.5401
G3 X2.0057 Y1.5679 I-0.0359 J0.0017
G3 X2.0039 Y1.5694 I-0.0108 J-0.0113
G3 X1.9849 Y1.5766 I-0.024 J-0.0342
G3 X1.9699 Y1.5777 I-0.0142 J-0.0974
G1 X1.9449
G1 Y1.589
G1 X2.1668
G1 Y1.5777
G1 X2.127
G3 X2.1116 Y1.5768 I-0.0009 J-0.1163
G3 X2.0923 Y1.5703 I0.0045 J-0.0458
G3 X2.0921 Y1.5702 I0.0081 J-0.0134
G3 X2.0773 Y1.5432 I0.0166 J-0.0266
G1 Y1.4902
G3 X2.0861 Y1.4359 I0.161 J-0.0019
G3 X2.0862 Y1.4357 I0.0148 J0.0051
G3 X2.1162 Y1.3878 I0.1234 J0.0439
G3 X2.1163 Y1.3877 I0.0111 J0.011
G3 X2.1682 Y1.3565 I0.0888 J0.0889
G1 X2.1683 Y1.3564
G3 X2.2253 Y1.3484 I0.0547 J0.1805
G3 X2.3159 Y1.3758 I0.0031 J0.1534
G3 X2.3162 Y1.3759 I-0.0089 J0.0128
G3 X2.3533 Y1.4151 I-0.0863 J0.1191
G3 X2.3764 Y1.4614 I-0.1895 J0.1233
G3 X2.3765 Y1.4616 I-0.0147 J0.0053
G3 X2.3934 Y1.5397 I-0.3167 J0.1096
G3 X2.3973 Y1.6175 I-0.7143 J0.0742
G3 X2.3935 Y1.6967 I-0.7543 J0.0037
G3 X2.3765 Y1.7765 I-0.3405 J-0.0308
G3 X2.3764 Y1.7767 I-0.0148 J-0.0051
G3 X2.3523 Y1.8246 I-0.2082 J-0.0749
G3 X2.3139 Y1.8645 I-0.1308 J-0.0875
G1 X2.3138
G3 X2.221 Y1.8941 I-0.0913 J-0.1262
G3 X2.1539 Y1.8778 I-0.0005 J-0.1445
G3 X2.1537 Y1.8777 I0.0072 J-0.0139
G3 X2.1011 Y1.8356 I0.0873 J-0.163
G3 X2.0762 Y1.8006 I0.1566 J-0.1383
G3 X2.0575 Y1.7634 I0.3132 J-0.1801
G3 X2.0336 Y1.698 I0.6072 J-0.2584
G1 X2.0225
G1 X2.0354 Y1.9081
G1 X2.0491
G1 X2.074 Y1.8596
G3 X2.0986 Y1.8553 I0.0139 J0.0071
G2 X2.1627 Y1.8963 I0.1419 J-0.1514
G2 X2.2285 Y1.9081 I0.0653 J-0.1745
G2 X2.2912 Y1.8978 I-0.0005 J-0.1987
G2 X2.3493 Y1.8696 I-0.083 J-0.2453
G3 X2.3494 I0.0085 J0.0131
G2 X2.4439 Y1.7662 I-0.145 J-0.2275
G3 X2.444 Y1.766 I0.0139 J0.0072
G2 X2.4703 Y1.6947 I-0.2527 J-0.1338
G2 X2.4785 Y1.6184 I-0.3371 J-0.0747
G3 Y1.618 I0.0156 J-0.0001
G2 X2.4673 Y1.5302 I-0.3116 J-0.0049
G0 Z0.125
G0 X1.8313 Y1.4216
G0 Z0.0625
G1 F4.0 Z-0.02
G2 F8.0 X1.832 Y1.412 I-0.0538 J-0.0092
G3 Y1.4106 I0.0406 J-0.0003
G2 X1.8175 Y1.3775 I-0.0423 J-0.0011
G3 X1.8208 Y1.3872 I-0.0801 J0.0324
G3 X1.825 Y1.4194 I-0.1145 J0.0312
G3 X1.8236 Y1.4415 I-0.1569 J0.0016
G2 X1.8313 Y1.4216 I-0.0462 J-0.0291
G1 F4.0 X1.8436 Y1.4237
G2 F8.0 X1.8445 Y1.4119 I-0.0661 J-0.0113
G3 Y1.4109 I0.0281 J-0.0002
G2 X1.8243 Y1.3669 I-0.0548 J-0.0015
G2 X1.7931 Y1.352 I-0.049 J0.0627
G3 X1.793 I0.0063 J-0.0274
G2 X1.7796 Y1.3494 I-0.0381 J0.1619
G3 X1.7914 Y1.3594 I-0.0415 J0.061
G3 X1.7917 Y1.3598 I-0.0203 J0.0194
G3 X1.8087 Y1.3905 I-0.0543 J0.0501
G3 X1.8125 Y1.4194 I-0.1025 J0.028
G3 X1.808 Y1.4568 I-0.1444 J0.0016
G3 X1.797 Y1.4825 I-0.0862 J-0.0216
G2 X1.8306 Y1.4533 I-0.0653 J-0.109
G2 X1.8436 Y1.4237 I-0.0532 J-0.0409
G0 Z0.125
G0 X1.804 Y1.5992
G0 Z0.0625
G1 F4.0 Z-0.02
G2 F8.0 X1.803 Y1.5991 I-0.0009 J0.004
G3 X1.8017 I-0.001 J-0.0469
G2 X1.8059 Y1.6053 I0.0544 J-0.0325
G3 X1.806 Y1.6054 I-0.0371 J0.0286
G3 X1.8074 Y1.6073 I-0.0575 J0.044
G2 Y1.606 I-0.03 J-0.0015
G3 Y1.6046 I0.0469 J0.0002
G2 X1.8059 Y1.6002 I-0.0063 J-0.0002
G2 X1.804 Y1.5992 I-0.0028 J0.003
G1 F4.0 X1.8054 Y1.5931
G2 F8.0 X1.8029 Y1.5929 I-0.0023 J0.0101
G3 X1.8004 I-0.0009 J-0.0406
G2 X1.7948 Y1.5947 I-0.0003 J0.0087
G2 X1.7937 Y1.5974 I0.0037 J0.003
G2 X1.794 Y1.5981 I0.002 J-0.0003
G3 X1.7944 Y1.5989 I-0.0356 J0.0196
G2 X1.8009 Y1.6091 I0.0617 J-0.0322
G3 X1.801 Y1.6092 I-0.0322 J0.0248
G3 X1.8092 Y1.6232 I-0.0526 J0.0402
G2 X1.8137 Y1.606 I-0.0318 J-0.0174
G3 Y1.6048 I0.0406 J0.0002
G2 X1.8103 Y1.5958 I-0.0126 J-0.0004
G2 X1.8054 Y1.5931 I-0.0072 J0.0074
G1 F4.0 X1.8081 Y1.5809
G2 F8.0 X1.8026 Y1.5804 I-0.005 J0.0223
G3 X1.8009 I-0.0006 J-0.0281
G2 X1.7861 Y1.5856 I-0.0008 J0.0212
G2 X1.7812 Y1.598 I0.0123 J0.012
G2 X1.783 Y1.6041 I0.0145 J-0.0009
G3 X1.7833 Y1.6047 I-0.0246 J0.0136
G2 X1.791 Y1.6167 I0.0728 J-0.038
G1 X1.7911 Y1.6168
G3 X1.8009 Y1.6381 I-0.0426 J0.0326
G3 X1.8014 Y1.6474 I-0.0275 J0.0059
G3 X1.8004 Y1.6526 I-0.0389 J-0.0046
G2 X1.8176 Y1.6334 I-0.0681 J-0.0786
G2 X1.8262 Y1.606 I-0.0403 J-0.0276
G3 Y1.6052 I0.0281 J0.0001
G2 X1.8193 Y1.5871 I-0.0251 J-0.0008
G2 X1.8081 Y1.5809 I-0.0162 J0.0161
G0 Z0.125
G0 X1.597 Y1.5405
G0 Z0.0625
G1 F4.0 Z-0.02
G3 F8.0 X1.593 Y1.5302 I0.0354 J-0.0199
G1 Y1.5508
G3 X1.597 Y1.5405 I0.0395 J0.0097
G0 Z0.125
G0 X1.593 Y1.4545
G0 Z0.0625
G1 F4.0 Z-0.02
G3 F8.0 X1.6028 Y1.4169 I0.1501 J0.019
G3 X1.5928 Y1.4073 I0.0226 J-0.0338
G3 X1.593 Y1.4161 I-0.1405 J0.0077
G1 Y1.4545
G1 F4.0 X1.6054 Y1.4561
G3 F8.0 X1.6194 Y1.4106 I0.1377 J0.0174
G3 X1.5984 Y1.3909 I0.006 J-0.0275
G2 X1.5898 Y1.3704 I-0.094 J0.027
G1 Y1.3703
G2 X1.5788 Y1.3569 I-0.042 J0.0232
G2 X1.5481 Y1.3476 I-0.0291 J0.0408
G3 X1.5473 I-0.0009 J-0.0281
G2 X1.5465 I0.0002 J0.0538
G3 X1.5678 Y1.3647 I-0.0153 J0.0408
G3 X1.5679 Y1.3649 I-0.0236 J0.0153
G3 X1.5785 Y1.3926 I-0.0631 J0.0401
G3 X1.5805 Y1.4161 I-0.1263 J0.0224
G1 Y1.612
G3 Y1.6123 I-0.0281 J0.0
G2 X1.5871 Y1.6399 I0.0589 J0.0005
G2 X1.607 Y1.6635 I0.0685 J-0.0376
G2 X1.6447 Y1.6817 I0.0592 J-0.0742
G3 X1.6448 Y1.6818 I-0.0064 J0.0274
G2 X1.6477 Y1.6825 I0.0449 J-0.1882
G3 X1.6355 Y1.6735 I0.0567 J-0.0901
G3 X1.6043 Y1.6077 I0.0535 J-0.0657
G1 Y1.5605
G3 X1.6126 Y1.5405 I0.0281 J0.0
G3 X1.6043 Y1.5206 I0.0198 J-0.0199
G1 Y1.4773
G3 X1.6054 Y1.4561 I0.1387 J-0.0037
G0 Z0.125
G0 X1.568
G0 Z0.0625
G1 F4.0 Z-0.02
G1 F8.0 Y1.612
G3 Y1.6122 I-0.0156 J0.0
G2 X1.576 Y1.6458 I0.0714 J0.0006
G2 X1.5992 Y1.6732 I0.0795 J-0.0434
G1 Y1.6733
G2 X1.6418 Y1.6939 I0.067 J-0.0839
G1 X1.6419
G2 X1.692 Y1.6995 I0.0478 J-0.2004
G3 X1.6923 I0.0002 J0.0156
G2 X1.7495 Y1.6927 I0.0021 J-0.2234
G2 X1.7998 Y1.6689 I-0.0363 J-0.1422
G3 X1.7999 Y1.6688 I0.0092 J0.0126
G2 X1.8279 Y1.6405 I-0.0677 J-0.0949
G2 X1.8387 Y1.6061 I-0.0505 J-0.0347
G3 Y1.6057 I0.0156 J0.0001
G2 X1.8283 Y1.5784 I-0.0376 J-0.0013
G2 X1.8023 Y1.5679 I-0.0252 J0.0248
G3 X1.8014 I-0.0003 J-0.0156
G2 X1.7775 Y1.5765 I-0.0013 J0.0337
G2 X1.7687 Y1.5985 I0.0209 J0.0211
G2 X1.7721 Y1.6101 I0.027 J-0.0014
G3 X1.7722 Y1.6104 I-0.0137 J0.0075
G2 X1.7811 Y1.6244 I0.0839 J-0.0438
G1 X1.7812
G3 X1.7887 Y1.6408 I-0.0327 J0.025
G3 X1.789 Y1.6459 I-0.0153 J0.0033
G3 X1.7791 Y1.6636 I-0.0265 J-0.0031
G3 X1.7699 Y1.6701 I-0.0382 J-0.0444
G3 X1.7076 Y1.6863 I-0.0605 J-0.1052
G3 X1.6435 Y1.6639 I-0.0031 J-0.0939
G3 X1.6168 Y1.6077 I0.0455 J-0.0561
G1 Y1.5605
G3 X1.6308 Y1.5449 I0.0156 J0.0
G2 X1.717 Y1.5288 I-0.0606 J-0.5632
G2 X1.7972 Y1.4968 I-0.0919 J-0.3461
G3 X1.7973 Y1.4967 I0.0075 J0.0137
G2 X1.8404 Y1.461 I-0.0656 J-0.1232
G2 X1.857 Y1.4118 I-0.063 J-0.0486
G3 Y1.4112 I0.0156 J-0.0001
G2 X1.8321 Y1.3571 I-0.0673 J-0.0018
G2 X1.7959 Y1.3398 I-0.0568 J0.0725
G1 X1.7958
G2 X1.7529 Y1.3351 I-0.0409 J0.174
G3 X1.7523 I-0.0002 J-0.0156
G2 X1.6893 Y1.3469 I-0.0039 J0.1524
G2 X1.6619 Y1.366 I0.0506 J0.1018
G1 Y1.3661
G2 X1.6378 Y1.3926 I0.1464 J0.1571
G3 X1.6104 Y1.3874 I-0.0124 J-0.0095
G2 X1.6008 Y1.3643 I-0.106 J0.0305
G1 X1.6007 Y1.3642
G2 X1.5865 Y1.347 I-0.0529 J0.0292
G2 X1.5477 Y1.3351 I-0.0368 J0.0506
G3 X1.5473 I-0.0005 J-0.0156
G2 X1.5157 Y1.3432 I0.0002 J0.0663
G2 X1.4966 Y1.3567 I0.0526 J0.0946
G1 X1.5019 Y1.3648
G3 X1.5067 Y1.3627 I0.0633 J0.1402
G3 X1.5297 Y1.3574 I0.0262 J0.0607
G3 X1.5573 Y1.3715 I0.0015 J0.031
G3 Y1.3716 I-0.0131 J0.0085
G3 X1.5662 Y1.3947 I-0.0526 J0.0334
G3 X1.568 Y1.416 I-0.114 J0.0203
G1 Y1.4561
G0 Z0.125
G0 X1.6174 Y1.461
G0 Z0.0625
G1 F4.0 Z-0.02
G3 F8.0 X1.6523 Y1.3857 I0.1257 J0.0125
G3 X1.7361 Y1.3491 I0.0836 J0.0774
G3 X1.7824 Y1.368 I0.002 J0.0613
G3 X1.7826 Y1.3682 I-0.0113 J0.0108
G3 X1.7967 Y1.3938 I-0.0451 J0.0416
G3 X1.8 Y1.4194 I-0.0904 J0.0247
G3 X1.7959 Y1.4538 I-0.132 J0.0016
G3 X1.7774 Y1.4876 I-0.0741 J-0.0185
G3 X1.7742 Y1.4902 I-0.0114 J-0.0107
G3 X1.7058 Y1.5204 I-0.144 J-0.2332
G3 X1.6347 Y1.5361 I-0.1469 J-0.4981
G3 X1.6168 Y1.5206 I-0.0023 J-0.0155
G1 Y1.4771
G3 X1.6174 Y1.461 I0.1263 J-0.0036
G0 Z0.125
G0 X1.5168 Y2.2151
G0 Z0.0625
G1 F4.0 Z-0.02
G2 F8.0 X1.5202 Y2.2289 I0.0534 J-0.0059
G2 X1.5219 Y2.2324 I0.0341 J-0.0145
G3 X1.5192 Y2.2251 I0.0535 J-0.0244
G3 X1.5168 Y2.2151 I0.0785 J-0.024
G1 F4.0 X1.5291 Y2.213
G3 F8.0 X1.5281 Y2.2003 I0.0685 J-0.0119
G3 X1.5332 Y2.1751 I0.0591 J-0.0012
G3 X1.5333 Y2.1748 I0.0143 J0.0064
G3 X1.5536 Y2.1539 I0.0412 J0.0196
G3 X1.5698 Y2.1482 I0.0284 J0.0546
G3 X1.582 Y2.1465 I0.019 J0.095
G1 Y2.1335
G3 X1.5624 Y2.1299 I0.0053 J-0.0853
G3 X1.5379 Y2.1158 I0.019 J-0.0612
G3 X1.5227 Y2.0942 I0.04 J-0.0442
G3 X1.5226 Y2.094 I0.0145 J-0.0059
G3 X1.518 Y2.0691 I0.0619 J-0.0243
G3 X1.5225 Y2.0417 I0.0773 J-0.0013
G3 X1.5226 Y2.0416 I0.0147 J0.0053
G3 X1.5423 Y2.0165 I0.0485 J0.0178
G3 X1.5425 Y2.0164 I0.0087 J0.013
G3 X1.5611 Y2.0083 I0.0332 J0.051
G3 X1.5846 Y2.0056 I0.0224 J0.0917
G3 X1.6204 Y2.0146 I-0.0002 J0.0765
G3 X1.6205 I-0.0073 J0.0138
G3 X1.633 Y2.0226 I-0.0497 J0.0918
G1 X1.6421 Y2.0086
G2 X1.6214 Y1.9977 I-0.054 J0.0777
G2 X1.5853 Y1.9915 I-0.0352 J0.0971
G3 X1.585 I-0.0001 J-0.0156
G2 X1.5478 Y1.996 I-0.0016 J0.1439
G1 X1.5477
G2 X1.5167 Y2.0116 I0.0198 J0.0781
G2 X1.4993 Y2.0351 I0.0373 J0.0457
G2 X1.4939 Y2.0657 I0.0761 J0.0292
G3 Y2.0662 I-0.0156 J0.0003
G2 X1.4992 Y2.0944 I0.0717 J0.0011
G2 X1.5159 Y2.1163 I0.0526 J-0.0228
G2 X1.5327 Y2.1269 I0.0525 J-0.065
G3 X1.5339 Y2.1545 I-0.0067 J0.0141
G2 X1.5114 Y2.1768 I0.0315 J0.0543
G2 X1.504 Y2.2075 I0.0544 J0.0294
G3 Y2.2081 I-0.0156 J0.0003
G2 X1.5086 Y2.2336 I0.0662 J0.0011
G2 X1.5233 Y2.2531 I0.0456 J-0.0192
G2 X1.5505 Y2.2663 I0.0437 J-0.0548
G1 Y2.2664
G2 X1.5833 Y2.2701 I0.0313 J-0.1274
G1 X1.5834
G2 X1.6182 Y2.2627 I-0.0006 J-0.0876
G3 X1.6184 Y2.2626 I0.0063 J0.0143
G2 X1.6324 Y2.2552 I-0.0357 J-0.0846
G2 X1.6342 Y2.254 I-0.0237 J-0.0374
G1 X1.6265 Y2.2426
G3 X1.6177 Y2.248 I-0.0558 J-0.0804
G3 X1.5869 Y2.2561 I-0.0315 J-0.0578
G3 X1.5559 Y2.25 I-0.0021 J-0.0716
G3 X1.5555 Y2.2498 I0.0063 J-0.0143
G3 X1.5311 Y2.2214 I0.0199 J-0.0418
G3 X1.5291 Y2.213 I0.0665 J-0.0203
G0 Z0.125
G0 X1.3184 Y2.2224
G0 Z0.0625
G1 F4.0 Z-0.02
G3 F8.0 X1.3042 Y2.2091 I0.011 J-0.0259
G1 Y2.2342
G3 X1.3184 Y2.2224 I0.1752 J0.1972
G1 F4.0 X1.326 Y2.2323
G3 F8.0 X1.3309 Y2.2287 I0.1534 J0.1991
G3 X1.3749 Y2.2014 I0.1958 J0.2671
G1 Y2.1875
G1 X1.3374 Y2.21
G3 X1.3138 Y2.1966 I-0.008 J-0.0134
G1 Y1.9956
G1 X1.2917
G1 Y2.2643
G3 X1.326 Y2.2323 I0.1877 J0.1671
( Pocket2 )
S10000
G0 Z0.125
G0 X2.2581 Y0.7774
G0 Z0.0625
G1 F4.0 Z-0.02
G3 F8.0 X2.2365 Y0.765 I0.0039 J-0.0317
G3 X2.2291 Y0.7502 I0.0311 J-0.0247
G3 X2.2273 Y0.7353 I0.0558 J-0.0144
G3 X2.229 Y0.721 I0.0571 J-0.0005
G3 X2.2362 Y0.7063 I0.0369 J0.0091
G3 X2.2363 I0.0078 J0.0062
G3 X2.2481 Y0.6973 I0.0245 J0.02
G3 X2.2483 Y0.6972 I0.004 J0.0092
G3 X2.262 Y0.6945 I0.0134 J0.0323
G3 X2.2795 Y0.6979 I0.0008 J0.042
G3 X2.2797 Y0.698 I-0.0039 J0.0092
G3 X2.2943 Y0.7118 I-0.0131 J0.0286
G3 X2.2984 Y0.7231 I-0.037 J0.0199
G3 X2.2998 Y0.737 I-0.0652 J0.0135
G3 X2.296 Y0.7579 I-0.052 J0.0013
G3 X2.2959 Y0.7581 I-0.0093 J-0.0038
G3 X2.2773 Y0.7753 I-0.0287 J-0.0122
G1 X2.2772 Y0.7754
G3 X2.2625 Y0.7776 I-0.0142 J-0.0426
G3 X2.2581 Y0.7774 I-0.0005 J-0.032
G0 Z0.125
G0 X2.2938 Y0.7746
G0 Z0.0625
G1 F4.0 Z-0.02
G3 F8.0 X2.2997 Y0.7826 I-0.011 J0.0143
G2 X2.3047 Y0.7573 I-0.0736 J-0.0277
G3 X2.3034 Y0.7609 I-0.0569 J-0.019
G3 X2.3033 Y0.7612 I-0.0167 J-0.0068
G3 X2.2938 Y0.7746 I-0.036 J-0.0154
G1 F4.0 X2.2889 Y0.781
G3 F8.0 X2.2922 Y0.7925 I-0.0061 J0.0079
G3 X2.2823 Y0.811 I-0.0791 J-0.0302
G3 X2.2695 Y0.8265 I-0.1032 J-0.0723
G3 X2.2451 Y0.8468 I-0.1 J-0.0953
G1 X2.2491 Y0.851
G2 X2.2695 Y0.8391 I-0.0224 J-0.0618
G2 X2.2905 Y0.816 I-0.08 J-0.094
G3 X2.2906 Y0.8158 I0.0082 J0.0057
G2 X2.3067 Y0.7869 I-0.1053 J-0.0772
G2 X2.3128 Y0.7555 I-0.0806 J-0.0319
G2 X2.3111 Y0.7333 I-0.1418 J-0.0009
G2 X2.3053 Y0.713 I-0.0767 J0.0113
G2 X2.2982 Y0.702 I-0.0422 J0.0192
G2 X2.2846 Y0.692 I-0.0289 J0.0252
G2 X2.2605 Y0.6876 I-0.0229 J0.0559
G3 X2.2601 I-0.0002 J-0.01
G2 X2.2425 Y0.6908 I-0.0006 J0.0473
G2 X2.228 Y0.7007 I0.0157 J0.0385
G1 X2.2279
G2 X2.218 Y0.7168 I0.0314 J0.0304
G2 X2.215 Y0.7364 I0.0563 J0.0189
G3 Y0.7366 I-0.01 J0.0001
G2 X2.2179 Y0.7562 I0.0611 J0.0008
G2 X2.2275 Y0.7719 I0.0386 J-0.0128
G2 X2.2423 Y0.7816 I0.0284 J-0.0273
G2 X2.2607 Y0.7846 I0.0177 J-0.0501
G2 X2.2693 Y0.7833 I-0.0006 J-0.0319
G2 X2.2787 Y0.7798 I-0.019 J-0.0652
G3 X2.2889 Y0.781 I0.0042 J0.0091
G0 Z0.125
G0 X2.1555 Y0.7964
G0 Z0.0625
G1 F4.0 Z-0.02
G3 F8.0 X2.1559 Y0.8037 I-0.0578 J0.0067
G3 X2.1542 Y0.8181 I-0.058 J0.0005
G3 X2.147 Y0.8328 I-0.0375 J-0.0092
G3 X2.121 Y0.845 I-0.0251 J-0.0196
G3 X2.1035 Y0.8415 I-0.0007 J-0.0414
G3 X2.1032 Y0.8413 I0.0041 J-0.0091
G3 X2.0887 Y0.8273 I0.0137 J-0.0286
G3 X2.0847 Y0.8159 I0.0383 J-0.0199
G3 X2.0834 Y0.8019 I0.0674 J-0.0135
G3 X2.0872 Y0.7811 I0.052 J-0.0013
G3 Y0.7809 I0.0093 J0.0038
G3 X2.1059 Y0.7636 I0.0287 J0.0122
G1 X2.106
G3 X2.1207 Y0.7613 I0.0142 J0.0426
G3 X2.1467 Y0.7738 I0.0004 J0.0323
G3 X2.1541 Y0.7887 I-0.0311 J0.0247
G3 X2.1555 Y0.7964 I-0.0564 J0.0144
G0 Z0.125
G0 X2.0912 Y0.7628
G0 Z0.0625
G1 F4.0 Z-0.02
G3 F8.0 X2.0844 Y0.7539 I0.0103 J-0.0148
G2 X2.084 Y0.755 I0.1141 J0.0468
G2 X2.0785 Y0.7816 I0.073 J0.029
G3 X2.0798 Y0.7781 I0.0569 J0.019
G3 X2.0799 Y0.7778 I0.0167 J0.0068
G3 X2.0912 Y0.7628 I0.036 J0.0154
G1 F4.0 X2.0957 Y0.7562
G3 F8.0 X2.0924 Y0.7438 I0.0057 J-0.0082
G3 X2.1163 Y0.7098 I0.1063 J0.0496
G1 X2.1164
G3 X2.1381 Y0.6922 I0.103 J0.1053
G1 X2.1341 Y0.688
G2 X2.1138 Y0.6998 I0.0223 J0.0617
G1 X2.1137
G2 X2.0928 Y0.7229 I0.0793 J0.0933
G3 X2.0927 Y0.723 I-0.0082 J-0.0057
G2 X2.0766 Y0.752 I0.1059 J0.0777
G2 X2.0704 Y0.7835 I0.0804 J0.032
G2 X2.0727 Y0.8094 I0.1375 J0.0012
G2 X2.0811 Y0.8321 I0.066 J-0.0115
G2 X2.0911 Y0.8431 I0.0341 J-0.021
G2 X2.11 Y0.8509 I0.026 J-0.0361
G3 X2.1102 Y0.851 I-0.0016 J0.0099
G2 X2.1229 Y0.852 I0.0124 J-0.0721
G3 X2.1232 I0.0 J0.01
G2 X2.1552 Y0.8387 I0.0011 J-0.0424
G1 X2.1553 Y0.8386
G2 X2.1652 Y0.8224 I-0.0319 J-0.0306
G2 X2.1682 Y0.8026 I-0.0575 J-0.0191
G3 Y0.8023 I0.01 J-0.0001
G2 X2.1653 Y0.7827 I-0.0616 J-0.0008
G2 X2.1557 Y0.767 I-0.0386 J0.0127
G1 Y0.7669
G2 X2.1408 Y0.7573 I-0.0286 J0.028
G2 X2.1224 Y0.7543 I-0.0177 J0.0504
G3 X2.1223 I-0.0001 J-0.01
G2 X2.1132 Y0.755 I-0.0003 J0.059
G1 X2.1131
G2 X2.1054 Y0.7572 I0.0044 J0.0302
G3 X2.0957 Y0.7562 I-0.004 J-0.0092
G0 Z0.125
G0 X2.0062 Y0.6981
G0 Z0.0625
G1 F4.0 Z-0.02
G2 F8.0 X2.0067 Y0.6963 I-0.0026 J-0.0017
G3 Y0.6957 I0.018 J-0.0004
G2 X2.0056 Y0.6931 I-0.0035 J-0.0001
G3 X2.0054 Y0.6929 I0.0127 J-0.0128
G2 X2.003 Y0.6919 I-0.0024 J0.0023
G3 X2.0024 I-0.0003 J-0.018
G2 X2.0002 Y0.6928 I-0.0001 J0.0029
G3 X1.9997 Y0.6933 I-0.013 J-0.0124
G2 X1.9987 Y0.6957 I0.0023 J0.0024
G3 Y0.6963 I-0.018 J0.0003
G2 X1.9996 Y0.6985 I0.0029 J0.0001
G3 X2.0002 Y0.6991 I-0.0124 J0.013
G2 X2.0024 Y0.7 I0.0021 J-0.002
G3 X2.003 I0.0003 J0.018
G2 X2.0054 Y0.699 I0.0001 J-0.0033
G3 X2.0057 Y0.6986 I0.0129 J0.0125
G2 X2.0062 Y0.6981 I-0.0022 J-0.0022
G1 F4.0 X2.0129 Y0.7024
G2 F8.0 X2.0147 Y0.6962 I-0.0093 J-0.006
G3 Y0.6958 I0.01 J-0.0002
G2 X2.0113 Y0.6875 I-0.0115 J-0.0002
G3 X2.0111 Y0.6873 I0.007 J-0.0071
G2 X2.0028 Y0.6839 I-0.0081 J0.0079
G3 X2.0025 I-0.0002 J-0.01
G2 X1.9944 Y0.6873 I-0.0002 J0.0109
G3 X1.9941 Y0.6875 I-0.0072 J-0.0069
G2 X1.9907 Y0.6958 I0.0079 J0.0081
G3 Y0.6962 I-0.01 J0.0002
G2 X1.9941 Y0.7043 I0.0109 J0.0002
G3 X1.9944 Y0.7046 I-0.0069 J0.0072
G2 X2.0025 Y0.708 I0.0079 J-0.0075
G3 X2.0028 I0.0002 J0.01
G2 X2.0111 Y0.7045 I0.0002 J-0.0113
G3 X2.0113 Y0.7043 I0.0072 J0.007
G2 X2.0129 Y0.7024 I-0.0078 J-0.0079
G0 Z0.125
G0 X1.8385 Y0.8375
G0 Z0.0625
G1 F4.0 Z-0.02
G1 F8.0 X1.8363 Y0.8416
G1 X1.841
G3 X1.8385 Y0.8375 I0.014 J-0.0113
G1 F4.0 X1.8458 Y0.8343
G3 F8.0 X1.8462 Y0.8255 I0.0092 J-0.004
G2 X1.8745 Y0.7708 I-1.2531 J-0.6846
G2 X1.8998 Y0.715 I-0.8175 J-0.403
G2 X1.9094 Y0.69 I-0.5139 J-0.2113
G1 X1.8958
G3 X1.8875 Y0.7132 I-0.421 J-0.1387
G3 X1.8727 Y0.7489 I-0.7531 J-0.2918
G3 X1.8554 Y0.7863 I-1.0278 J-0.4506
G3 X1.8386 Y0.8202 I-1.1965 J-0.5728
G3 X1.8385 Y0.8203 I-0.0089 J-0.0046
G1 X1.8236 Y0.8485
G1 Y0.8496
G1 X1.9269
G1 Y0.8403
G1 X1.855
G3 X1.8458 Y0.8343 I0.0 J-0.01
G0 Z0.125
G0 X1.7563 Y0.7049
G0 Z0.0625
G1 F4.0 Z-0.02
G1 F8.0 X1.761 Y0.698
G1 X1.7535
G3 X1.7563 Y0.7049 I-0.0148 J0.0102
G1 F4.0 X1.763 Y0.7094
G1 F8.0 X1.7761 Y0.69
G1 X1.6815
G1 Y0.6982
G1 X1.7386
G3 X1.747 Y0.7137 I0.0 J0.01
G1 X1.7104 Y0.7695
G2 X1.7005 Y0.7864 I0.1453 J0.096
G2 X1.6937 Y0.8037 I0.0807 J0.0417
G2 X1.6921 Y0.8149 I0.0424 J0.0117
G2 X1.695 Y0.8301 I0.0385 J0.0006
G2 X1.7038 Y0.8416 I0.0272 J-0.0118
G2 X1.7204 Y0.8497 I0.0269 J-0.034
G2 X1.7405 Y0.852 I0.0192 J-0.0777
G3 X1.7407 I0.0001 J0.01
G2 X1.7654 Y0.845 I0.0004 J-0.0458
G3 X1.7656 Y0.8449 I0.0053 J0.0085
G2 X1.7774 Y0.8345 I-0.0216 J-0.0364
G1 X1.7714 Y0.8298
G3 X1.7631 Y0.8374 I-0.0407 J-0.0355
G3 X1.7629 Y0.8376 I-0.006 J-0.008
G3 X1.7395 Y0.845 I-0.0232 J-0.0324
G3 X1.7229 Y0.8423 I-0.001 J-0.0462
G3 X1.7074 Y0.8275 I0.0089 J-0.0248
G3 X1.7073 Y0.8273 I0.0093 J-0.0038
G3 X1.7051 Y0.8146 I0.0316 J-0.012
G3 X1.7071 Y0.8007 I0.054 J0.0007
G3 X1.7116 Y0.7884 I0.0799 J0.0222
G1 Y0.7883
G3 X1.7238 Y0.767 I0.1313 J0.061
G1 X1.763 Y0.7094
( Pocket4 )
S10000
G0 Z0.125
G0 X2.3981 Y1.0725
G0 Z0.0625
G1 F4.0 Z-0.02
G3 F8.0 X2.3926 Y1.0601 I0.0185 J-0.0156
G1 Y1.0725
G1 X2.3981
G0 Z0.125
G0 X2.3926 Y1.0236
G0 Z0.0625
G1 F4.0 Z-0.02
G3 F8.0 X2.4002 Y1.0091 I0.024 J0.0033
G2 X2.3926 Y1.0139 I0.0371 J0.0668
G1 Y1.0236
G0 Z0.125
G0 X2.5611 Y1.0566
G0 Z0.0625
G1 F4.0 Z-0.02
G3 F8.0 X2.5644 Y1.0908 I-0.1574 J0.0326
G3 X2.5626 Y1.1149 I-0.1441 J0.0015
G2 X2.5651 Y1.089 I-0.1255 J-0.0252
G3 Y1.0887 I0.0242 J-0.0001
G2 X2.5611 Y1.0566 I-0.1201 J-0.0011
G1 F4.0 X2.5653 Y1.0554
G2 F8.0 X2.5576 Y1.0344 I-0.1203 J0.0322
G1 Y1.0343
G2 X2.5244 Y0.9987 I-0.0721 J0.0339
G2 X2.4985 Y0.9888 I-0.047 J0.0844
G2 X2.4696 Y0.9858 I-0.0281 J0.127
G1 X2.4695
G2 X2.4192 Y0.9954 I0.0003 J0.1387
G3 X2.419 I-0.0072 J-0.0184
G2 X2.3986 Y1.005 I0.0575 J0.1499
G3 X2.3985 I-0.0096 J-0.0173
G2 X2.3882 Y1.0117 I0.0388 J0.0708
G1 Y1.0769
G1 X2.4514
G1 Y1.0767
G1 X2.4166
G3 X2.3968 Y1.0569 I0.0 J-0.0198
G1 Y1.0269
G3 X2.4047 Y1.0111 I0.0198 J0.0
G3 X2.4354 Y0.9941 I0.0751 J0.0995
G3 X2.4723 Y0.9869 I0.0376 J0.0952
G3 X2.5067 Y0.9934 I0.0011 J0.0892
G3 X2.507 Y0.9935 I-0.0074 J0.0184
G3 X2.5364 Y1.0146 I-0.0311 J0.0742
G3 X2.5366 Y1.0149 I-0.0149 J0.0131
G3 X2.5558 Y1.0531 I-0.069 J0.0585
G3 X2.56 Y1.0908 I-0.1521 J0.0361
G3 X2.5557 Y1.1268 I-0.1397 J0.0015
G3 X2.5366 Y1.1629 I-0.0824 J-0.0206
G3 X2.5363 Y1.1631 I-0.0148 J-0.0132
G3 X2.506 Y1.1835 I-0.0582 J-0.054
G3 X2.5058 Y1.1836 I-0.007 J-0.0185
G3 X2.472 Y1.1893 I-0.0327 J-0.0904
G3 X2.4489 Y1.1863 I-0.0006 J-0.0871
G3 X2.4261 Y1.1753 I0.018 J-0.0667
G3 X2.407 Y1.1543 I0.0407 J-0.0561
G1 X2.3979 Y1.156
G2 X2.3996 Y1.1589 I0.0625 J-0.0337
G2 X2.4151 Y1.1757 I0.051 J-0.0316
G2 X2.4405 Y1.1871 I0.04 J-0.0552
G1 X2.4406
G2 X2.4718 Y1.1905 I0.0299 J-0.133
G3 X2.4722 Y1.1904 I0.0002 J0.0198
G2 X2.4975 Y1.1882 I0.0009 J-0.136
G2 X2.5197 Y1.1808 I-0.0143 J-0.0796
G2 X2.5564 Y1.1451 I-0.0377 J-0.0755
G2 X2.5664 Y1.1184 I-0.0927 J-0.0498
G2 X2.5695 Y1.089 I-0.1293 J-0.0287
G3 Y1.0887 I0.0198 J-0.0001
G2 X2.5653 Y1.0554 I-0.1245 J-0.0011
G1 F4.0 X2.5738 Y1.0532
G2 F8.0 X2.5655 Y1.0306 I-0.1288 J0.0345
G2 X2.5287 Y0.991 I-0.08 J0.0376
G2 X2.5004 Y0.9803 I-0.0513 J0.0921
G2 X2.4695 Y0.977 I-0.03 J0.1356
G2 X2.416 Y0.9872 I0.0004 J0.1475
G1 X2.4159
G2 X2.3943 Y0.9973 I0.0606 J0.1581
G1 X2.3942
G2 X2.3794 Y1.0075 I0.0431 J0.0785
G1 Y1.0857
G1 X2.4602
G1 Y1.0679
G1 X2.4166
G3 X2.4056 Y1.0569 I0.0 J-0.011
G1 Y1.0269
G3 X2.41 Y1.0181 I0.011 J0.0
G3 X2.4386 Y1.0023 I0.0698 J0.0924
G3 X2.4724 Y0.9957 I0.0344 J0.087
G3 X2.5035 Y1.0015 I0.001 J0.0804
G3 X2.5036 Y1.0016 I-0.0041 J0.0102
G3 X2.5298 Y1.0204 I-0.0277 J0.0661
G3 X2.5299 Y1.0206 I-0.0083 J0.0073
G3 X2.5472 Y1.0551 I-0.0623 J0.0529
G3 X2.5512 Y1.0908 I-0.1435 J0.0341
G3 X2.5472 Y1.1247 I-0.1309 J0.0015
G3 X2.53 Y1.157 I-0.0738 J-0.0184
G3 X2.5299 Y1.1571 I-0.0082 J-0.0073
G3 X2.5029 Y1.1752 I-0.0517 J-0.048
G3 X2.5028 Y1.1753 I-0.0039 J-0.0103
G3 X2.472 Y1.1805 I-0.0297 J-0.0821
G3 X2.4512 Y1.1778 I-0.0006 J-0.0783
G3 X2.4312 Y1.1682 I0.0157 J-0.0582
G3 X2.4117 Y1.1445 I0.0355 J-0.049
G1 X2.3853 Y1.1494
G2 X2.3921 Y1.1635 I0.075 J-0.0271
G2 X2.4099 Y1.1828 I0.0585 J-0.0361
G2 X2.4386 Y1.1957 I0.0452 J-0.0623
G2 X2.4719 Y1.1992 I0.0318 J-0.1415
G3 X2.4721 I0.0001 J0.011
G2 X2.499 Y1.1969 I0.0009 J-0.1448
G1 X2.4991
G2 X2.5236 Y1.1887 I-0.0159 J-0.0883
G1 X2.5237 Y1.1886
G2 X2.5642 Y1.1493 I-0.0416 J-0.0834
G2 X2.575 Y1.1203 I-0.1005 J-0.0539
G2 X2.5783 Y1.089 I-0.1379 J-0.0306
G3 Y1.0888 I0.011 J-0.0001
G2 X2.5738 Y1.0532 I-0.1333 J-0.0012
G0 Z0.125
G0 X2.3167 Y1.0211
G0 Z0.0625
G1 F4.0 Z-0.02
G2 F8.0 X2.3169 Y1.0171 I-0.0283 J-0.0035
G3 Y1.0162 I0.0198 J-0.0003
G2 X2.308 Y0.995 I-0.028 J-0.0008
G2 X2.2963 Y0.9882 I-0.0206 J0.0222
G2 X2.2946 Y0.9877 I-0.0156 J0.052
G3 X2.2979 Y0.9906 I-0.0275 J0.0351
G3 X2.3112 Y1.0214 I-0.0287 J0.0306
G3 X2.307 Y1.0389 I-0.0376 J0.0002
G2 X2.3128 Y1.0323 I-0.0155 J-0.0195
G2 X2.3167 Y1.0211 I-0.0244 J-0.0147
G0 Z0.125
G0 X2.3019 Y1.111
G0 Z0.0625
G1 F4.0 Z-0.02
G3 F8.0 X2.2977 Y1.1162 I-0.0363 J-0.0252
G2 X2.303 Y1.1112 I-0.0215 J-0.028
G1 X2.3019 Y1.111
G0 Z0.125
G0 X2.2112 Y1.0669
G0 Z0.0625
G1 F4.0 Z-0.02
G3 F8.0 X2.2102 Y1.0656 I0.0192 J-0.0147
G1 Y1.0683
G3 X2.2112 Y1.0669 I0.0202 J0.0134
G0 Z0.125
G0 X2.2102 Y1.0103
G0 Z0.0625
G1 F4.0 Z-0.02
G3 F8.0 X2.2115 Y1.0074 I0.0491 J0.0189
G3 X2.2101 Y1.0062 I0.0153 J-0.0187
G3 X2.2102 Y1.0085 I-0.1499 J0.008
G3 Y1.0103 I-0.3701 J0.0169
G1 F4.0 X2.2144 Y1.0119
G3 F8.0 X2.2171 Y1.006 I0.045 J0.0174
G3 X2.208 Y0.995 I0.0097 J-0.0173
G3 X2.2064 Y0.9898 I0.1062 J-0.0357
G1 X2.2038
G3 X2.2058 Y1.0087 I-0.1437 J0.0244
G3 X2.2062 Y1.0263 I-0.3657 J0.0167
G3 X2.2061 Y1.0264 I-0.0198 J0.0
G1 X2.2057 Y1.0792
G2 X2.2061 Y1.0932 I0.1946 J0.0006
G3 Y1.0933 I-0.0198 J0.0014
G2 X2.2079 Y1.1056 I0.0826 J-0.0052
G3 Y1.1057 I-0.0193 J0.0042
G2 X2.2095 Y1.1102 I0.0178 J-0.0038
G2 X2.2135 Y1.115 I0.0147 J-0.0083
G2 X2.221 Y1.1197 I0.0231 J-0.0282
G2 X2.2268 Y1.1219 I0.0216 J-0.0491
G3 X2.2249 Y1.1205 I0.0247 J-0.0368
G3 X2.2236 Y1.1195 I0.0119 J-0.0158
G3 X2.2124 Y1.1012 I0.0247 J-0.0276
G3 X2.2105 Y1.086 I0.0543 J-0.0144
G1 Y1.0817
G3 X2.2171 Y1.0669 I0.0198 J0.0
G3 X2.2106 Y1.0522 I0.0132 J-0.0147
G1 Y1.0432
G3 X2.2108 Y1.0312 I0.2211 J-0.0007
G3 X2.2129 Y1.0164 I0.0733 J0.0026
G3 X2.2132 Y1.0154 I0.0192 J0.0047
G3 X2.2144 Y1.0119 I0.0461 J0.0139
G1 F4.0 X2.2216 Y0.9984
G3 F8.0 X2.2164 Y0.9922 I0.0052 J-0.0097
G3 X2.2146 Y0.9863 I0.0979 J-0.0329
G2 X2.213 Y0.981 I-0.1573 J0.0443
G1 X2.1924
G3 X2.195 Y0.9904 I-0.1067 J0.0344
G3 X2.1951 Y0.991 I-0.0107 J0.0024
G3 X2.197 Y1.0091 I-0.1349 J0.0232
G3 X2.1974 Y1.0263 I-0.3569 J0.0163
G1 X2.1973
G1 X2.1969 Y1.0792
G2 X2.1973 Y1.0938 I0.2034 J0.0006
G1 X2.1974
G2 X2.1993 Y1.1075 I0.0913 J-0.0058
G2 X2.2017 Y1.1143 I0.0264 J-0.0056
G2 X2.2079 Y1.1218 I0.0224 J-0.0124
G2 X2.2173 Y1.1277 I0.0287 J-0.035
G2 X2.2361 Y1.1327 I0.0253 J-0.0571
G3 X2.2363 Y1.1328 I-0.0012 J0.0109
G2 X2.2578 Y1.134 I0.0204 J-0.1689
G3 X2.258 I0.0001 J0.011
G2 X2.2819 Y1.1319 I0.0012 J-0.1238
G3 X2.282 I0.002 J0.0108
G2 X2.3019 Y1.124 I-0.009 J-0.0519
G2 X2.3139 Y1.1111 I-0.0257 J-0.0358
G2 X2.3172 Y1.1048 I-0.0585 J-0.0353
G1 X2.2975 Y1.1013
G3 X2.2962 Y1.1036 I-0.0523 J-0.0279
G3 X2.2864 Y1.1144 I-0.0305 J-0.0178
G3 X2.2862 Y1.1146 I-0.0065 J-0.0089
G3 X2.2732 Y1.1201 I-0.0203 J-0.0295
G3 X2.2611 Y1.1213 I-0.0116 J-0.0549
G3 X2.247 Y1.1203 I-0.0008 J-0.0869
G3 X2.2302 Y1.1135 I0.0045 J-0.0352
G3 X2.2295 Y1.1129 I0.0066 J-0.0088
G3 X2.2209 Y1.0989 I0.0188 J-0.0211
G3 X2.2193 Y1.0861 I0.0457 J-0.0122
G1 Y1.0817
G3 X2.2264 Y1.0714 I0.011 J0.0
G3 X2.2497 Y1.0644 I0.0582 J0.1525
G3 X2.2723 Y1.0597 I0.1178 J0.5091
G2 X2.2898 Y1.0557 I-0.0414 J-0.2202
G1 X2.2899
G2 X2.3058 Y1.0499 I-0.0245 J-0.0926
G2 X2.3203 Y1.0368 I-0.0143 J-0.0305
G2 X2.3257 Y1.0169 I-0.032 J-0.0193
G3 Y1.0164 I0.011 J-0.0002
G2 X2.314 Y0.9885 I-0.0368 J-0.001
G2 X2.2989 Y0.9798 I-0.0266 J0.0287
G2 X2.2799 Y0.9771 I-0.0181 J0.0604
G3 X2.2797 I-0.0001 J-0.011
G2 X2.256 Y0.9819 I-0.0004 J0.0601
G2 X2.2346 Y0.9965 I0.0285 J0.0648
G3 X2.2216 Y0.9984 I-0.0078 J-0.0078
G1 F4.0 X2.2288 Y1.0043
G3 F8.0 X2.2364 Y0.9972 I0.0305 J0.025
G3 X2.266 Y0.987 I0.0304 J0.0401
G3 X2.2919 Y0.997 I0.0011 J0.0358
G3 X2.3024 Y1.0214 I-0.0227 J0.0243
G3 X2.2986 Y1.036 I-0.0288 J0.0002
G3 X2.2984 Y1.0362 I-0.0095 J-0.0055
G3 X2.2887 Y1.0464 I-0.0284 J-0.0172
G3 X2.2879 Y1.0469 I-0.0062 J-0.0091
G3 X2.2733 Y1.0528 I-0.0295 J-0.0525
G3 X2.2601 Y1.056 I-0.0549 J-0.1959
G2 X2.2335 Y1.0627 I0.0575 J0.2846
G3 X2.2193 Y1.0522 I-0.0032 J-0.0105
G1 Y1.0432
G3 X2.2196 Y1.0316 I0.2123 J-0.0007
G3 X2.2214 Y1.0185 I0.0645 J0.0022
G3 X2.2216 Y1.0179 I0.0107 J0.0026
G3 X2.2288 Y1.0043 I0.0377 J0.0114
G0 Z0.125
G0 X2.1214
G0 Z0.0625
G1 F4.0 Z-0.02
G1 F8.0 Y0.9898
G1 X2.1158
G1 Y1.1864
G1 X2.1214
G1 Y1.0043
G1 F4.0 X2.1302
G1 F8.0 Y0.981
G1 X2.107
G1 Y1.1952
G1 X2.1302
G1 Y1.0043
G0 Z0.125
G0 X2.0297
G0 Z0.0625
G1 F4.0 Z-0.02
G1 F8.0 Y0.9898
G1 X2.0241
G1 Y1.1864
G1 X2.0297
G1 Y1.0043
G1 F4.0 X2.0385
G1 F8.0 Y0.981
G1 X2.0153
G1 Y1.1952
G1 X2.0385
G1 Y1.0043
G0 Z0.125
G0 X1.9381
G0 Z0.0625
G1 F4.0 Z-0.02
G1 F8.0 Y0.9898
G1 X1.9324
G1 Y1.1213
G1 X1.9381
G1 Y1.0043
G1 F4.0 X1.9469
G1 F8.0 Y0.981
G1 X1.9236
G1 Y1.1301
G1 X1.9469
G1 Y1.0043
G0 Z0.125
G0 X1.8464 Y1.0168
G0 Z0.0625
G1 F4.0 Z-0.02
G2 F8.0 X1.8463 Y1.0162 I-0.1219 J0.0152
G3 Y1.016 I0.0196 J-0.0025
G2 X1.8429 Y1.0029 I-0.0493 J0.0059
G2 X1.8319 Y0.9912 I-0.0227 J0.0103
G3 X1.8318 Y0.9911 I0.0093 J-0.0175
G2 X1.817 Y0.9863 I-0.0205 J0.0379
G3 X1.8211 Y0.9887 I-0.0224 J0.0428
G3 X1.8219 Y0.9893 I-0.0109 J0.0165
G3 X1.8384 Y1.0124 I-0.0263 J0.0362
G3 X1.8387 Y1.0137 I-0.0189 J0.0058
G3 X1.8408 Y1.0279 I-0.0818 J0.0188
G3 X1.8414 Y1.0397 I-0.2911 J0.0206
G3 X1.8417 Y1.0625 I-0.7145 J0.0213
G1 Y1.1213
G1 X1.8473
G1 Y1.0328
G3 Y1.0327 I0.0198 J0.0
G2 X1.8464 Y1.0168 I-0.1228 J-0.0008
G1 F4.0 X1.8551 Y1.0157
G2 F8.0 Y1.015 I-0.1306 J0.0162
G3 X1.855 Y1.0149 I0.0109 J-0.0014
G2 X1.8509 Y0.9993 I-0.0581 J0.007
G2 X1.836 Y0.9834 I-0.0308 J0.0138
G2 X1.8104 Y0.9771 I-0.0247 J0.0457
G3 X1.8102 I-0.0002 J-0.011
G2 X1.7833 Y0.9838 I-0.0001 J0.0574
G3 X1.7832 I-0.0051 J-0.0097
G2 X1.7645 Y0.9992 I0.0247 J0.0489
G3 X1.7666 Y0.9978 I0.0265 J0.0351
G3 X1.7934 Y0.9896 I0.0265 J0.0388
G3 X1.8163 Y0.9961 I0.0012 J0.0395
G3 X1.8167 Y0.9964 I-0.006 J0.0092
G3 X1.83 Y1.015 I-0.0212 J0.0291
G3 X1.8302 Y1.0157 I-0.0105 J0.0032
G3 X1.832 Y1.0285 I-0.0733 J0.0169
G3 X1.8326 Y1.04 I-0.2823 J0.02
G3 X1.8329 Y1.0625 I-0.7057 J0.0211
G1 Y1.1301
G1 X1.8561
G1 Y1.0328
G2 X1.8551 Y1.0157 I-0.1316 J-0.0008
G0 Z0.125
G0 X1.7376 Y1.0138
G0 Z0.0625
G1 F4.0 Z-0.02
G3 F8.0 X1.7357 Y1.012 I0.0159 J-0.0182
G1 Y1.0206
G3 X1.7369 Y1.0159 I0.0784 J0.0179
G3 X1.7375 Y1.0141 I0.0232 J0.0068
G3 X1.7376 Y1.0138 I0.0534 J0.0202
G1 F4.0 X1.7405 Y1.0105
G3 F8.0 X1.7337 Y0.9956 I0.013 J-0.0149
G1 Y0.9898
G1 X1.7313
G1 Y1.1213
G1 X1.737
G1 Y1.069
G3 X1.7383 Y1.0325 I0.3969 J-0.0037
G3 X1.7412 Y1.0171 I0.0758 J0.006
G3 X1.7416 Y1.0157 I0.019 J0.0056
G3 X1.743 Y1.0124 I0.0493 J0.0186
G3 X1.7405 Y1.0105 I0.0105 J-0.0168
G1 F4.0 X1.7463 Y1.0039
G2 F8.0 X1.7575 Y1.0059 I0.0072 J-0.0083
G2 X1.7499 Y1.0188 I0.0335 J0.0284
G2 X1.7496 Y1.0196 I0.0103 J0.0039
G2 X1.7471 Y1.0332 I0.0645 J0.019
G2 X1.7458 Y1.069 I0.3868 J0.032
G1 Y1.1301
G1 X1.7225
G1 Y0.981
G1 X1.7425
G1 Y0.9956
G2 X1.7463 Y1.0039 I0.011 J0.0
G0 Z0.125
G0 X1.6438 Y1.0899
G0 Z0.0625
G1 F4.0 Z-0.02
G3 F8.0 X1.6424 Y1.0951 I-0.1003 J-0.0232
G3 X1.6422 Y1.0958 I-0.0233 J-0.0067
G3 X1.6412 Y1.0987 I-0.0529 J-0.017
G3 X1.6438 Y1.1011 I-0.0149 J0.019
G1 Y1.0899
G1 F4.0 X1.6482
G1 F8.0 Y0.9898
G1 X1.6425
G1 Y1.0531
G3 X1.6419 Y1.0721 I-0.2583 J0.001
G3 X1.6382 Y1.0939 I-0.0984 J-0.0055
G3 X1.638 Y1.0945 I-0.019 J-0.0055
G3 X1.6357 Y1.1004 I-0.0488 J-0.0156
G3 X1.6461 Y1.1178 I-0.0095 J0.0174
G1 Y1.1213
G1 X1.6482
G1 Y1.0899
G0 Z0.125
G0 X1.5438 Y1.1031
G0 Z0.0625
G1 F4.0 Z-0.02
G3 F8.0 X1.5437 Y1.1028 I0.0428 J-0.0128
G3 Y1.1027 I0.0232 J-0.0068
G3 X1.5414 Y1.0904 I0.064 J-0.0183
G3 X1.541 Y1.0854 I0.1633 J-0.0168
G3 X1.5388 Y1.0943 I-0.1015 J-0.0203
G3 X1.5377 Y1.0975 I-0.0542 J-0.0159
G3 X1.5438 Y1.1031 I-0.0132 J0.0203
G1 F4.0 X1.548 Y1.1018
G3 F8.0 Y1.1016 I0.0386 J-0.0115
G3 X1.5479 Y1.1015 I0.019 J-0.0056
G3 X1.5458 Y1.0899 I0.0598 J-0.0171
G3 X1.5451 Y1.0809 I0.159 J-0.0164
G1 Y1.0808
G3 X1.5447 Y1.0638 I0.3605 J-0.0161
G1 Y0.9898
G1 X1.5391
G1 Y1.0521
G3 X1.5384 Y1.0713 I-0.242 J0.001
G3 X1.5346 Y1.093 I-0.0989 J-0.0062
G1 Y1.0931
G1 Y1.093
G3 X1.5322 Y1.0995 I-0.05 J-0.0147
G3 X1.542 Y1.1084 I-0.0076 J0.0183
G2 X1.554 Y1.1209 I0.0285 J-0.0153
G2 X1.5661 Y1.1248 I0.0175 J-0.0336
G3 X1.5641 Y1.1236 I0.0209 J-0.0381
G3 X1.5628 Y1.1228 I0.0105 J-0.0168
G3 X1.548 Y1.1018 I0.0238 J-0.0325
G0 Z0.125
G0 X1.4634 Y1.1245
G0 Z0.0625
G1 F4.0 Z-0.02
G3 F8.0 X1.4497 Y1.1115 I0.0209 J-0.0357
G3 X1.4489 Y1.1103 I0.0166 J-0.0109
G3 X1.444 Y1.0965 I0.0395 J-0.022
G3 X1.4425 Y1.0862 I0.0941 J-0.0187
G3 X1.4418 Y1.0678 I0.2005 J-0.0173
G1 Y0.9898
G1 X1.4361
G1 Y1.0794
G3 Y1.0795 I-0.0198 J0.0
G2 X1.4368 Y1.0955 I0.1601 J0.0009
G3 Y1.0958 I-0.0197 J0.0019
G2 X1.4394 Y1.1076 I0.0437 J-0.0033
G2 X1.4505 Y1.1202 I0.0245 J-0.0105
G2 X1.4601 Y1.1239 I0.0167 J-0.0287
G2 X1.4634 Y1.1245 I0.0117 J-0.0538
G1 F4.0 X1.462 Y1.1332
G2 F8.0 X1.4723 Y1.134 I0.0098 J-0.0631
G3 X1.4724 I0.0001 J0.011
G2 X1.4951 Y1.1285 I0.0002 J-0.0487
G2 X1.516 Y1.1109 I-0.0328 J-0.0601
G3 X1.5343 Y1.1126 I0.0086 J0.0068
G2 X1.5497 Y1.1286 I0.0362 J-0.0194
G2 X1.5727 Y1.134 I0.0218 J-0.0413
G3 X1.573 I0.0003 J0.011
G2 X1.5975 Y1.128 I0.0004 J-0.0514
G2 X1.6176 Y1.1109 I-0.033 J-0.0593
G3 X1.6373 Y1.1178 I0.0086 J0.0068
G1 Y1.1301
G1 X1.657
G1 Y0.981
G1 X1.6337
G1 Y1.0531
G3 X1.6331 Y1.0716 I-0.2495 J0.001
G3 X1.6297 Y1.0915 I-0.0896 J-0.0049
G3 X1.6296 Y1.0918 I-0.0106 J-0.003
G3 X1.6133 Y1.1138 I-0.0404 J-0.0129
G3 X1.6132 I-0.0062 J-0.0091
G3 X1.5884 Y1.1213 I-0.0246 J-0.0365
G3 X1.5687 Y1.1161 I-0.0014 J-0.0347
G3 X1.568 Y1.1157 I0.0058 J-0.0093
G3 X1.5564 Y1.0991 I0.0186 J-0.0254
G1 Y1.099
G3 X1.5545 Y1.0891 I0.0513 J-0.0147
G3 X1.5539 Y1.0805 I0.1502 J-0.0155
G1 Y1.0804
G3 X1.5535 Y1.0638 I0.3517 J-0.0157
G1 Y0.981
G1 X1.5303
G1 Y1.0522
G3 X1.5296 Y1.0707 I-0.2332 J0.001
G3 X1.5261 Y1.0906 I-0.0901 J-0.0056
G3 X1.5099 Y1.1135 I-0.0415 J-0.0122
G3 X1.4859 Y1.1213 I-0.0244 J-0.034
G3 X1.457 Y1.1067 I-0.0017 J-0.0325
G3 X1.4566 Y1.106 I0.0092 J-0.006
G3 X1.4526 Y1.0948 I0.0318 J-0.0177
G3 X1.4513 Y1.0855 I0.0855 J-0.0171
G1 Y1.0854
G3 X1.4506 Y1.0678 I0.1918 J-0.0165
G1 Y0.981
G1 X1.4273
G1 Y1.0794
G1 Y1.0795
G2 X1.428 Y1.0963 I0.1689 J0.0009
G3 X1.4281 Y1.0965 I-0.011 J0.001
G2 X1.4312 Y1.1108 I0.0525 J-0.004
G2 X1.446 Y1.1278 I0.0327 J-0.0137
G2 X1.4582 Y1.1325 I0.0212 J-0.0362
G2 X1.462 Y1.1332 I0.0136 J-0.0624
G0 Z0.125
G0 X1.9324 Y1.1841
G0 Z0.0625
G1 F4.0 Z-0.02
G1 F8.0 Y1.1864
G1 X1.9381
G1 Y1.1841
G1 X1.9324
G1 F4.0 Y1.1753
G1 F8.0 X1.9236
G1 Y1.1952
G1 X1.9469
G1 Y1.1753
G1 X1.9324
G0 Z0.125
M5
M30
