( Made using CamBam - http://www.cambam.co.uk )
( 034-selenium 11/18/2013 7:30:48 PM )
( T0 : 0.0313 )
G20 G90 G91.1 G64 G40
G0 Z0.125
( T0 : 0.0313 )
T0 M6
( Pocket1 )
G17
M3 S10000
G0 X0.7531 Y2.75
G0 Z0.0625
G1 F4.0 Z-0.0313
G2 F8.0 X0.7484 Y2.7473 I-0.0031 J0.0
G2 Y2.7527 I0.0016 J0.0027
G2 X0.7531 Y2.75 I0.0016 J-0.0027
G1 F4.0 X0.7594
G2 F8.0 X0.7453 Y2.7419 I-0.0094 J0.0
G2 Y2.7581 I0.0047 J0.0081
G2 X0.7594 Y2.75 I0.0047 J-0.0081
G1 F4.0 X0.7719
G2 F8.0 X0.7391 Y2.7311 I-0.0219 J0.0
G2 Y2.7689 I0.0109 J0.0189
G2 X0.7719 Y2.75 I0.0109 J-0.0189
G1 F4.0 X0.7844
G2 F8.0 X0.7328 Y2.7202 I-0.0344 J0.0
G2 Y2.7798 I0.0172 J0.0298
G2 X0.7844 Y2.75 I0.0172 J-0.0298
G1 F4.0 X0.7969
G2 F8.0 X0.7266 Y2.7094 I-0.0469 J0.0
G2 Y2.7906 I0.0234 J0.0406
G2 X0.7969 Y2.75 I0.0234 J-0.0406
G0 Z0.125
G0 X0.7531
G0 Z0.0312
G1 F4.0 Z-0.0625
G2 F8.0 X0.7484 Y2.7473 I-0.0031 J0.0
G2 Y2.7527 I0.0016 J0.0027
G2 X0.7531 Y2.75 I0.0016 J-0.0027
G1 F4.0 X0.7594
G2 F8.0 X0.7453 Y2.7419 I-0.0094 J0.0
G2 Y2.7581 I0.0047 J0.0081
G2 X0.7594 Y2.75 I0.0047 J-0.0081
G1 F4.0 X0.7719
G2 F8.0 X0.7391 Y2.7311 I-0.0219 J0.0
G2 Y2.7689 I0.0109 J0.0189
G2 X0.7719 Y2.75 I0.0109 J-0.0189
G1 F4.0 X0.7844
G2 F8.0 X0.7328 Y2.7202 I-0.0344 J0.0
G2 Y2.7798 I0.0172 J0.0298
G2 X0.7844 Y2.75 I0.0172 J-0.0298
G1 F4.0 X0.7969
G2 F8.0 X0.7266 Y2.7094 I-0.0469 J0.0
G2 Y2.7906 I0.0234 J0.0406
G2 X0.7969 Y2.75 I0.0234 J-0.0406
G0 Z0.125
G0 X0.7531
G0 Z0.0
G1 F4.0 Z-0.0938
G2 F8.0 X0.7484 Y2.7473 I-0.0031 J0.0
G2 Y2.7527 I0.0016 J0.0027
G2 X0.7531 Y2.75 I0.0016 J-0.0027
G1 F4.0 X0.7594
G2 F8.0 X0.7453 Y2.7419 I-0.0094 J0.0
G2 Y2.7581 I0.0047 J0.0081
G2 X0.7594 Y2.75 I0.0047 J-0.0081
G1 F4.0 X0.7719
G2 F8.0 X0.7391 Y2.7311 I-0.0219 J0.0
G2 Y2.7689 I0.0109 J0.0189
G2 X0.7719 Y2.75 I0.0109 J-0.0189
G1 F4.0 X0.7844
G2 F8.0 X0.7328 Y2.7202 I-0.0344 J0.0
G2 Y2.7798 I0.0172 J0.0298
G2 X0.7844 Y2.75 I0.0172 J-0.0298
G1 F4.0 X0.7969
G2 F8.0 X0.7266 Y2.7094 I-0.0469 J0.0
G2 Y2.7906 I0.0234 J0.0406
G2 X0.7969 Y2.75 I0.0234 J-0.0406
G0 Z0.125
G0 X0.7531
G0 Z-0.0323
G1 F4.0 Z-0.126
G2 F8.0 X0.7484 Y2.7473 I-0.0031 J0.0
G2 Y2.7527 I0.0016 J0.0027
G2 X0.7531 Y2.75 I0.0016 J-0.0027
G1 F4.0 X0.7594
G2 F8.0 X0.7453 Y2.7419 I-0.0094 J0.0
G2 Y2.7581 I0.0047 J0.0081
G2 X0.7594 Y2.75 I0.0047 J-0.0081
G1 F4.0 X0.7719
G2 F8.0 X0.7391 Y2.7311 I-0.0219 J0.0
G2 Y2.7689 I0.0109 J0.0189
G2 X0.7719 Y2.75 I0.0109 J-0.0189
G1 F4.0 X0.7844
G2 F8.0 X0.7328 Y2.7202 I-0.0344 J0.0
G2 Y2.7798 I0.0172 J0.0298
G2 X0.7844 Y2.75 I0.0172 J-0.0298
G1 F4.0 X0.7969
G2 F8.0 X0.7266 Y2.7094 I-0.0469 J0.0
G2 Y2.7906 I0.0234 J0.0406
G2 X0.7969 Y2.75 I0.0234 J-0.0406
G0 Z0.125
G0 X3.2469
G0 Z0.0625
G1 F4.0 Z-0.0313
G2 F8.0 X3.2484 Y2.7527 I0.0031 J0.0
G2 X3.2531 Y2.75 I0.0016 J-0.0027
G2 X3.2484 Y2.7473 I-0.0031 J0.0
G2 X3.2469 Y2.75 I0.0016 J0.0027
G1 F4.0 X3.2406
G2 F8.0 X3.2453 Y2.7581 I0.0094 J0.0
G2 X3.2594 Y2.75 I0.0047 J-0.0081
G2 X3.2453 Y2.7419 I-0.0094 J0.0
G2 X3.2406 Y2.75 I0.0047 J0.0081
G1 F4.0 X3.2281
G2 F8.0 X3.2391 Y2.7689 I0.0219 J0.0
G2 X3.2719 Y2.75 I0.0109 J-0.0189
G2 X3.2391 Y2.7311 I-0.0219 J0.0
G2 X3.2281 Y2.75 I0.0109 J0.0189
G1 F4.0 X3.2156
G2 F8.0 X3.2328 Y2.7798 I0.0344 J0.0
G2 X3.2844 Y2.75 I0.0172 J-0.0298
G2 X3.2328 Y2.7202 I-0.0344 J0.0
G2 X3.2156 Y2.75 I0.0172 J0.0298
G1 F4.0 X3.2031
G2 F8.0 X3.2266 Y2.7906 I0.0469 J0.0
G2 X3.2969 Y2.75 I0.0234 J-0.0406
G2 X3.2266 Y2.7094 I-0.0469 J0.0
G2 X3.2031 Y2.75 I0.0234 J0.0406
G0 Z0.125
G0 X3.2469
G0 Z0.0312
G1 F4.0 Z-0.0625
G2 F8.0 X3.2484 Y2.7527 I0.0031 J0.0
G2 X3.2531 Y2.75 I0.0016 J-0.0027
G2 X3.2484 Y2.7473 I-0.0031 J0.0
G2 X3.2469 Y2.75 I0.0016 J0.0027
G1 F4.0 X3.2406
G2 F8.0 X3.2453 Y2.7581 I0.0094 J0.0
G2 X3.2594 Y2.75 I0.0047 J-0.0081
G2 X3.2453 Y2.7419 I-0.0094 J0.0
G2 X3.2406 Y2.75 I0.0047 J0.0081
G1 F4.0 X3.2281
G2 F8.0 X3.2391 Y2.7689 I0.0219 J0.0
G2 X3.2719 Y2.75 I0.0109 J-0.0189
G2 X3.2391 Y2.7311 I-0.0219 J0.0
G2 X3.2281 Y2.75 I0.0109 J0.0189
G1 F4.0 X3.2156
G2 F8.0 X3.2328 Y2.7798 I0.0344 J0.0
G2 X3.2844 Y2.75 I0.0172 J-0.0298
G2 X3.2328 Y2.7202 I-0.0344 J0.0
G2 X3.2156 Y2.75 I0.0172 J0.0298
G1 F4.0 X3.2031
G2 F8.0 X3.2266 Y2.7906 I0.0469 J0.0
G2 X3.2969 Y2.75 I0.0234 J-0.0406
G2 X3.2266 Y2.7094 I-0.0469 J0.0
G2 X3.2031 Y2.75 I0.0234 J0.0406
G0 Z0.125
G0 X3.2469
G0 Z0.0
G1 F4.0 Z-0.0938
G2 F8.0 X3.2484 Y2.7527 I0.0031 J0.0
G2 X3.2531 Y2.75 I0.0016 J-0.0027
G2 X3.2484 Y2.7473 I-0.0031 J0.0
G2 X3.2469 Y2.75 I0.0016 J0.0027
G1 F4.0 X3.2406
G2 F8.0 X3.2453 Y2.7581 I0.0094 J0.0
G2 X3.2594 Y2.75 I0.0047 J-0.0081
G2 X3.2453 Y2.7419 I-0.0094 J0.0
G2 X3.2406 Y2.75 I0.0047 J0.0081
G1 F4.0 X3.2281
G2 F8.0 X3.2391 Y2.7689 I0.0219 J0.0
G2 X3.2719 Y2.75 I0.0109 J-0.0189
G2 X3.2391 Y2.7311 I-0.0219 J0.0
G2 X3.2281 Y2.75 I0.0109 J0.0189
G1 F4.0 X3.2156
G2 F8.0 X3.2328 Y2.7798 I0.0344 J0.0
G2 X3.2844 Y2.75 I0.0172 J-0.0298
G2 X3.2328 Y2.7202 I-0.0344 J0.0
G2 X3.2156 Y2.75 I0.0172 J0.0298
G1 F4.0 X3.2031
G2 F8.0 X3.2266 Y2.7906 I0.0469 J0.0
G2 X3.2969 Y2.75 I0.0234 J-0.0406
G2 X3.2266 Y2.7094 I-0.0469 J0.0
G2 X3.2031 Y2.75 I0.0234 J0.0406
G0 Z0.125
G0 X3.2469
G0 Z-0.0323
G1 F4.0 Z-0.126
G2 F8.0 X3.2484 Y2.7527 I0.0031 J0.0
G2 X3.2531 Y2.75 I0.0016 J-0.0027
G2 X3.2484 Y2.7473 I-0.0031 J0.0
G2 X3.2469 Y2.75 I0.0016 J0.0027
G1 F4.0 X3.2406
G2 F8.0 X3.2453 Y2.7581 I0.0094 J0.0
G2 X3.2594 Y2.75 I0.0047 J-0.0081
G2 X3.2453 Y2.7419 I-0.0094 J0.0
G2 X3.2406 Y2.75 I0.0047 J0.0081
G1 F4.0 X3.2281
G2 F8.0 X3.2391 Y2.7689 I0.0219 J0.0
G2 X3.2719 Y2.75 I0.0109 J-0.0189
G2 X3.2391 Y2.7311 I-0.0219 J0.0
G2 X3.2281 Y2.75 I0.0109 J0.0189
G1 F4.0 X3.2156
G2 F8.0 X3.2328 Y2.7798 I0.0344 J0.0
G2 X3.2844 Y2.75 I0.0172 J-0.0298
G2 X3.2328 Y2.7202 I-0.0344 J0.0
G2 X3.2156 Y2.75 I0.0172 J0.0298
G1 F4.0 X3.2031
G2 F8.0 X3.2266 Y2.7906 I0.0469 J0.0
G2 X3.2969 Y2.75 I0.0234 J-0.0406
G2 X3.2266 Y2.7094 I-0.0469 J0.0
G2 X3.2031 Y2.75 I0.0234 J0.0406
G0 Z0.125
G0 X3.2499 Y0.2531
G0 Z0.0625
G1 F4.0 Z-0.0313
G2 F8.0 X3.2531 Y0.25 I0.0001 J-0.0031
G2 X3.2484 Y0.2473 I-0.0031 J0.0
G2 Y0.2527 I0.0016 J0.0027
G2 X3.2499 Y0.2531 I0.0016 J-0.0027
G1 F4.0 X3.2498 Y0.2594
G2 F8.0 X3.2594 Y0.25 I0.0002 J-0.0094
G2 X3.2453 Y0.2419 I-0.0094 J0.0
G2 Y0.2581 I0.0047 J0.0081
G2 X3.2498 Y0.2594 I0.0047 J-0.0081
G1 F4.0 X3.2496 Y0.2719
G2 F8.0 X3.2719 Y0.25 I0.0004 J-0.0219
G2 X3.2391 Y0.2311 I-0.0219 J0.0
G2 Y0.2689 I0.0109 J0.0189
G2 X3.2496 Y0.2719 I0.0109 J-0.0189
G1 F4.0 X3.2494 Y0.2844
G2 F8.0 X3.2844 Y0.25 I0.0006 J-0.0344
G2 X3.2328 Y0.2202 I-0.0344 J0.0
G2 Y0.2798 I0.0172 J0.0298
G2 X3.2494 Y0.2844 I0.0172 J-0.0298
G1 F4.0 X3.2491 Y0.2969
G2 F8.0 X3.2969 Y0.25 I0.0009 J-0.0469
G2 X3.2266 Y0.2094 I-0.0469 J0.0
G2 Y0.2906 I0.0234 J0.0406
G2 X3.2491 Y0.2969 I0.0234 J-0.0406
G0 Z0.125
G0 X3.2499 Y0.2531
G0 Z0.0312
G1 F4.0 Z-0.0625
G2 F8.0 X3.2531 Y0.25 I0.0001 J-0.0031
G2 X3.2484 Y0.2473 I-0.0031 J0.0
G2 Y0.2527 I0.0016 J0.0027
G2 X3.2499 Y0.2531 I0.0016 J-0.0027
G1 F4.0 X3.2498 Y0.2594
G2 F8.0 X3.2594 Y0.25 I0.0002 J-0.0094
G2 X3.2453 Y0.2419 I-0.0094 J0.0
G2 Y0.2581 I0.0047 J0.0081
G2 X3.2498 Y0.2594 I0.0047 J-0.0081
G1 F4.0 X3.2496 Y0.2719
G2 F8.0 X3.2719 Y0.25 I0.0004 J-0.0219
G2 X3.2391 Y0.2311 I-0.0219 J0.0
G2 Y0.2689 I0.0109 J0.0189
G2 X3.2496 Y0.2719 I0.0109 J-0.0189
G1 F4.0 X3.2494 Y0.2844
G2 F8.0 X3.2844 Y0.25 I0.0006 J-0.0344
G2 X3.2328 Y0.2202 I-0.0344 J0.0
G2 Y0.2798 I0.0172 J0.0298
G2 X3.2494 Y0.2844 I0.0172 J-0.0298
G1 F4.0 X3.2491 Y0.2969
G2 F8.0 X3.2969 Y0.25 I0.0009 J-0.0469
G2 X3.2266 Y0.2094 I-0.0469 J0.0
G2 Y0.2906 I0.0234 J0.0406
G2 X3.2491 Y0.2969 I0.0234 J-0.0406
G0 Z0.125
G0 X3.2499 Y0.2531
G0 Z0.0
G1 F4.0 Z-0.0938
G2 F8.0 X3.2531 Y0.25 I0.0001 J-0.0031
G2 X3.2484 Y0.2473 I-0.0031 J0.0
G2 Y0.2527 I0.0016 J0.0027
G2 X3.2499 Y0.2531 I0.0016 J-0.0027
G1 F4.0 X3.2498 Y0.2594
G2 F8.0 X3.2594 Y0.25 I0.0002 J-0.0094
G2 X3.2453 Y0.2419 I-0.0094 J0.0
G2 Y0.2581 I0.0047 J0.0081
G2 X3.2498 Y0.2594 I0.0047 J-0.0081
G1 F4.0 X3.2496 Y0.2719
G2 F8.0 X3.2719 Y0.25 I0.0004 J-0.0219
G2 X3.2391 Y0.2311 I-0.0219 J0.0
G2 Y0.2689 I0.0109 J0.0189
G2 X3.2496 Y0.2719 I0.0109 J-0.0189
G1 F4.0 X3.2494 Y0.2844
G2 F8.0 X3.2844 Y0.25 I0.0006 J-0.0344
G2 X3.2328 Y0.2202 I-0.0344 J0.0
G2 Y0.2798 I0.0172 J0.0298
G2 X3.2494 Y0.2844 I0.0172 J-0.0298
G1 F4.0 X3.2491 Y0.2969
G2 F8.0 X3.2969 Y0.25 I0.0009 J-0.0469
G2 X3.2266 Y0.2094 I-0.0469 J0.0
G2 Y0.2906 I0.0234 J0.0406
G2 X3.2491 Y0.2969 I0.0234 J-0.0406
G0 Z0.125
G0 X3.2499 Y0.2531
G0 Z-0.0323
G1 F4.0 Z-0.126
G2 F8.0 X3.2531 Y0.25 I0.0001 J-0.0031
G2 X3.2484 Y0.2473 I-0.0031 J0.0
G2 Y0.2527 I0.0016 J0.0027
G2 X3.2499 Y0.2531 I0.0016 J-0.0027
G1 F4.0 X3.2498 Y0.2594
G2 F8.0 X3.2594 Y0.25 I0.0002 J-0.0094
G2 X3.2453 Y0.2419 I-0.0094 J0.0
G2 Y0.2581 I0.0047 J0.0081
G2 X3.2498 Y0.2594 I0.0047 J-0.0081
G1 F4.0 X3.2496 Y0.2719
G2 F8.0 X3.2719 Y0.25 I0.0004 J-0.0219
G2 X3.2391 Y0.2311 I-0.0219 J0.0
G2 Y0.2689 I0.0109 J0.0189
G2 X3.2496 Y0.2719 I0.0109 J-0.0189
G1 F4.0 X3.2494 Y0.2844
G2 F8.0 X3.2844 Y0.25 I0.0006 J-0.0344
G2 X3.2328 Y0.2202 I-0.0344 J0.0
G2 Y0.2798 I0.0172 J0.0298
G2 X3.2494 Y0.2844 I0.0172 J-0.0298
G1 F4.0 X3.2491 Y0.2969
G2 F8.0 X3.2969 Y0.25 I0.0009 J-0.0469
G2 X3.2266 Y0.2094 I-0.0469 J0.0
G2 Y0.2906 I0.0234 J0.0406
G2 X3.2491 Y0.2969 I0.0234 J-0.0406
G0 Z0.125
G0 X0.7531 Y0.2501
G0 Z0.0625
G1 F4.0 Z-0.0313
G1 F8.0 Y0.25
G2 X0.7484 Y0.2473 I-0.0031 J0.0
G2 Y0.2527 I0.0016 J0.0027
G2 X0.7531 Y0.2501 I0.0016 J-0.0027
G1 F4.0 X0.7594 Y0.2502
G2 F8.0 Y0.25 I-0.0094 J-0.0002
G2 X0.7453 Y0.2419 I-0.0094 J0.0
G2 Y0.2581 I0.0047 J0.0081
G2 X0.7594 Y0.2502 I0.0047 J-0.0081
G1 F4.0 X0.7719 Y0.2504
G2 F8.0 Y0.25 I-0.0219 J-0.0004
G2 X0.7391 Y0.2311 I-0.0219 J0.0
G2 Y0.2689 I0.0109 J0.0189
G2 X0.7719 Y0.2504 I0.0109 J-0.0189
G1 F4.0 X0.7844 Y0.2506
G2 F8.0 Y0.25 I-0.0344 J-0.0006
G2 X0.7328 Y0.2202 I-0.0344 J0.0
G2 Y0.2798 I0.0172 J0.0298
G2 X0.7844 Y0.2506 I0.0172 J-0.0298
G1 F4.0 X0.7969 Y0.2509
G2 F8.0 Y0.25 I-0.0469 J-0.0009
G2 X0.7266 Y0.2094 I-0.0469 J0.0
G2 Y0.2906 I0.0234 J0.0406
G2 X0.7969 Y0.2509 I0.0234 J-0.0406
G0 Z0.125
G0 X0.7531 Y0.2501
G0 Z0.0312
G1 F4.0 Z-0.0625
G1 F8.0 Y0.25
G2 X0.7484 Y0.2473 I-0.0031 J0.0
G2 Y0.2527 I0.0016 J0.0027
G2 X0.7531 Y0.2501 I0.0016 J-0.0027
G1 F4.0 X0.7594 Y0.2502
G2 F8.0 Y0.25 I-0.0094 J-0.0002
G2 X0.7453 Y0.2419 I-0.0094 J0.0
G2 Y0.2581 I0.0047 J0.0081
G2 X0.7594 Y0.2502 I0.0047 J-0.0081
G1 F4.0 X0.7719 Y0.2504
G2 F8.0 Y0.25 I-0.0219 J-0.0004
G2 X0.7391 Y0.2311 I-0.0219 J0.0
G2 Y0.2689 I0.0109 J0.0189
G2 X0.7719 Y0.2504 I0.0109 J-0.0189
G1 F4.0 X0.7844 Y0.2506
G2 F8.0 Y0.25 I-0.0344 J-0.0006
G2 X0.7328 Y0.2202 I-0.0344 J0.0
G2 Y0.2798 I0.0172 J0.0298
G2 X0.7844 Y0.2506 I0.0172 J-0.0298
G1 F4.0 X0.7969 Y0.2509
G2 F8.0 Y0.25 I-0.0469 J-0.0009
G2 X0.7266 Y0.2094 I-0.0469 J0.0
G2 Y0.2906 I0.0234 J0.0406
G2 X0.7969 Y0.2509 I0.0234 J-0.0406
G0 Z0.125
G0 X0.7531 Y0.2501
G0 Z0.0
G1 F4.0 Z-0.0938
G1 F8.0 Y0.25
G2 X0.7484 Y0.2473 I-0.0031 J0.0
G2 Y0.2527 I0.0016 J0.0027
G2 X0.7531 Y0.2501 I0.0016 J-0.0027
G1 F4.0 X0.7594 Y0.2502
G2 F8.0 Y0.25 I-0.0094 J-0.0002
G2 X0.7453 Y0.2419 I-0.0094 J0.0
G2 Y0.2581 I0.0047 J0.0081
G2 X0.7594 Y0.2502 I0.0047 J-0.0081
G1 F4.0 X0.7719 Y0.2504
G2 F8.0 Y0.25 I-0.0219 J-0.0004
G2 X0.7391 Y0.2311 I-0.0219 J0.0
G2 Y0.2689 I0.0109 J0.0189
G2 X0.7719 Y0.2504 I0.0109 J-0.0189
G1 F4.0 X0.7844 Y0.2506
G2 F8.0 Y0.25 I-0.0344 J-0.0006
G2 X0.7328 Y0.2202 I-0.0344 J0.0
G2 Y0.2798 I0.0172 J0.0298
G2 X0.7844 Y0.2506 I0.0172 J-0.0298
G1 F4.0 X0.7969 Y0.2509
G2 F8.0 Y0.25 I-0.0469 J-0.0009
G2 X0.7266 Y0.2094 I-0.0469 J0.0
G2 Y0.2906 I0.0234 J0.0406
G2 X0.7969 Y0.2509 I0.0234 J-0.0406
G0 Z0.125
G0 X0.7531 Y0.2501
G0 Z-0.0323
G1 F4.0 Z-0.126
G1 F8.0 Y0.25
G2 X0.7484 Y0.2473 I-0.0031 J0.0
G2 Y0.2527 I0.0016 J0.0027
G2 X0.7531 Y0.2501 I0.0016 J-0.0027
G1 F4.0 X0.7594 Y0.2502
G2 F8.0 Y0.25 I-0.0094 J-0.0002
G2 X0.7453 Y0.2419 I-0.0094 J0.0
G2 Y0.2581 I0.0047 J0.0081
G2 X0.7594 Y0.2502 I0.0047 J-0.0081
G1 F4.0 X0.7719 Y0.2504
G2 F8.0 Y0.25 I-0.0219 J-0.0004
G2 X0.7391 Y0.2311 I-0.0219 J0.0
G2 Y0.2689 I0.0109 J0.0189
G2 X0.7719 Y0.2504 I0.0109 J-0.0189
G1 F4.0 X0.7844 Y0.2506
G2 F8.0 Y0.25 I-0.0344 J-0.0006
G2 X0.7328 Y0.2202 I-0.0344 J0.0
G2 Y0.2798 I0.0172 J0.0298
G2 X0.7844 Y0.2506 I0.0172 J-0.0298
G1 F4.0 X0.7969 Y0.2509
G2 F8.0 Y0.25 I-0.0469 J-0.0009
G2 X0.7266 Y0.2094 I-0.0469 J0.0
G2 Y0.2906 I0.0234 J0.0406
G2 X0.7969 Y0.2509 I0.0234 J-0.0406
( Pocket3 )
S10000
G0 Z0.125
G0 X1.0719 Y0.5719
G0 Z0.0625
G1 F4.0 Z-0.02
G1 F8.0 Y0.5766
G3 X1.0766 Y0.5719 I0.0531 J0.0484
G1 X1.0719
G1 F4.0 X1.0656
G1 F8.0 Y0.5971
G3 X1.0971 Y0.5656 I0.0594 J0.0279
G1 X1.0656
G1 Y0.5719
G0 Z0.125
G0 X1.0719 Y2.4234
G0 Z0.0625
G1 F4.0 Z-0.02
G1 F8.0 Y2.4281
G1 X1.0766
G3 X1.0719 Y2.4234 I0.0484 J-0.0531
G1 F4.0 X1.0765 Y2.4192
G3 F8.0 X1.0656 Y2.4029 I0.0485 J-0.0442
G1 Y2.4344
G1 X1.0971
G3 X1.0765 Y2.4192 I0.0279 J-0.0594
G0 Z0.125
G0 X2.9234 Y2.4281
G0 Z0.0625
G1 F4.0 Z-0.02
G1 F8.0 X2.9281
G1 Y2.4234
G3 X2.9234 Y2.4281 I-0.0531 J-0.0484
G1 F4.0 X2.9192 Y2.4235
G3 F8.0 X2.9029 Y2.4344 I-0.0442 J-0.0485
G1 X2.9344
G1 Y2.4029
G3 X2.9192 Y2.4235 I-0.0594 J-0.0279
G0 Z0.125
G0 X2.9281 Y0.5766
G0 Z0.0625
G1 F4.0 Z-0.02
G1 F8.0 Y0.5719
G1 X2.9234
G3 X2.9281 Y0.5766 I-0.0484 J0.0531
G1 F4.0 X2.9344
G1 F8.0 Y0.5656
G1 X2.9029
G3 X2.9344 Y0.5971 I-0.0279 J0.0594
G1 Y0.5766
G0 Z0.125
G0 X2.8968 Y0.6073
G0 Z0.0625
G1 F4.0 Z-0.02
G3 F8.0 X2.9031 Y0.625 I-0.0218 J0.0177
G1 Y2.375
G3 X2.875 Y2.4031 I-0.0281 J0.0
G1 X1.125
G3 X1.0969 Y2.375 I0.0 J-0.0281
G1 Y0.625
G3 X1.125 Y0.5969 I0.0281 J0.0
G1 X2.875
G3 X2.8968 Y0.6073 I0.0 J0.0281
G1 F4.0 X2.8871 Y0.6151
G3 F8.0 X2.8906 Y0.625 I-0.0121 J0.0099
G1 Y2.375
G3 X2.875 Y2.3906 I-0.0156 J0.0
G1 X1.125
G3 X1.1094 Y2.375 I0.0 J-0.0156
G1 Y0.625
G3 X1.125 Y0.6094 I0.0156 J0.0
G1 X2.875
G3 X2.8871 Y0.6151 I0.0 J0.0156
G0 Z0.125
G0 X2.9065 Y0.5994
G0 Z0.0625
G1 F4.0 Z-0.02
G2 F8.0 X2.875 Y0.5844 I-0.0315 J0.0256
G1 X1.125
G2 X1.0844 Y0.625 I0.0 J0.0406
G1 Y2.375
G2 X1.125 Y2.4156 I0.0406 J0.0
G1 X2.875
G2 X2.9156 Y2.375 I0.0 J-0.0406
G1 Y0.625
G2 X2.9065 Y0.5994 I-0.0406 J0.0
G1 F4.0 X2.9162 Y0.5915
G2 F8.0 X2.875 Y0.5719 I-0.0412 J0.0335
G1 X1.125
G2 X1.0719 Y0.625 I0.0 J0.0531
G1 Y2.375
G2 X1.125 Y2.4281 I0.0531 J0.0
G1 X2.875
G2 X2.9281 Y2.375 I0.0 J-0.0531
G1 Y0.625
G2 X2.9162 Y0.5915 I-0.0531 J0.0
G0 Z0.125
G0 X2.9469
G0 Z0.0625
G1 F4.0 Z-0.02
G1 F8.0 Y0.5531
G1 X1.0531
G1 Y2.4469
G1 X2.9469
G1 Y0.5915
G1 F4.0 X2.9594
G1 F8.0 Y0.5406
G1 X1.0406
G1 Y2.4594
G1 X2.9594
G1 Y0.5915
G1 F4.0 X2.9719
G1 F8.0 Y0.5281
G1 X1.0281
G1 Y2.4719
G1 X2.9719
G1 Y0.5915
G1 F4.0 X2.9844
G1 F8.0 Y0.5156
G1 X1.0156
G1 Y2.4844
G1 X2.9844
G1 Y0.5915
G0 Z0.125
G0 X1.3974 Y2.0867
G0 Z0.0625
G1 F4.0 Z-0.02
G1 F8.0 X1.397
G3 X1.3972 Y2.087 I-0.0243 J0.0141
G1 X1.3974 Y2.0867
G0 Z0.125
G0 X1.277 Y2.0797
G0 Z0.0625
G1 F4.0 Z-0.02
G3 F8.0 X1.2699 Y2.0701 I0.0186 J-0.0211
G3 X1.2629 Y2.0797 I-0.0256 J-0.0116
G3 X1.2699 Y2.0893 I-0.0186 J0.0211
G3 X1.277 Y2.0797 I0.0256 J0.0115
G0 Z0.125
G0 X1.2724 Y2.207
G0 Z0.0625
G1 F4.0 Z-0.02
G1 F8.0 Y2.2328
G1 X1.2857 Y2.2173
G3 X1.2724 Y2.207 I0.0099 J-0.0263
G1 F4.0 X1.2599
G1 F8.0 Y2.266
G1 X1.2605
G1 X1.4167 Y2.0833
G1 Y2.0742
G1 X1.2956
G3 X1.2799 Y2.0585 I0.0 J-0.0156
G1 Y1.9956
G1 X1.2599
G1 Y2.0585
G3 X1.2443 Y2.0742 I-0.0156 J0.0
G1 X1.2296
G1 Y2.0852
G1 X1.2443
G3 X1.2599 Y2.1008 I0.0 J0.0156
G1 Y2.207
G0 Z0.125
G0 X1.2813 Y2.1974
G0 Z0.0625
G1 F4.0 Z-0.02
G3 F8.0 X1.2799 Y2.191 I0.0143 J-0.0064
G1 Y2.1008
G3 X1.2956 Y2.0852 I0.0156 J0.0
G1 X1.3727
G3 X1.3846 Y2.1109 I0.0 J0.0156
G1 X1.3074 Y2.2012
G3 X1.2813 Y2.1974 I-0.0119 J-0.0102
G0 Z0.125
G0 X1.5168 Y2.2151
G0 Z0.0625
G1 F4.0 Z-0.02
G2 F8.0 X1.5202 Y2.2289 I0.0534 J-0.0059
G2 X1.5219 Y2.2324 I0.0341 J-0.0145
G3 X1.5192 Y2.2251 I0.0535 J-0.0244
G3 X1.5168 Y2.2151 I0.0785 J-0.024
G1 F4.0 X1.5291 Y2.213
G3 F8.0 X1.5281 Y2.2003 I0.0685 J-0.0119
G3 X1.5332 Y2.1751 I0.0591 J-0.0012
G3 X1.5333 Y2.1748 I0.0143 J0.0064
G3 X1.5536 Y2.1539 I0.0412 J0.0196
G3 X1.5698 Y2.1482 I0.0284 J0.0546
G3 X1.582 Y2.1465 I0.019 J0.095
G1 Y2.1335
G3 X1.5624 Y2.1299 I0.0053 J-0.0853
G3 X1.5379 Y2.1158 I0.019 J-0.0612
G3 X1.5227 Y2.0942 I0.04 J-0.0442
G3 X1.5226 Y2.094 I0.0145 J-0.0059
G3 X1.518 Y2.0691 I0.0619 J-0.0243
G3 X1.5225 Y2.0417 I0.0773 J-0.0013
G3 X1.5226 Y2.0416 I0.0147 J0.0053
G3 X1.5423 Y2.0165 I0.0485 J0.0178
G3 X1.5425 Y2.0164 I0.0087 J0.013
G3 X1.5611 Y2.0083 I0.0332 J0.051
G3 X1.5846 Y2.0056 I0.0224 J0.0917
G3 X1.6204 Y2.0146 I-0.0002 J0.0765
G3 X1.6205 I-0.0073 J0.0138
G3 X1.633 Y2.0226 I-0.0497 J0.0918
G1 X1.6421 Y2.0086
G2 X1.6214 Y1.9977 I-0.054 J0.0777
G2 X1.5853 Y1.9915 I-0.0352 J0.0971
G3 X1.585 I-0.0001 J-0.0156
G2 X1.5478 Y1.996 I-0.0016 J0.1439
G1 X1.5477
G2 X1.5167 Y2.0116 I0.0198 J0.0781
G2 X1.4993 Y2.0351 I0.0373 J0.0457
G2 X1.4939 Y2.0657 I0.0761 J0.0292
G3 Y2.0662 I-0.0156 J0.0003
G2 X1.4992 Y2.0944 I0.0717 J0.0011
G2 X1.5159 Y2.1163 I0.0526 J-0.0228
G2 X1.5327 Y2.1269 I0.0525 J-0.065
G3 X1.5339 Y2.1545 I-0.0067 J0.0141
G2 X1.5114 Y2.1768 I0.0315 J0.0543
G2 X1.504 Y2.2075 I0.0544 J0.0294
G3 Y2.2081 I-0.0156 J0.0003
G2 X1.5086 Y2.2336 I0.0662 J0.0011
G2 X1.5233 Y2.2531 I0.0456 J-0.0192
G2 X1.5505 Y2.2663 I0.0437 J-0.0548
G1 Y2.2664
G2 X1.5833 Y2.2701 I0.0313 J-0.1274
G1 X1.5834
G2 X1.6182 Y2.2627 I-0.0006 J-0.0876
G3 X1.6184 Y2.2626 I0.0063 J0.0143
G2 X1.6324 Y2.2552 I-0.0357 J-0.0846
G2 X1.6342 Y2.254 I-0.0237 J-0.0374
G1 X1.6265 Y2.2426
G3 X1.6177 Y2.248 I-0.0558 J-0.0804
G3 X1.5869 Y2.2561 I-0.0315 J-0.0578
G3 X1.5559 Y2.25 I-0.0021 J-0.0716
G3 X1.5555 Y2.2498 I0.0063 J-0.0143
G3 X1.5311 Y2.2214 I0.0199 J-0.0418
G3 X1.5291 Y2.213 I0.0665 J-0.0203
( Pocket2 )
S10000
G0 Z0.125
G0 X2.1709 Y0.7201
G0 Z0.0625
G1 F4.0 Z-0.02
G2 F8.0 X2.1695 Y0.7149 I-0.0548 J0.0121
G2 X2.1609 Y0.7014 I-0.0306 J0.0102
G2 X2.1453 Y0.693 I-0.0258 J0.0291
G2 X2.1252 Y0.6905 I-0.0191 J0.0705
G3 X2.1249 I-0.0002 J-0.013
G2 X2.1046 Y0.6931 I-0.0009 J0.072
G2 X2.0884 Y0.7019 I0.0116 J0.0409
G2 X2.0792 Y0.7153 I0.0223 J0.0252
G2 X2.0762 Y0.733 I0.0473 J0.017
G2 X2.0782 Y0.7426 I0.0255 J-0.0004
G1 X2.0783 Y0.7427
G2 X2.0841 Y0.753 I0.0485 J-0.0203
G3 X2.0842 Y0.7533 I-0.0106 J0.0076
G2 X2.0923 Y0.7628 I0.0505 J-0.0346
G2 X2.1013 Y0.7691 I0.0236 J-0.0244
G3 X2.102 Y0.7922 I-0.0056 J0.0117
G2 X2.0954 Y0.7974 I0.0127 J0.0231
G1 X2.0953
G2 X2.0892 Y0.8053 I0.0381 J0.0357
G3 X2.0891 Y0.8055 I-0.011 J-0.0069
G2 X2.0847 Y0.8144 I0.0384 J0.0246
G2 X2.0832 Y0.8226 I0.0228 J0.0084
G2 X2.0856 Y0.8364 I0.037 J0.0005
G2 X2.0931 Y0.8468 I0.0252 J-0.0102
G2 X2.1067 Y0.8541 I0.0227 J-0.0262
G2 X2.1243 Y0.8563 I0.0168 J-0.0618
G3 X2.1245 I0.0002 J0.013
G2 X2.1413 Y0.854 I0.0006 J-0.0575
G2 X2.1551 Y0.8466 I-0.0113 J-0.0375
G3 X2.1552 Y0.8465 I0.0083 J0.01
G2 X2.1629 Y0.8363 I-0.0173 J-0.0212
G2 X2.1655 Y0.8228 I-0.0317 J-0.013
G2 X2.1609 Y0.8067 I-0.0322 J0.0005
G3 X2.1607 Y0.8063 I0.0111 J-0.0067
G2 X2.1481 Y0.7926 I-0.0356 J0.0199
G3 X2.1488 Y0.7706 I0.0073 J-0.0107
G2 X2.1659 Y0.7538 I-0.025 J-0.0425
G3 X2.166 Y0.7536 I0.0111 J0.0068
G2 X2.1722 Y0.733 I-0.0328 J-0.0211
G2 X2.1709 Y0.7201 I-0.0561 J-0.0008
G1 F4.0 X2.1639 Y0.7219
G3 F8.0 X2.1652 Y0.7333 I-0.0393 J0.0104
G3 X2.1554 Y0.7622 I-0.047 J0.0001
G3 X2.1552 Y0.7624 I-0.0103 J-0.008
G3 X2.1341 Y0.7799 I-0.0535 J-0.0429
G3 X2.1215 Y0.7798 I-0.0061 J-0.0115
G3 X2.104 Y0.7678 I0.0646 J-0.1128
G3 X2.0884 Y0.7497 I0.0405 J-0.0509
G3 X2.0883 Y0.7496 I0.0112 J-0.0066
G3 X2.0832 Y0.7309 I0.0339 J-0.0192
G3 X2.0959 Y0.7025 I0.0359 J-0.001
G3 X2.1103 Y0.6946 I0.026 J0.0305
G1 X2.1104
G3 X2.1249 Y0.6925 I0.0143 J0.0479
G3 X2.154 Y0.7043 I0.0011 J0.0392
G3 X2.1542 Y0.7045 I-0.0093 J0.0091
G3 X2.1639 Y0.7219 I-0.0296 J0.0278
G0 Z0.125
G0 X2.1311 Y0.7847
G0 Z0.0625
G1 F4.0 Z-0.02
G3 F8.0 X2.1474 Y0.7975 I-0.0265 J0.0507
G3 X2.1546 Y0.8077 I-0.0355 J0.0329
G3 X2.1585 Y0.8224 I-0.029 J0.0154
G3 X2.1533 Y0.8413 I-0.0324 J0.0012
G3 X2.1527 Y0.8421 I-0.0109 J-0.0071
G3 X2.1348 Y0.8532 I-0.0234 J-0.0179
G3 X2.1246 Y0.8542 I-0.01 J-0.0474
G3 X2.101 Y0.8464 I-0.0013 J-0.0356
G3 X2.1008 Y0.8462 I0.0081 J-0.0101
G3 X2.0903 Y0.8226 I0.0192 J-0.0226
G3 X2.0928 Y0.8098 I0.0379 J0.0008
G3 X2.0977 Y0.7999 I0.0542 J0.0204
G3 X2.1048 Y0.7907 I0.0446 J0.027
G3 X2.1158 Y0.7828 I0.0272 J0.0262
G3 X2.1263 Y0.7825 I0.0056 J0.0117
G3 X2.1311 Y0.7847 I-0.0218 J0.0529
G0 Z0.125
G0 X2.2323 Y0.8426
G0 Z0.0625
G1 F4.0 Z-0.02
G1 F8.0 X2.2291 Y0.8485
G1 X2.2359
G3 X2.2323 Y0.8426 I0.0134 J-0.0123
G1 F4.0 X2.2371 Y0.8408
G3 F8.0 X2.2379 Y0.83 I0.0122 J-0.0045
G2 X2.2673 Y0.7733 I-1.301 J-0.7107
G2 X2.2935 Y0.7154 I-0.8479 J-0.418
G2 X2.3022 Y0.693 I-0.5321 J-0.2188
G1 X2.2937
G3 X2.2856 Y0.7154 I-0.4397 J-0.1469
G3 X2.2701 Y0.7527 I-0.7857 J-0.3044
G3 X2.2522 Y0.7916 I-1.0712 J-0.4697
G3 X2.2346 Y0.827 I-1.2467 J-0.5968
G3 X2.2345 Y0.8271 I-0.0116 J-0.0059
G1 X2.2204 Y0.8537
G1 X2.3215
G1 Y0.8493
G1 X2.2493
G3 X2.2371 Y0.8408 I0.0 J-0.013
G0 Z0.125
G0 X2.0069 Y0.699
G0 Z0.0625
G1 F4.0 Z-0.02
G2 F8.0 X2.0074 Y0.697 I-0.0032 J-0.002
G3 Y0.6963 I0.0182 J-0.0004
G2 X2.0062 Y0.6933 I-0.0042 J-0.0001
G3 X2.006 Y0.693 I0.0128 J-0.0129
G2 X2.0031 Y0.6919 I-0.0028 J0.0027
G3 X2.0025 Y0.6918 I-0.0003 J-0.0182
G2 X1.9998 Y0.6929 I-0.0001 J0.0035
G3 X1.9993 Y0.6934 I-0.0132 J-0.0126
G2 X1.9981 Y0.6963 I0.0027 J0.0028
G3 Y0.697 I-0.0182 J0.0003
G2 X1.9992 Y0.6996 I0.0035 J0.0001
G3 X1.9998 Y0.7002 I-0.0126 J0.0132
G2 X2.0025 Y0.7013 I0.0026 J-0.0024
G3 X2.0031 I0.0003 J0.0182
G2 X2.006 Y0.7001 I0.0001 J-0.0039
G3 X2.0063 Y0.6997 I0.0131 J0.0127
G2 X2.0069 Y0.699 I-0.0026 J-0.0027
G1 F4.0 X2.0113 Y0.7017
G2 F8.0 X2.0126 Y0.6969 I-0.0076 J-0.0047
G3 Y0.6964 I0.013 J-0.0003
G2 X2.0099 Y0.6896 I-0.0094 J-0.0002
G3 X2.0097 Y0.6894 I0.0092 J-0.0092
G2 X2.003 Y0.6867 I-0.0066 J0.0064
G3 X2.0026 I-0.0002 J-0.013
G2 X1.9961 Y0.6894 I-0.0002 J0.0087
G3 X1.9957 Y0.6897 I-0.0094 J-0.009
G2 X1.9929 Y0.6964 I0.0064 J0.0066
G3 Y0.6969 I-0.013 J0.0002
G2 X1.9956 Y0.7033 I0.0087 J0.0002
G3 X1.9961 Y0.7038 I-0.009 J0.0094
G2 X2.0026 Y0.7065 I0.0063 J-0.006
G3 X2.003 I0.0002 J0.013
G2 X2.0097 Y0.7037 I0.0001 J-0.0091
G3 X2.01 Y0.7035 I0.0093 J0.009
G2 X2.0113 Y0.7017 I-0.0062 J-0.0064
G0 Z0.125
G0 X1.9078 Y0.7774
G0 Z0.0625
G1 F4.0 Z-0.02
G3 F8.0 X1.9149 Y0.7924 I-0.0354 J0.0259
G3 X1.9169 Y0.8086 I-0.0612 J0.0156
G3 X1.9151 Y0.8242 I-0.0629 J0.0006
G3 X1.9071 Y0.8405 I-0.0415 J-0.0102
G3 X1.8781 Y0.8542 I-0.0282 J-0.022
G3 X1.8587 Y0.8503 I-0.0008 J-0.0456
G3 X1.8584 Y0.8501 I0.0053 J-0.0119
G3 X1.8422 Y0.8344 I0.0153 J-0.0321
G3 X1.8377 Y0.8219 I0.0422 J-0.0219
G1 Y0.8218
G3 X1.8363 Y0.8068 I0.0727 J-0.0146
G3 X1.8404 Y0.7841 I0.0566 J-0.0014
G3 X1.8405 Y0.7839 I0.012 J0.0049
G3 X1.8615 Y0.7645 I0.0322 J0.0138
G1 X1.8616
G3 X1.8777 Y0.762 I0.0155 J0.0467
G3 X1.9068 Y0.7759 I0.0004 J0.0362
G3 X1.9078 Y0.7774 I-0.0343 J0.0273
G0 Z0.125
G0 X1.8479 Y0.7661
G0 Z0.0625
G1 F4.0 Z-0.02
G3 F8.0 X1.8401 Y0.7553 I0.0098 J-0.0153
G2 X1.8391 Y0.7578 I0.1186 J0.0503
G2 X1.8332 Y0.7877 I0.0764 J0.0304
G2 Y0.7894 I0.1352 J0.0012
G3 X1.8356 Y0.7822 I0.0597 J0.016
G3 X1.8358 Y0.7819 I0.0168 J0.0068
G3 X1.8479 Y0.7661 I0.037 J0.0158
G1 F4.0 X1.8507 Y0.7617
G3 F8.0 X1.8459 Y0.7452 I0.007 J-0.011
G3 X1.8713 Y0.7092 I0.1129 J0.0527
G1 X1.8714 Y0.7091
G3 X1.8918 Y0.6923 I0.1089 J0.1114
G1 X1.8909 Y0.6913
G2 X1.8722 Y0.7026 I0.0239 J0.0611
G2 X1.8508 Y0.7261 I0.0808 J0.0951
G3 X1.8506 Y0.7263 I-0.0106 J-0.0075
G2 X1.8342 Y0.7559 I0.108 J0.0793
G2 X1.828 Y0.7876 I0.0812 J0.0323
G2 X1.8303 Y0.8141 I0.1404 J0.0012
G3 Y0.8142 I-0.0128 J0.0023
G2 X1.8387 Y0.8369 I0.0661 J-0.0115
G2 X1.8484 Y0.8475 I0.0332 J-0.0205
G2 X1.867 Y0.8552 I0.0255 J-0.0355
G3 X1.8672 I-0.002 J0.0128
G2 X1.88 Y0.8563 I0.0124 J-0.0725
G3 X1.8804 I0.0001 J0.013
G2 X1.9117 Y0.8432 I0.0011 J-0.0415
G3 X1.9118 I0.0095 J0.0089
G2 X1.9215 Y0.8272 I-0.0313 J-0.03
G2 X1.9245 Y0.8075 I-0.0574 J-0.019
G3 Y0.8072 I0.013 J-0.0002
G2 X1.9216 Y0.7876 I-0.0615 J-0.0008
G2 X1.9123 Y0.7723 I-0.0376 J0.0124
G1 X1.9122 Y0.7722
G2 X1.8978 Y0.7629 I-0.0279 J0.0273
G2 X1.8796 Y0.7599 I-0.0175 J0.0499
G3 X1.8793 I-0.0002 J-0.013
G2 X1.8703 Y0.7606 I-0.0003 J0.0588
G1 X1.8702
G2 X1.8628 Y0.7626 I0.0042 J0.0288
G3 X1.8507 Y0.7617 I-0.0052 J-0.0119
G0 Z0.125
G0 X1.7649 Y0.7598
G0 Z0.0625
G1 F4.0 Z-0.02
G2 F8.0 X1.765 Y0.7585 I-0.0823 J-0.0018
G2 Y0.7567 I-0.1397 J-0.0008
G3 X1.7625 Y0.7639 I-0.0597 J-0.0161
G3 X1.7624 Y0.7642 I-0.0168 J-0.0068
G3 X1.7522 Y0.7784 I-0.037 J-0.0158
G3 X1.7592 Y0.7883 I-0.0106 J0.0148
G2 X1.7649 Y0.7598 I-0.0765 J-0.0303
G1 F4.0 X1.7701 Y0.7599
G2 F8.0 X1.7702 Y0.7585 I-0.0875 J-0.0019
G2 X1.7685 Y0.7358 I-0.1449 J-0.0009
G2 X1.7626 Y0.7154 I-0.0772 J0.0114
G2 X1.7557 Y0.7046 I-0.0415 J0.0189
G2 X1.7425 Y0.6949 I-0.0281 J0.0245
G2 X1.7184 Y0.6905 I-0.0228 J0.0558
G3 X1.718 I-0.0003 J-0.013
G2 X1.7006 Y0.6936 I-0.0005 J0.0466
G2 X1.6865 Y0.7033 I0.0154 J0.0376
G3 X1.6864 Y0.7034 I-0.0094 J-0.0089
G2 X1.6767 Y0.7191 I0.0308 J0.0298
G2 X1.6737 Y0.7386 I0.0561 J0.0188
G3 Y0.7389 I-0.013 J0.0002
G2 X1.6766 Y0.7584 I0.061 J0.0008
G2 X1.6859 Y0.7737 I0.0377 J-0.0125
G3 X1.686 Y0.7738 I-0.0093 J0.0091
G2 X1.7004 Y0.7832 I0.0276 J-0.0266
G2 X1.7186 Y0.7862 I0.0175 J-0.0497
G2 X1.7268 Y0.7849 I-0.0005 J-0.0306
G1 X1.7269
G2 X1.7338 Y0.7825 I-0.019 J-0.0653
G3 X1.7205 Y0.7842 I-0.0127 J-0.0476
G3 X1.6914 Y0.77 I-0.0005 J-0.0359
G3 X1.6833 Y0.7536 I0.0344 J-0.0273
G3 X1.6813 Y0.7375 I0.0605 J-0.0156
G3 X1.6831 Y0.722 I0.062 J-0.0006
G3 X1.6911 Y0.7058 I0.0409 J0.0101
G3 X1.6912 Y0.7057 I0.0102 J0.0081
G3 X1.7045 Y0.6956 I0.0275 J0.0225
G3 X1.7047 Y0.6955 I0.0052 J0.0119
G3 X1.72 Y0.6925 I0.015 J0.0359
G3 X1.7392 Y0.6963 I0.0009 J0.0463
G3 X1.7394 Y0.6964 I-0.0051 J0.0119
G3 X1.7559 Y0.7118 I-0.0147 J0.0321
G3 X1.7604 Y0.7243 I-0.0407 J0.0219
G3 X1.7619 Y0.7393 I-0.0703 J0.0145
G3 X1.7577 Y0.762 I-0.0566 J0.0014
G3 Y0.7622 I-0.012 J-0.0049
G3 X1.7399 Y0.7804 I-0.0322 J-0.0138
G3 X1.7538 Y0.7979 I0.0018 J0.0129
G3 X1.7432 Y0.8177 I-0.0847 J-0.0323
G3 X1.7297 Y0.8341 I-0.1095 J-0.0767
G3 X1.7064 Y0.8539 I-0.1059 J-0.1009
G1 X1.7072 Y0.8548
G2 X1.726 Y0.8435 I-0.024 J-0.0612
G1 X1.7261 Y0.8434
G2 X1.7475 Y0.8199 I-0.0815 J-0.0958
G3 X1.7477 Y0.8197 I0.0106 J0.0075
G2 X1.764 Y0.7902 I-0.1075 J-0.0788
G2 X1.7701 Y0.7599 I-0.0814 J-0.0322
( Pocket4 )
S10000
G0 Z0.125
G0 X2.6965 Y1.0385
G0 Z0.0625
G1 F4.0 Z-0.02
G2 F8.0 X2.694 Y1.0321 I-0.0881 J0.0303
G2 X2.6795 Y1.0122 I-0.052 J0.0226
G2 X2.6555 Y1.0001 I-0.0383 J0.0464
G1 X2.6554
G2 X2.6466 Y0.9983 I-0.0295 J0.1191
G3 X2.6475 Y0.9985 I-0.0222 J0.084
G3 X2.6716 Y1.0112 I-0.0172 J0.0619
G3 X2.6721 Y1.0116 I-0.0133 J0.0159
G3 X2.6887 Y1.0345 I-0.0435 J0.049
G3 X2.6905 Y1.0391 I-0.0913 J0.0399
G1 X2.6965 Y1.0385
G0 Z0.125
G0 X2.6629 Y1.1134
G0 Z0.0625
G1 F4.0 Z-0.02
G2 F8.0 X2.6582 Y1.1115 I-0.0403 J0.0898
G2 X2.6327 Y1.1036 I-0.0737 J0.1922
G3 X2.5934 Y1.093 I0.1632 J-0.6825
G3 X2.5926 Y1.0927 I0.006 J-0.0198
G3 X2.5804 Y1.0873 I0.0267 J-0.0771
G3 X2.5666 Y1.0764 I0.0224 J-0.0423
G3 X2.5665 Y1.0762 I0.0156 J-0.0136
G3 X2.5566 Y1.0484 I0.0318 J-0.027
G3 X2.5623 Y1.0259 I0.0471 J0.0001
G3 X2.5625 Y1.0257 I0.0182 J0.0099
G3 X2.576 Y1.0097 I0.0487 J0.0275
G3 X2.5761 Y1.0096 I0.013 J0.0161
G3 X2.5975 Y0.9987 I0.0377 J0.0475
G2 X2.5805 Y1.0036 I0.0156 J0.0862
G2 X2.5583 Y1.0219 I0.0177 J0.044
G3 X2.5582 Y1.0221 I-0.0174 J-0.0112
G2 X2.5503 Y1.0488 I0.041 J0.0267
G3 Y1.049 I-0.0207 J0.0
G2 X2.5518 Y1.0637 I0.0644 J0.0005
G2 X2.5567 Y1.0755 I0.0377 J-0.0086
G2 X2.5745 Y1.0919 I0.0377 J-0.0231
G2 X2.5963 Y1.1005 I0.0595 J-0.118
G3 X2.5965 Y1.1006 I-0.0059 J0.0198
G2 X2.6211 Y1.1072 I0.1072 J-0.3478
G3 X2.6576 Y1.1182 I-0.0547 J0.2482
G1 X2.6577
G3 X2.6729 Y1.1267 I-0.0229 J0.059
G3 X2.673 Y1.1268 I-0.0125 J0.0165
G3 X2.6882 Y1.1573 I-0.0237 J0.0308
G3 X2.6717 Y1.1893 I-0.0379 J0.0007
G3 X2.6666 Y1.1925 I-0.0363 J-0.052
G2 X2.6857 Y1.1765 I-0.0173 J-0.0402
G2 X2.6924 Y1.1544 I-0.0333 J-0.0221
G3 Y1.1541 I0.0207 J0.0
G2 X2.6888 Y1.1369 I-0.0408 J-0.0004
G2 X2.6777 Y1.1224 I-0.0409 J0.0197
G2 X2.6694 Y1.1167 I-0.0294 J0.0338
G3 X2.6693 Y1.1166 I0.0097 J-0.0183
G2 X2.6629 Y1.1134 I-0.0468 J0.0866
G0 Z0.125
G0 X2.5975 Y1.1965
G0 Z0.0625
G1 F4.0 Z-0.02
G3 F8.0 X2.5847 Y1.1892 I0.021 J-0.0516
G3 X2.5843 Y1.1888 I0.0126 J-0.0165
G3 X2.5693 Y1.1692 I0.0325 J-0.0404
G3 X2.5687 Y1.168 I0.071 J-0.0313
G1 X2.5612 Y1.1683
G2 X2.5615 Y1.169 I0.0521 J-0.0213
G2 X2.5734 Y1.1849 I0.0413 J-0.0185
G2 X2.5963 Y1.1962 I0.035 J-0.0422
G3 X2.5965 I-0.0046 J0.0202
G2 X2.5975 Y1.1965 I0.0287 J-0.1225
G1 F4.0 X2.5955 Y1.2055
G2 F8.0 X2.6267 Y1.2087 I0.0297 J-0.1317
G3 X2.6269 I0.0001 J0.0115
G2 X2.6488 Y1.2071 I0.0007 J-0.1365
G2 X2.669 Y1.2014 I-0.0135 J-0.0867
G3 X2.6691 I0.0044 J0.0106
G2 X2.6934 Y1.1816 I-0.0199 J-0.0492
G2 X2.7016 Y1.1544 I-0.041 J-0.0272
G3 Y1.1542 I0.0115 J0.0
G2 X2.6971 Y1.133 I-0.05 J-0.0005
G2 X2.6838 Y1.1155 I-0.0493 J0.0236
G2 X2.6737 Y1.1086 I-0.0354 J0.0407
G1 Y1.1085
G2 X2.6616 Y1.1029 I-0.0512 J0.0947
G2 X2.6348 Y1.0946 I-0.077 J0.2008
G3 X2.596 Y1.0841 I0.1611 J-0.6736
G3 X2.5956 Y1.084 I0.0033 J-0.011
G3 X2.5847 Y1.0792 I0.0237 J-0.0684
G3 X2.5736 Y1.0704 I0.0181 J-0.0341
G3 X2.5735 Y1.0703 I0.0087 J-0.0075
G3 X2.5658 Y1.0485 I0.0248 J-0.0211
G3 X2.5704 Y1.0303 I0.0379 J0.0
G3 X2.5705 Y1.0302 I0.0101 J0.0055
G3 X2.5818 Y1.0168 I0.0407 J0.023
G3 X2.5819 I0.0072 J0.0089
G3 X2.6031 Y1.0067 I0.032 J0.0403
G3 X2.6237 Y1.0046 I0.0197 J0.0886
G3 X2.645 Y1.0074 I0.0008 J0.0776
G3 X2.6657 Y1.0182 I-0.0147 J0.053
G3 X2.6659 Y1.0185 I-0.0074 J0.0088
G3 X2.6802 Y1.0382 I-0.0374 J0.0421
G3 X2.6842 Y1.049 I-0.0829 J0.0363
G1 X2.7083 Y1.0466
G2 X2.7025 Y1.0285 I-0.0999 J0.0222
G2 X2.6855 Y1.0052 I-0.0604 J0.0263
G2 X2.6577 Y0.9912 I-0.0443 J0.0534
G1 X2.6576
G2 X2.6243 Y0.9873 I-0.0318 J0.128
G3 X2.6241 I-0.0001 J-0.0115
G2 X2.5997 Y0.989 I-0.0009 J0.1654
G1 X2.5996
G2 X2.577 Y0.995 I0.0134 J0.0958
G2 X2.5505 Y1.017 I0.0211 J0.0525
G1 Y1.0171
G2 X2.5411 Y1.0488 I0.0487 J0.0317
G1 Y1.0489
G2 X2.5429 Y1.0657 I0.0736 J0.0006
G2 X2.5488 Y1.0803 I0.0467 J-0.0106
G1 X2.5489
G2 X2.5703 Y1.1001 I0.0455 J-0.0279
G2 X2.5937 Y1.1093 I0.0636 J-0.1262
G3 X2.5938 Y1.1094 I-0.0033 J0.011
G2 X2.6191 Y1.1162 I0.1099 J-0.3566
G3 X2.6543 Y1.1268 I-0.0527 J0.2392
G3 X2.6673 Y1.134 I-0.0196 J0.0504
G3 X2.6674 Y1.1341 I-0.0069 J0.0092
G3 X2.679 Y1.1574 I-0.0181 J0.0235
G3 X2.6664 Y1.1817 I-0.0287 J0.0006
G3 X2.6467 Y1.1903 I-0.031 J-0.0444
G3 X2.6274 Y1.1923 I-0.0186 J-0.0853
G3 X2.6093 Y1.1905 I-0.0008 J-0.0838
G3 X2.5903 Y1.1819 I0.0091 J-0.0456
G3 X2.59 Y1.1817 I0.007 J-0.0091
G3 X2.5777 Y1.1655 I0.0268 J-0.0333
G3 X2.575 Y1.1585 I0.0626 J-0.0276
G1 X2.549 Y1.1597
G2 X2.5531 Y1.1727 I0.0642 J-0.0126
G2 X2.5674 Y1.192 I0.0497 J-0.0221
G2 X2.5943 Y1.2052 I0.0409 J-0.0492
G1 X2.5944
G2 X2.5955 Y1.2055 I0.0308 J-0.1314
G0 Z0.125
G0 X2.4585 Y1.1124
G0 Z0.0625
G1 F4.0 Z-0.02
G3 F8.0 X2.4549 Y1.1171 I-0.0387 J-0.0263
G3 X2.4217 Y1.1318 I-0.0324 J-0.0282
G3 X2.3897 Y1.1178 I-0.0004 J-0.0425
G3 X2.3793 Y1.0992 I0.0337 J-0.031
G3 X2.3766 Y1.0804 I0.069 J-0.0197
G3 X2.3881 Y1.0687 I0.0115 J-0.0001
G1 X2.4558
G3 X2.4673 Y1.08 I0.0 J0.0115
G3 X2.4649 Y1.0989 I-0.0649 J0.0014
G3 X2.4585 Y1.1124 I-0.045 J-0.0128
G0 Z0.125
G0 X2.4777 Y1.0676
G0 Z0.0625
G1 F4.0 Z-0.02
G2 F8.0 Y1.0664 I-0.0972 J-0.0018
G3 X2.4773 Y1.067 I-0.0211 J-0.0139
G3 X2.4777 Y1.0676 I-0.0215 J0.0132
G1 F4.0 X2.4823 Y1.0677
G2 F8.0 Y1.0645 I-0.1018 J-0.0019
G3 Y1.0641 I0.0207 J-0.0003
G2 X2.4792 Y1.0386 I-0.0989 J-0.0009
G2 X2.4693 Y1.0174 I-0.0621 J0.0161
G2 X2.4656 Y1.013 I-0.0372 J0.0272
G3 X2.4738 Y1.0298 I-0.0483 J0.0339
G3 X2.4773 Y1.0523 I-0.0774 J0.0234
G3 X2.4715 Y1.0668 I-0.0207 J0.0002
G3 X2.4764 Y1.0798 I-0.0158 J0.0134
G3 X2.4737 Y1.1014 I-0.0741 J0.0016
G3 X2.4696 Y1.1118 I-0.0539 J-0.0153
G2 X2.4783 Y1.0939 I-0.047 J-0.034
G2 X2.4823 Y1.0677 I-0.0978 J-0.0281
G0 Z0.125
G0 X2.3686 Y1.0732
G0 Z0.0625
G1 F4.0 Z-0.02
G1 F8.0 X2.3645
G2 X2.3654 Y1.0802 I0.1656 J-0.016
G3 Y1.0803 I-0.0205 J0.0029
G2 X2.3693 Y1.0968 I0.0866 J-0.0116
G3 X2.3674 Y1.0805 I0.0791 J-0.0173
G3 X2.3686 Y1.0732 I0.0207 J-0.0002
G1 F4.0 Y1.064
G1 F8.0 X2.3547
G2 X2.3563 Y1.0814 I0.1754 J-0.0068
G1 Y1.0815
G2 X2.3637 Y1.1077 I0.0957 J-0.0129
G2 X2.3729 Y1.1222 I0.0541 J-0.0246
G1 X2.373
G2 X2.3957 Y1.1384 I0.0447 J-0.0385
G2 X2.4243 Y1.1435 I0.0275 J-0.072
G3 X2.4248 I0.0002 J0.0115
G2 X2.4722 Y1.1231 I0.0016 J-0.0616
G2 X2.4872 Y1.0965 I-0.0496 J-0.0453
G2 X2.4915 Y1.0644 I-0.1067 J-0.0307
G3 Y1.0642 I0.0115 J-0.0001
G2 X2.4881 Y1.0363 I-0.1081 J-0.001
G2 X2.4767 Y1.012 I-0.071 J0.0184
G2 X2.4525 Y0.9932 I-0.0447 J0.0326
G2 X2.4202 Y0.9876 I-0.0306 J0.0809
G3 X2.4199 I-0.0002 J-0.0115
G2 X2.3983 Y0.9902 I-0.0007 J0.0873
G2 X2.3796 Y0.9985 I0.0139 J0.0563
G2 X2.3657 Y1.0123 I0.0322 J0.0463
G2 X2.3621 Y1.018 I0.0603 J0.042
G1 X2.3832 Y1.0216
G3 X2.3846 Y1.0189 I0.0558 J0.0263
G3 X2.3943 Y1.0069 I0.0349 J0.0183
G3 X2.3946 Y1.0067 I0.0073 J0.0089
G3 X2.4196 Y0.9985 I0.0241 J0.0311
G3 X2.4541 Y1.0133 I0.0007 J0.0459
G3 X2.465 Y1.0324 I-0.0368 J0.0336
G1 Y1.0325
G3 X2.4681 Y1.0524 I-0.0686 J0.0208
G3 X2.4566 Y1.064 I-0.0115 J0.0001
G1 X2.3686
G0 Z0.125
G0 X2.2855
G0 Z0.0625
G1 F4.0 Z-0.02
G1 F8.0 Y1.0007
G1 X2.2817
G1 Y1.1955
G1 X2.2855
G1 Y1.064
G1 F4.0 X2.2947
G1 F8.0 Y0.9915
G1 X2.2725
G1 Y1.2047
G1 X2.2947
G1 Y1.064
G0 Z0.125
G0 X2.2025 Y1.0664
G0 Z0.0625
G1 F4.0 Z-0.02
G3 F8.0 X2.2021 Y1.067 I-0.0211 J-0.0139
G3 X2.2025 Y1.0676 I-0.0215 J0.0132
G2 Y1.0664 I-0.0972 J-0.0018
G1 F4.0 X2.2071 Y1.0665
G2 F8.0 Y1.0645 I-0.1018 J-0.0007
G3 Y1.0641 I0.0207 J-0.0003
G2 X2.204 Y1.0386 I-0.0989 J-0.0009
G2 X2.1941 Y1.0174 I-0.0621 J0.0161
G2 X2.1904 Y1.013 I-0.0372 J0.0272
G3 X2.1986 Y1.0298 I-0.0483 J0.0339
G3 X2.2021 Y1.0523 I-0.0774 J0.0234
G3 X2.1963 Y1.0668 I-0.0207 J0.0002
G3 X2.2012 Y1.0798 I-0.0158 J0.0134
G3 X2.1985 Y1.1014 I-0.0741 J0.0016
G3 X2.1944 Y1.1118 I-0.0539 J-0.0153
G2 X2.2031 Y1.0939 I-0.047 J-0.034
G2 X2.2071 Y1.0665 I-0.0978 J-0.0281
G0 Z0.125
G0 X2.0934 Y1.0732
G0 Z0.0625
G1 F4.0 Z-0.02
G1 F8.0 X2.0893
G2 X2.0902 Y1.0802 I0.1656 J-0.016
G3 Y1.0803 I-0.0205 J0.0029
G2 X2.0941 Y1.0968 I0.0866 J-0.0116
G3 X2.0922 Y1.0805 I0.0791 J-0.0173
G3 X2.0934 Y1.0732 I0.0207 J-0.0002
G1 F4.0 Y1.064
G1 F8.0 X2.0795
G2 X2.081 Y1.0814 I0.1754 J-0.0068
G1 X2.0811 Y1.0815
G2 X2.0885 Y1.1077 I0.0957 J-0.0129
G2 X2.0977 Y1.1222 I0.0541 J-0.0246
G2 X2.1205 Y1.1384 I0.0447 J-0.0385
G2 X2.1491 Y1.1435 I0.0275 J-0.072
G3 X2.1496 I0.0002 J0.0115
G2 X2.197 Y1.1231 I0.0016 J-0.0616
G2 X2.212 Y1.0965 I-0.0496 J-0.0453
G2 X2.2163 Y1.0644 I-0.1067 J-0.0307
G3 Y1.0642 I0.0115 J-0.0001
G2 X2.2129 Y1.0363 I-0.1081 J-0.001
G2 X2.2015 Y1.012 I-0.071 J0.0184
G2 X2.1773 Y0.9932 I-0.0447 J0.0326
G2 X2.145 Y0.9876 I-0.0306 J0.0809
G3 X2.1447 I-0.0002 J-0.0115
G2 X2.1231 Y0.9902 I-0.0007 J0.0873
G2 X2.1044 Y0.9985 I0.0139 J0.0563
G2 X2.0905 Y1.0123 I0.0322 J0.0463
G2 X2.0869 Y1.018 I0.0603 J0.042
G1 X2.108 Y1.0216
G3 X2.1093 Y1.0189 I0.0558 J0.0263
G3 X2.1191 Y1.0069 I0.0349 J0.0183
G3 X2.1194 Y1.0067 I0.0073 J0.0089
G3 X2.1443 Y0.9985 I0.0241 J0.0311
G3 X2.1789 Y1.0133 I0.0007 J0.0459
G3 X2.1898 Y1.0324 I-0.0368 J0.0336
G1 Y1.0325
G3 X2.1929 Y1.0524 I-0.0686 J0.0208
G3 X2.1814 Y1.064 I-0.0115 J0.0001
G1 X2.0934
G1 F4.0 X2.104 Y1.0729
G3 F8.0 X2.1129 Y1.0687 I0.0088 J0.0074
G1 X2.1805
G3 X2.192 Y1.08 I0.0 J0.0115
G3 X2.1896 Y1.0989 I-0.0649 J0.0014
G3 X2.1797 Y1.1171 I-0.045 J-0.0128
G3 X2.1465 Y1.1318 I-0.0324 J-0.0282
G3 X2.1145 Y1.1178 I-0.0004 J-0.0425
G3 X2.1041 Y1.0992 I0.0337 J-0.031
G3 X2.1014 Y1.0804 I0.069 J-0.0197
G3 X2.104 Y1.0729 I0.0115 J-0.0001
G0 Z0.125
G0 X2.006 Y1.1067
G0 Z0.0625
G1 F4.0 Z-0.02
G3 F8.0 X2.0059 Y1.1069 I-0.0546 J-0.02
G3 X2.006 Y1.107 I-0.0167 J0.019
G1 Y1.1067
G1 F4.0 X2.0106
G1 F8.0 Y1.0007
G1 X2.0068
G1 Y1.0575
G3 X2.0062 Y1.0782 I-0.3493 J0.0012
G3 X2.0027 Y1.102 I-0.1121 J-0.0044
G3 X2.0024 Y1.1032 I-0.02 J-0.0052
G3 X2.0003 Y1.1085 I-0.051 J-0.0166
G3 X2.01 Y1.126 I-0.0111 J0.0175
G1 Y1.1304
G1 X2.0106
G1 Y1.1067
G1 F4.0 X2.0198
G1 F8.0 Y0.9915
G1 X1.9976
G1 Y1.0575
G3 X1.997 Y1.0778 I-0.3401 J0.0012
G3 X1.9938 Y1.0997 I-0.1029 J-0.0039
G3 X1.9936 Y1.1004 I-0.0111 J-0.0029
G3 X1.9854 Y1.1152 I-0.0422 J-0.0138
G3 X2.0008 Y1.126 I0.0039 J0.0108
G1 Y1.1396
G1 X2.0198
G1 Y1.1067
G0 Z0.125
G0 X1.9216 Y1.1331
G0 Z0.0625
G1 F4.0 Z-0.02
G3 F8.0 X1.9215 Y1.133 I0.0263 J-0.0394
G3 X1.9213 Y1.1329 I0.0115 J-0.0172
G3 X1.9039 Y1.1096 I0.026 J-0.0376
G3 X1.9038 Y1.1092 I0.0197 J-0.0065
G3 X1.9012 Y1.0964 I0.0616 J-0.0191
G3 X1.9004 Y1.0863 I0.1647 J-0.0183
G3 X1.8999 Y1.0673 I0.3683 J-0.0178
G1 Y1.0007
G1 X1.8961
G1 Y1.0863
G1 Y1.0864
G2 X1.8965 Y1.1003 I0.2033 J0.0007
G3 Y1.1005 I-0.0207 J0.0013
G2 X1.8981 Y1.1123 I0.074 J-0.0042
G1 X1.8982
G2 X1.9031 Y1.123 I0.027 J-0.006
G2 X1.913 Y1.1302 I0.0188 J-0.0155
G3 X1.9137 Y1.1305 I-0.0075 J0.0193
G2 X1.9216 Y1.1331 I0.0184 J-0.0427
G1 F4.0 X1.9196 Y1.1421
G3 F8.0 X1.91 Y1.139 I0.0125 J-0.0542
G2 X1.9097 Y1.1388 I-0.0046 J0.0106
G3 X1.8958 Y1.1287 I0.0122 J-0.0313
G3 X1.8892 Y1.1143 I0.0293 J-0.0223
G3 X1.8873 Y1.101 I0.0814 J-0.0181
G1 Y1.1009
G3 X1.8869 Y1.0864 I0.2121 J-0.0138
G1 Y1.0863
G1 Y0.9915
G1 X1.9091
G1 Y1.0673
G2 X1.9096 Y1.0859 I0.3596 J0.0012
G2 X1.9103 Y1.0955 I0.1564 J-0.0078
G2 X1.9126 Y1.1065 I0.0551 J-0.0053
G2 Y1.1067 I0.011 J-0.0034
G2 X1.9265 Y1.1253 I0.0347 J-0.0114
G2 X1.9266 Y1.1254 I0.0065 J-0.0095
G2 X1.9488 Y1.1318 I0.0213 J-0.0317
G2 X1.9763 Y1.1234 I0.0004 J-0.0478
G2 X1.977 Y1.1229 I-0.0249 J-0.0368
G3 X1.9592 Y1.1373 I-0.0492 J-0.0428
G3 X1.933 Y1.1435 I-0.0255 J-0.0492
G2 X1.9327 I-0.0001 J0.0115
G3 X1.9196 Y1.1421 I-0.0007 J-0.0557
G0 Z0.125
G0 X1.8087 Y1.1304
G0 Z0.0625
G1 F4.0 Z-0.02
G1 F8.0 Y1.0007
G1 X1.8049
G1 Y1.1304
G1 X1.8087
G1 F4.0 X1.8179
G1 F8.0 Y0.9915
G1 X1.7957
G1 Y1.1396
G1 X1.8179
G1 Y1.1304
G0 Z0.125
G0 X1.8087 Y1.195
G0 Z0.0625
G1 F4.0 Z-0.02
G1 F8.0 X1.8049
G1 Y1.1955
G1 X1.8087
G1 Y1.195
G1 F4.0 Y1.1858
G1 F8.0 X1.7957
G1 Y1.2047
G1 X1.8179
G1 Y1.1858
G1 X1.8087
G0 Z0.125
G0 X1.718 Y1.1304
G0 Z0.0625
G1 F4.0 Z-0.02
G1 F8.0 Y1.0428
G3 Y1.0427 I0.0207 J0.0
G2 X1.717 Y1.0263 I-0.1219 J-0.0007
G3 Y1.0261 I0.0205 J-0.0027
G2 X1.7136 Y1.0132 I-0.0484 J0.0058
G2 X1.703 Y1.002 I-0.0219 J0.01
G3 X1.7029 Y1.0019 I0.0097 J-0.0183
G2 X1.6935 Y0.9982 I-0.0201 J0.0371
G3 X1.694 Y0.9986 I-0.0117 J0.0171
G3 X1.7108 Y1.0221 I-0.0269 J0.0369
G3 X1.7112 Y1.0235 I-0.0198 J0.006
G3 X1.7132 Y1.0379 I-0.0827 J0.019
G3 X1.7138 Y1.0497 I-0.292 J0.0207
G3 X1.7141 Y1.0725 I-0.7154 J0.0213
G1 Y1.1304
G1 X1.718
G1 F4.0 Y1.1396
G1 F8.0 X1.7272
G1 Y1.0428
G2 X1.7261 Y1.0251 I-0.1311 J-0.0008
G3 Y1.025 I0.0114 J-0.0015
G2 X1.722 Y1.0095 I-0.0576 J0.0069
G2 X1.7074 Y0.9939 I-0.0303 J0.0136
G1 X1.7073 Y0.9938
G2 X1.682 Y0.9876 I-0.0245 J0.0452
G3 X1.6818 I-0.0002 J-0.0115
G2 X1.6551 Y0.9942 I-0.0001 J0.0569
G3 X1.655 Y0.9943 I-0.0054 J-0.0102
G2 X1.6388 Y1.0067 I0.0245 J0.0485
G3 X1.6649 Y0.9991 I0.0258 J0.0398
G3 X1.6882 Y1.0057 I0.0012 J0.04
G3 X1.6886 Y1.006 I-0.0063 J0.0096
G3 X1.702 Y1.0248 I-0.0215 J0.0295
G3 X1.7022 Y1.0256 I-0.011 J0.0034
G3 X1.7041 Y1.0385 I-0.0737 J0.017
G3 X1.7046 Y1.0499 I-0.2828 J0.0201
G3 X1.7049 Y1.0725 I-0.7062 J0.0211
G1 Y1.1396
G1 X1.718
G0 Z0.125
G0 X1.6076 Y1.1304
G0 Z0.0625
G1 F4.0 Z-0.02
G1 F8.0 Y1.079
G3 X1.609 Y1.0424 I0.3978 J-0.0038
G3 X1.6119 Y1.0268 I0.0767 J0.0061
G3 X1.6124 Y1.0254 I0.0199 J0.0058
G3 X1.6135 Y1.0227 I0.0502 J0.0189
G3 X1.6044 Y1.0056 I0.0117 J-0.0171
G1 Y1.0007
G1 X1.6038
G1 Y1.1304
G1 X1.6076
G1 F4.0 X1.6168
G1 F8.0 Y1.1396
G1 X1.5946
G1 Y0.9915
G1 X1.6136
G1 Y1.0056
G2 X1.6276 Y1.0168 I0.0115 J0.0
G2 X1.621 Y1.0286 I0.0349 J0.0275
G2 X1.6207 Y1.0294 I0.0108 J0.0041
G2 X1.6182 Y1.0432 I0.065 J0.0191
G2 X1.6168 Y1.079 I0.3873 J0.0321
G1 Y1.1304
G0 Z0.125
G0 X1.5143 Y1.1085
G0 Z0.0625
G1 F4.0 Z-0.02
G1 F8.0 Y1.1078
G3 X1.5141 Y1.1084 I-0.0534 J-0.019
G3 X1.5143 Y1.1085 I-0.0162 J0.0194
G1 F4.0 X1.5113 Y1.112
G3 F8.0 X1.5185 Y1.1278 I-0.0134 J0.0157
G1 Y1.1304
G1 X1.5189
G1 Y1.0007
G1 X1.515
G1 Y1.0631
G3 X1.5144 Y1.0822 I-0.2592 J0.001
G3 X1.5106 Y1.1042 I-0.0993 J-0.0055
G3 X1.5105 Y1.1047 I-0.0199 J-0.0057
G3 X1.5085 Y1.11 I-0.0496 J-0.0159
G3 X1.5113 Y1.112 I-0.0106 J0.0178
G1 F4.0 X1.5053 Y1.119
G2 F8.0 X1.4929 Y1.1174 I-0.0075 J0.0087
G2 X1.5017 Y1.1019 I-0.032 J-0.0285
G2 X1.5018 Y1.1016 I-0.011 J-0.0035
G2 X1.5052 Y1.0816 I-0.0867 J-0.025
G2 X1.5058 Y1.0631 I-0.2494 J-0.0175
G1 Y0.9915
G1 X1.5281
G1 Y1.1396
G1 X1.5093
G1 Y1.1278
G2 X1.5053 Y1.119 I-0.0115 J0.0
G0 Z0.125
G0 X1.4132 Y1.1091
G0 Z0.0625
G1 F4.0 Z-0.02
G3 F8.0 X1.4121 Y1.1023 I0.066 J-0.0147
G3 X1.4114 Y1.1046 I-0.101 J-0.0272
G3 X1.4106 Y1.107 I-0.0553 J-0.0162
G3 X1.4132 Y1.1091 I-0.0145 J0.0207
G1 F4.0 X1.4177 Y1.1081
G3 F8.0 X1.4165 Y1.1 I0.0615 J-0.0137
G3 X1.4158 Y1.0909 I0.1599 J-0.0164
G3 X1.4154 Y1.0737 I0.3614 J-0.0161
G1 Y1.0007
G1 X1.4115
G1 Y1.0621
G3 X1.4109 Y1.0814 I-0.2429 J0.001
G3 X1.407 Y1.1033 I-0.0998 J-0.0063
G3 X1.4049 Y1.109 I-0.0508 J-0.0149
G3 X1.4144 Y1.118 I-0.0088 J0.0187
G2 X1.426 Y1.1301 I0.0277 J-0.0149
G2 X1.4331 Y1.1329 I0.0171 J-0.0328
G3 X1.4187 Y1.1118 I0.0251 J-0.0327
G3 X1.4186 Y1.1117 I0.0199 J-0.0058
G3 X1.4177 Y1.1081 I0.0606 J-0.0174
G0 Z0.125
G0 X1.3306 Y1.1327
G0 Z0.0625
G1 F4.0 Z-0.02
G3 F8.0 X1.3205 Y1.122 I0.0252 J-0.0339
G3 X1.3197 Y1.1207 I0.0173 J-0.0114
G3 X1.3147 Y1.1066 I0.0403 J-0.0224
G3 X1.3132 Y1.0963 I0.095 J-0.0189
G3 X1.3125 Y1.0777 I0.2014 J-0.0174
G1 Y1.0007
G1 X1.3086
G1 Y1.0894
G3 Y1.0895 I-0.0207 J0.0
G2 X1.3093 Y1.1054 I0.1592 J0.0009
G3 Y1.1058 I-0.0206 J0.002
G2 X1.3118 Y1.1173 I0.0428 J-0.0033
G2 X1.3225 Y1.1294 I0.0237 J-0.0101
G2 X1.3306 Y1.1327 I0.0163 J-0.0279
G1 F4.0 X1.3283 Y1.1416
G2 F8.0 X1.3299 Y1.142 I0.0105 J-0.0401
G2 X1.3439 Y1.1435 I0.0135 J-0.0619
G3 X1.344 I0.0001 J0.0115
G2 X1.3664 Y1.1381 I0.0002 J-0.0482
G2 X1.3871 Y1.1206 I-0.0325 J-0.0596
G3 X1.4063 Y1.1223 I0.009 J0.0071
G2 X1.4216 Y1.1382 I0.0358 J-0.0192
G2 X1.4442 Y1.1435 I0.0215 J-0.0408
G3 X1.4446 I0.0003 J0.0115
G2 X1.4689 Y1.1375 I0.0004 J-0.0509
G2 X1.4869 Y1.1229 I-0.0328 J-0.0589
G3 X1.4852 Y1.1242 I-0.026 J-0.0341
G3 X1.4851 I-0.0065 J-0.0095
G3 X1.46 Y1.1318 I-0.0249 J-0.0369
G3 X1.44 Y1.1266 I-0.0014 J-0.0352
G3 X1.4393 Y1.1261 I0.0061 J-0.0098
G3 X1.4275 Y1.1092 I0.0189 J-0.0258
G3 X1.4256 Y1.0991 I0.0518 J-0.0148
G3 X1.425 Y1.0905 I0.1507 J-0.0156
G3 X1.4246 Y1.0738 I0.3522 J-0.0157
G1 Y0.9915
G1 X1.4023
G1 Y1.0622
G3 X1.4017 Y1.0807 I-0.2337 J0.001
G3 X1.3982 Y1.1007 I-0.0906 J-0.0056
G3 X1.3818 Y1.1239 I-0.042 J-0.0123
G3 X1.3575 Y1.1318 I-0.0247 J-0.0344
G3 X1.3282 Y1.117 I-0.0017 J-0.033
G3 X1.3278 Y1.1163 I0.0096 J-0.0063
G3 X1.3237 Y1.1049 I0.0323 J-0.0179
G3 X1.3224 Y1.0955 I0.086 J-0.0172
G3 X1.3217 Y1.0778 I0.1923 J-0.0166
G1 Y0.9915
G1 X1.2994
G1 Y1.0894
G1 Y1.0895
G2 X1.3001 Y1.1063 I0.1684 J0.0009
G3 Y1.1065 I-0.0114 J0.0011
G2 X1.3032 Y1.1206 I0.052 J-0.004
G2 X1.3178 Y1.1373 I0.0323 J-0.0135
G2 X1.3283 Y1.1416 I0.0209 J-0.0358
( Pocket5 )
S10000
G0 Z0.125
G0 X2.0677 Y1.8553
G0 Z0.0625
G1 F4.0 Z-0.02
G3 F8.0 X2.0615 Y1.8462 I0.1662 J-0.12
G3 X2.0472 Y1.8216 I0.2489 J-0.1608
G1 X2.0478 Y1.8754
G1 X2.052 Y1.869
G3 X2.0677 Y1.8553 I0.0312 J0.0201
G1 F4.0 X2.077 Y1.8486
G3 F8.0 X2.0711 Y1.84 I0.1569 J-0.1133
G3 X2.0503 Y1.8017 I0.2393 J-0.1546
G3 Y1.8015 I0.0235 J-0.0105
G3 X2.0352 Y1.7627 I0.4384 J-0.1929
G1 X2.0368 Y1.9126
G1 X2.0375
G1 X2.0616 Y1.8752
G3 X2.0895 Y1.8641 I0.0216 J0.0139
G3 X2.077 Y1.8486 I0.1444 J-0.1288
G0 Z0.125
G0 X2.1353 Y1.6371
G0 Z0.0625
G1 F4.0 Z-0.02
G2 F8.0 X2.1363 Y1.6373 I0.0803 J-0.2911
G3 X2.1369 Y1.6375 I-0.0128 J0.0469
G2 X2.2027 Y1.654 I0.2762 J-0.959
G3 X2.25 Y1.6652 I-0.1901 J0.9109
G3 X2.3024 Y1.6837 I-0.0699 J0.2825
G3 X2.3037 Y1.6843 I-0.0204 J0.0441
G3 X2.3213 Y1.6948 I-0.0593 J0.1186
G2 X2.3132 Y1.6873 I-0.0591 J0.0554
G2 X2.2926 Y1.6747 I-0.0662 J0.0854
G3 X2.2922 Y1.6745 I0.0205 J-0.044
G2 X2.2643 Y1.6631 I-0.1202 J0.253
G2 X2.2013 Y1.645 I-0.2028 J0.5882
G3 X2.1429 Y1.6305 I0.3465 J-1.5201
G3 X2.0807 Y1.6096 I0.1066 J-0.4199
G3 X2.079 Y1.6088 I0.0189 J-0.0447
G3 X2.0484 Y1.5904 I0.0738 J-0.1575
G3 X2.0475 Y1.5898 I0.0743 J-0.0994
G2 X2.0792 Y1.6154 I0.0796 J-0.0661
G2 X2.1353 Y1.6371 I0.1364 J-0.2694
G1 F4.0 X2.1323 Y1.6481
G2 F8.0 X2.1333 Y1.6484 I0.0833 J-0.3021
G3 X2.1338 Y1.6485 I-0.0098 J0.0358
G2 X2.2003 Y1.6652 I0.2793 J-0.97
G3 X2.2472 Y1.6763 I-0.1877 J0.8997
G3 X2.2976 Y1.694 I-0.067 J0.2715
G3 X2.2986 Y1.6945 I-0.0156 J0.0337
G3 X2.3471 Y1.7384 I-0.0542 J0.1084
G3 X2.3479 Y1.7399 I-0.0315 J0.0198
G3 X2.3566 Y1.7587 I-0.1056 J0.0599
G2 X2.3478 Y1.7152 I-0.1321 J0.0042
G2 X2.3203 Y1.6783 I-0.0855 J0.035
G2 X2.2974 Y1.6644 I-0.0733 J0.0944
G3 X2.2971 Y1.6642 I0.0157 J-0.0337
G2 X2.268 Y1.6523 I-0.1252 J0.2633
G2 X2.2038 Y1.6339 I-0.2065 J0.599
G3 X2.1458 Y1.6195 I0.344 J-1.509
G3 X2.0851 Y1.599 I0.1037 J-0.4088
G3 X2.0838 Y1.5985 I0.0145 J-0.0342
G3 X2.0552 Y1.5813 I0.069 J-0.1471
G3 X2.0288 Y1.5534 I0.0674 J-0.0903
G3 X2.0287 Y1.5532 I0.0309 J-0.0206
G3 X2.0145 Y1.5221 I0.095 J-0.0623
G2 Y1.5238 I0.1541 J-0.0001
G3 Y1.525 I-0.0371 J0.0004
G2 X2.0293 Y1.5839 I0.1143 J0.0025
G2 X2.074 Y1.6256 I0.0979 J-0.0602
G2 X2.1323 Y1.6481 I0.1416 J-0.2796
G1 F4.0 X2.1293 Y1.6591
G2 F8.0 X2.1303 Y1.6594 I0.0863 J-0.3131
G3 X2.1306 Y1.6595 I-0.0068 J0.0248
G2 X2.1979 Y1.6764 I0.2825 J-0.981
G3 X2.2444 Y1.6874 I-0.1853 J0.8886
G3 X2.2928 Y1.7044 I-0.0642 J0.2604
G3 X2.2935 Y1.7047 I-0.0108 J0.0233
G3 X2.3374 Y1.7445 I-0.049 J0.0982
G3 X2.338 Y1.7455 I-0.0218 J0.0137
G3 X2.3523 Y1.8021 I-0.0957 J0.0543
G3 X2.3315 Y1.8698 I-0.1156 J0.0015
G2 X2.3579 Y1.8259 I-0.1036 J-0.0925
G2 X2.368 Y1.7659 I-0.1611 J-0.0579
G3 Y1.7652 I0.0257 J-0.0003
G2 X2.3584 Y1.711 I-0.1436 J-0.0024
G2 X2.3274 Y1.6694 I-0.0962 J0.0393
G2 X2.3022 Y1.654 I-0.0804 J0.1034
G3 X2.302 Y1.6539 I0.0108 J-0.0233
G2 X2.2718 Y1.6415 I-0.1301 J0.2736
G2 X2.2064 Y1.6227 I-0.2103 J0.6098
G3 X2.1487 Y1.6084 I0.3414 J-1.4978
G3 X2.0896 Y1.5885 I0.1008 J-0.3977
G3 X2.0887 Y1.5881 I0.01 J-0.0237
G3 X2.0621 Y1.5721 I0.0641 J-0.1368
G3 X2.0383 Y1.547 I0.0606 J-0.0811
G3 Y1.5469 I0.0214 J-0.0142
G3 X2.0215 Y1.4894 I0.0854 J-0.056
G3 X2.0465 Y1.4133 I0.1254 J-0.001
G2 X2.0144 Y1.4618 I0.106 J0.1049
G2 X2.0031 Y1.5239 I0.1542 J0.0602
G3 Y1.5248 I-0.0257 J0.0003
G2 X2.0194 Y1.5897 I0.1257 J0.0028
G2 X2.0688 Y1.6357 I0.1077 J-0.066
G2 X2.1293 Y1.6591 I0.1468 J-0.2897
G0 Z0.125
G0 X2.3644 Y1.4732
G0 Z0.0625
G1 F4.0 Z-0.02
G1 F8.0 Y1.4016
G1 X2.3514 Y1.4186
G3 X2.3368 Y1.4301 I-0.0295 J-0.0225
G3 X2.3644 Y1.4732 I-0.1933 J0.1544
G1 F4.0 X2.3758
G1 F8.0 Y1.3691
G1 X2.3748
G1 X2.3423 Y1.4117
G3 X2.3128 Y1.4202 I-0.0204 J-0.0156
G3 X2.3595 Y1.4896 I-0.1693 J0.1643
G3 X2.3758 Y1.5348 I-0.3247 J0.1427
G1 Y1.4732
G1 F4.0 X2.3873
G1 F8.0 Y1.3576
G1 X2.3692
G1 X2.3332 Y1.4048
G3 X2.3121 Y1.4065 I-0.0114 J-0.0087
G2 X2.2469 Y1.3663 I-0.1295 J0.1372
G2 X2.1705 Y1.3537 I-0.074 J0.2111
G3 X2.1701 I-0.0002 J-0.0143
G2 X2.1005 Y1.3651 I-0.0024 J0.2044
G2 X2.0416 Y1.402 I0.0554 J0.1538
G3 X2.0415 Y1.4021 I-0.01 J-0.0102
G2 X2.0038 Y1.4576 I0.1109 J0.1161
G2 X1.9916 Y1.5241 I0.1648 J0.0645
G3 Y1.5245 I-0.0143 J0.0002
G2 X2.0096 Y1.5955 I0.1371 J0.0031
G2 X2.0636 Y1.6459 I0.1176 J-0.0718
G2 X2.1273 Y1.6704 I0.152 J-0.2999
G3 X2.1275 Y1.6705 I-0.0038 J0.0138
G2 X2.1955 Y1.6876 I0.2857 J-0.992
G3 X2.2415 Y1.6984 I-0.183 J0.8774
G3 X2.288 Y1.7148 I-0.0614 J0.2493
G3 X2.2884 Y1.715 I-0.006 J0.013
G3 X2.3277 Y1.7506 I-0.0439 J0.0879
G3 X2.3281 Y1.7512 I-0.0121 J0.0076
G3 X2.3409 Y1.802 I-0.0857 J0.0486
G3 X2.3066 Y1.8808 I-0.1041 J0.0016
G3 X2.2658 Y1.9055 I-0.0773 J-0.0815
G3 X2.2657 I-0.0046 J-0.0135
G3 X2.2199 Y1.9127 I-0.0443 J-0.1326
G3 X2.1593 Y1.9008 I-0.0008 J-0.1557
G3 X2.1592 Y1.9007 I0.0055 J-0.0132
G3 X2.1081 Y1.867 I0.0675 J-0.1576
G3 X2.0807 Y1.8338 I0.1258 J-0.1316
G3 X2.0608 Y1.797 I0.2297 J-0.1484
G1 X2.0607 Y1.7969
G3 X2.0374 Y1.7307 I0.4279 J-0.1883
G1 X2.0234
G1 X2.0255 Y1.924
G1 X2.0438
G1 X2.0712 Y1.8813
G3 X2.0933 Y1.8789 I0.012 J0.0077
G2 X2.151 Y1.9172 I0.1239 J-0.1243
G2 X2.2163 Y1.9295 I0.0646 J-0.164
G3 X2.2166 I0.0001 J0.0143
G2 X2.2804 Y1.9185 I0.0021 J-0.1798
G2 X2.334 Y1.8837 I-0.0534 J-0.1406
G1 Y1.8836
G2 X2.3687 Y1.8299 I-0.1062 J-0.1064
G2 X2.3795 Y1.7658 I-0.1718 J-0.0619
G3 Y1.7654 I0.0143 J-0.0002
G2 X2.369 Y1.7068 I-0.155 J-0.0026
G2 X2.3345 Y1.6604 I-0.1068 J0.0435
G2 X2.307 Y1.6436 I-0.0875 J0.1123
G3 X2.3069 I0.006 J-0.013
G2 X2.2755 Y1.6307 I-0.135 J0.2839
G2 X2.2089 Y1.6116 I-0.214 J0.6206
G3 X2.1516 Y1.5973 I0.3389 J-1.4867
G3 X2.094 Y1.578 I0.0979 J-0.3867
G3 X2.0935 Y1.5778 I0.0056 J-0.0132
G3 X2.0689 Y1.563 I0.0593 J-0.1264
G3 X2.0479 Y1.5407 I0.0537 J-0.072
G1 X2.0478 Y1.5406
G3 X2.033 Y1.4894 I0.0759 J-0.0497
G3 X2.0713 Y1.4031 I0.114 J-0.0011
G3 X2.117 Y1.3763 I0.0851 J0.0928
G3 X2.1171 Y1.3762 I0.0045 J0.0136
G3 X2.168 Y1.3685 I0.0492 J0.153
G3 X2.239 Y1.3828 I0.0007 J0.1799
G3 X2.2391 Y1.3829 I-0.0056 J0.0132
G3 X2.2989 Y1.4224 I-0.0829 J0.1902
G1 X2.299 Y1.4225
G3 X2.3491 Y1.4942 I-0.1554 J0.162
G3 X2.3713 Y1.5642 I-0.3142 J0.1381
G1 X2.3873
G1 Y1.4732
G0 Z0.125
G0 X1.8714 Y1.5153
G0 Z0.0625
G1 F4.0 Z-0.02
G2 F8.0 X1.867 Y1.4877 I-0.1791 J0.0146
G3 X1.8698 Y1.5265 I-0.3126 J0.0422
G3 X1.864 Y1.5485 I-0.0429 J0.0005
G3 X1.8697 Y1.5667 I-0.0371 J0.0215
G2 X1.872 Y1.5329 I-0.2085 J-0.0313
G3 Y1.5319 I0.0429 J-0.0005
G2 X1.8714 Y1.5153 I-0.1797 J-0.0021
G1 F4.0 X1.8771 Y1.5148
G2 F8.0 X1.8678 Y1.4702 I-0.1848 J0.0151
G2 X1.8452 Y1.4292 I-0.135 J0.0476
G3 X1.8574 Y1.4657 I-0.1374 J0.0659
G3 X1.8641 Y1.5265 I-0.303 J0.0643
G3 X1.8572 Y1.5485 I-0.0371 J0.0004
G3 X1.8641 Y1.57 I-0.0303 J0.0215
G3 X1.8583 Y1.6229 I-0.2501 J-0.0006
G2 X1.868 Y1.5993 I-0.1338 J-0.0692
G2 X1.8777 Y1.5328 I-0.2069 J-0.064
G3 Y1.532 I0.0371 J-0.0004
G2 X1.8771 Y1.5148 I-0.1854 J-0.0021
G1 F4.0 X1.8885 Y1.5139
G2 F8.0 X1.8786 Y1.4665 I-0.1962 J0.016
G2 X1.845 Y1.4114 I-0.1458 J0.0514
G3 X1.8447 Y1.4112 I0.0187 J-0.0177
G2 X1.7449 Y1.3652 I-0.1049 J0.0965
G3 X1.818 Y1.4072 I-0.0217 J0.1226
G3 X1.8187 Y1.4079 I-0.0196 J0.0167
G3 X1.8462 Y1.468 I-0.1108 J0.0871
G3 X1.8527 Y1.5267 I-0.2918 J0.062
G3 X1.8411 Y1.5485 I-0.0257 J0.0003
G3 X1.8526 Y1.57 I-0.0141 J0.0215
G3 X1.8462 Y1.6246 I-0.2387 J-0.0006
G3 X1.8209 Y1.6787 I-0.1412 J-0.033
G3 X1.8109 Y1.6904 I-0.0944 J-0.0707
G2 X1.8452 Y1.6619 I-0.0746 J-0.1245
G3 X1.8453 Y1.6618 I0.0193 J0.017
G2 X1.879 Y1.6027 I-0.1209 J-0.1081
G2 X1.8891 Y1.5327 I-0.2178 J-0.0674
G3 Y1.5321 I0.0257 J-0.0003
G2 X1.8885 Y1.5139 I-0.1968 J-0.0022
G0 Z0.125
G0 X1.6199 Y1.5698
G0 Z0.0625
G1 F4.0 Z-0.02
G1 F8.0 X1.6158
G2 X1.6161 Y1.572 I0.4027 J-0.0463
G3 Y1.5723 I-0.0425 J0.0051
G2 X1.6172 Y1.5804 I0.1793 J-0.0203
G3 X1.6199 Y1.5698 I0.0693 J0.0121
G1 F4.0 X1.6253 Y1.5717
G3 F8.0 X1.6284 Y1.5641 I0.0612 J0.0209
G1 X1.6094
G2 X1.6104 Y1.5727 I0.4091 J-0.0406
G3 Y1.573 I-0.0369 J0.0044
G2 X1.6198 Y1.6137 I0.185 J-0.0209
G2 X1.6217 Y1.6188 I0.1264 J-0.0455
G3 X1.6211 Y1.6028 I0.1317 J-0.0132
G3 X1.6224 Y1.5845 I0.1242 J-0.0005
G3 X1.6253 Y1.5717 I0.0642 J0.008
G1 F4.0 X1.6361 Y1.5753
G3 F8.0 X1.6431 Y1.5617 I0.0504 J0.0172
G3 X1.6446 Y1.5598 I0.021 J0.0149
G3 X1.6524 Y1.5527 I0.034 J0.0293
G1 X1.597
G2 X1.599 Y1.5741 I0.4215 J-0.0291
G3 X1.5991 Y1.5743 I-0.0255 J0.0031
G2 X1.609 Y1.6176 I0.1963 J-0.0222
G2 X1.66 Y1.6858 I0.1371 J-0.0493
G2 X1.6672 Y1.6906 I0.0709 J-0.0992
G3 X1.6631 Y1.6861 I0.0801 J-0.0773
G3 X1.6325 Y1.6029 I0.0904 J-0.0804
G3 X1.6337 Y1.586 I0.1128 J-0.0006
G3 X1.6361 Y1.5753 I0.0529 J0.0065
G0 Z0.125
G0 Y1.5412
G0 Z0.0625
G1 F4.0 Z-0.02
G1 F8.0 X1.5849
G2 X1.5877 Y1.5754 I0.4336 J-0.0177
G3 Y1.5755 I-0.0142 J0.0017
G2 X1.5982 Y1.6214 I0.2077 J-0.0235
G2 X1.6533 Y1.6951 I0.1479 J-0.0531
G2 X1.6938 Y1.7147 I0.0776 J-0.1085
G2 X1.7393 Y1.7209 I0.0443 J-0.1563
G3 X1.7396 I0.0001 J0.0143
G2 X1.8023 Y1.7079 I0.0016 J-0.1504
G2 X1.8537 Y1.6695 I-0.066 J-0.142
G3 X1.8538 Y1.6694 I0.0107 J0.0094
G2 X1.8899 Y1.6062 I-0.1294 J-0.1157
G2 X1.9006 Y1.5326 I-0.2287 J-0.0708
G3 Y1.5323 I0.0143 J-0.0002
G2 X1.8894 Y1.4627 I-0.2082 J-0.0024
G2 X1.8533 Y1.4036 I-0.1566 J0.0551
G3 X1.8532 Y1.4034 I0.0104 J-0.0098
G2 X1.737 Y1.3537 I-0.1133 J0.1042
G3 X1.7365 I-0.0003 J-0.0143
G2 X1.6635 Y1.3711 I-0.002 J0.1535
G2 X1.6068 Y1.4213 I0.0838 J0.152
G3 X1.6067 Y1.4214 I-0.0116 J-0.0084
G2 X1.5867 Y1.4524 I0.2272 J0.1682
G1 X1.5972 Y1.4566
G3 X1.6406 Y1.4045 I0.1866 J0.1114
G3 X1.6407 I0.0094 J0.0107
G3 X1.7205 Y1.3748 I0.08 J0.0929
G3 X1.8093 Y1.4146 I0.0027 J0.113
G3 X1.8097 Y1.415 I-0.0109 J0.0093
G3 X1.835 Y1.4702 I-0.1018 J0.0801
G3 X1.8412 Y1.5268 I-0.2806 J0.0597
G3 X1.827 Y1.5412 I-0.0143 J0.0002
G1 X1.6361
G0 Z0.125
G0 X1.6564 Y1.564
G0 Z0.0625
G1 F4.0 Z-0.02
G3 F8.0 X1.68 Y1.5556 I0.0222 J0.025
G1 X1.827
G3 X1.8412 Y1.57 I0.0 J0.0143
G3 X1.8351 Y1.622 I-0.2273 J-0.0006
G3 X1.8118 Y1.6718 I-0.1301 J-0.0303
G3 X1.7808 Y1.6997 I-0.0853 J-0.0638
G3 X1.7806 Y1.6998 I-0.0073 J-0.0123
G3 X1.7387 Y1.7108 I-0.0415 J-0.0727
G3 X1.701 Y1.7018 I-0.0004 J-0.0822
G3 X1.7008 Y1.7017 I0.0065 J-0.0127
G3 X1.6717 Y1.6786 I0.0465 J-0.0884
G3 X1.6439 Y1.603 I0.0818 J-0.0729
G3 X1.645 Y1.5875 I0.1014 J-0.0007
G3 X1.6524 Y1.5683 I0.0416 J0.005
G3 X1.6532 Y1.5672 I0.0117 J0.0083
G3 X1.6564 Y1.564 I0.0254 J0.0218
G0 Z0.125
M5
M30
