( Made using CamBam - http://www.cambam.co.uk )
( 046-palladium 12/13/2013 10:13:40 AM )
( T0 : 0.0313 )
G20 G90 G91.1 G64 G40
G0 Z0.125
( T0 : 0.0313 )
T0 M6
( Pocket1 )
G17
M3 S10000
G0 X0.7531 Y2.75
G0 Z0.0625
G1 F4.0 Z-0.0313
G2 F8.0 X0.7484 Y2.7473 I-0.0031 J0.0
G2 Y2.7527 I0.0016 J0.0027
G2 X0.7531 Y2.75 I0.0016 J-0.0027
G1 F4.0 X0.7594
G2 F8.0 X0.7453 Y2.7419 I-0.0094 J0.0
G2 Y2.7581 I0.0047 J0.0081
G2 X0.7594 Y2.75 I0.0047 J-0.0081
G1 F4.0 X0.7719
G2 F8.0 X0.7391 Y2.7311 I-0.0219 J0.0
G2 Y2.7689 I0.0109 J0.0189
G2 X0.7719 Y2.75 I0.0109 J-0.0189
G1 F4.0 X0.7844
G2 F8.0 X0.7328 Y2.7202 I-0.0344 J0.0
G2 Y2.7798 I0.0172 J0.0298
G2 X0.7844 Y2.75 I0.0172 J-0.0298
G1 F4.0 X0.7969
G2 F8.0 X0.7266 Y2.7094 I-0.0469 J0.0
G2 Y2.7906 I0.0234 J0.0406
G2 X0.7969 Y2.75 I0.0234 J-0.0406
G0 Z0.125
G0 X0.7531
G0 Z0.0312
G1 F4.0 Z-0.0625
G2 F8.0 X0.7484 Y2.7473 I-0.0031 J0.0
G2 Y2.7527 I0.0016 J0.0027
G2 X0.7531 Y2.75 I0.0016 J-0.0027
G1 F4.0 X0.7594
G2 F8.0 X0.7453 Y2.7419 I-0.0094 J0.0
G2 Y2.7581 I0.0047 J0.0081
G2 X0.7594 Y2.75 I0.0047 J-0.0081
G1 F4.0 X0.7719
G2 F8.0 X0.7391 Y2.7311 I-0.0219 J0.0
G2 Y2.7689 I0.0109 J0.0189
G2 X0.7719 Y2.75 I0.0109 J-0.0189
G1 F4.0 X0.7844
G2 F8.0 X0.7328 Y2.7202 I-0.0344 J0.0
G2 Y2.7798 I0.0172 J0.0298
G2 X0.7844 Y2.75 I0.0172 J-0.0298
G1 F4.0 X0.7969
G2 F8.0 X0.7266 Y2.7094 I-0.0469 J0.0
G2 Y2.7906 I0.0234 J0.0406
G2 X0.7969 Y2.75 I0.0234 J-0.0406
G0 Z0.125
G0 X0.7531
G0 Z0.0
G1 F4.0 Z-0.0938
G2 F8.0 X0.7484 Y2.7473 I-0.0031 J0.0
G2 Y2.7527 I0.0016 J0.0027
G2 X0.7531 Y2.75 I0.0016 J-0.0027
G1 F4.0 X0.7594
G2 F8.0 X0.7453 Y2.7419 I-0.0094 J0.0
G2 Y2.7581 I0.0047 J0.0081
G2 X0.7594 Y2.75 I0.0047 J-0.0081
G1 F4.0 X0.7719
G2 F8.0 X0.7391 Y2.7311 I-0.0219 J0.0
G2 Y2.7689 I0.0109 J0.0189
G2 X0.7719 Y2.75 I0.0109 J-0.0189
G1 F4.0 X0.7844
G2 F8.0 X0.7328 Y2.7202 I-0.0344 J0.0
G2 Y2.7798 I0.0172 J0.0298
G2 X0.7844 Y2.75 I0.0172 J-0.0298
G1 F4.0 X0.7969
G2 F8.0 X0.7266 Y2.7094 I-0.0469 J0.0
G2 Y2.7906 I0.0234 J0.0406
G2 X0.7969 Y2.75 I0.0234 J-0.0406
G0 Z0.125
G0 X0.7531
G0 Z-0.0313
G1 F4.0 Z-0.125
G2 F8.0 X0.7484 Y2.7473 I-0.0031 J0.0
G2 Y2.7527 I0.0016 J0.0027
G2 X0.7531 Y2.75 I0.0016 J-0.0027
G1 F4.0 X0.7594
G2 F8.0 X0.7453 Y2.7419 I-0.0094 J0.0
G2 Y2.7581 I0.0047 J0.0081
G2 X0.7594 Y2.75 I0.0047 J-0.0081
G1 F4.0 X0.7719
G2 F8.0 X0.7391 Y2.7311 I-0.0219 J0.0
G2 Y2.7689 I0.0109 J0.0189
G2 X0.7719 Y2.75 I0.0109 J-0.0189
G1 F4.0 X0.7844
G2 F8.0 X0.7328 Y2.7202 I-0.0344 J0.0
G2 Y2.7798 I0.0172 J0.0298
G2 X0.7844 Y2.75 I0.0172 J-0.0298
G1 F4.0 X0.7969
G2 F8.0 X0.7266 Y2.7094 I-0.0469 J0.0
G2 Y2.7906 I0.0234 J0.0406
G2 X0.7969 Y2.75 I0.0234 J-0.0406
G0 Z0.125
G0 X3.2469
G0 Z0.0625
G1 F4.0 Z-0.0313
G2 F8.0 X3.2484 Y2.7527 I0.0031 J0.0
G2 X3.2531 Y2.75 I0.0016 J-0.0027
G2 X3.2484 Y2.7473 I-0.0031 J0.0
G2 X3.2469 Y2.75 I0.0016 J0.0027
G1 F4.0 X3.2406
G2 F8.0 X3.2453 Y2.7581 I0.0094 J0.0
G2 X3.2594 Y2.75 I0.0047 J-0.0081
G2 X3.2453 Y2.7419 I-0.0094 J0.0
G2 X3.2406 Y2.75 I0.0047 J0.0081
G1 F4.0 X3.2281
G2 F8.0 X3.2391 Y2.7689 I0.0219 J0.0
G2 X3.2719 Y2.75 I0.0109 J-0.0189
G2 X3.2391 Y2.7311 I-0.0219 J0.0
G2 X3.2281 Y2.75 I0.0109 J0.0189
G1 F4.0 X3.2156
G2 F8.0 X3.2328 Y2.7798 I0.0344 J0.0
G2 X3.2844 Y2.75 I0.0172 J-0.0298
G2 X3.2328 Y2.7202 I-0.0344 J0.0
G2 X3.2156 Y2.75 I0.0172 J0.0298
G1 F4.0 X3.2031
G2 F8.0 X3.2266 Y2.7906 I0.0469 J0.0
G2 X3.2969 Y2.75 I0.0234 J-0.0406
G2 X3.2266 Y2.7094 I-0.0469 J0.0
G2 X3.2031 Y2.75 I0.0234 J0.0406
G0 Z0.125
G0 X3.2469
G0 Z0.0312
G1 F4.0 Z-0.0625
G2 F8.0 X3.2484 Y2.7527 I0.0031 J0.0
G2 X3.2531 Y2.75 I0.0016 J-0.0027
G2 X3.2484 Y2.7473 I-0.0031 J0.0
G2 X3.2469 Y2.75 I0.0016 J0.0027
G1 F4.0 X3.2406
G2 F8.0 X3.2453 Y2.7581 I0.0094 J0.0
G2 X3.2594 Y2.75 I0.0047 J-0.0081
G2 X3.2453 Y2.7419 I-0.0094 J0.0
G2 X3.2406 Y2.75 I0.0047 J0.0081
G1 F4.0 X3.2281
G2 F8.0 X3.2391 Y2.7689 I0.0219 J0.0
G2 X3.2719 Y2.75 I0.0109 J-0.0189
G2 X3.2391 Y2.7311 I-0.0219 J0.0
G2 X3.2281 Y2.75 I0.0109 J0.0189
G1 F4.0 X3.2156
G2 F8.0 X3.2328 Y2.7798 I0.0344 J0.0
G2 X3.2844 Y2.75 I0.0172 J-0.0298
G2 X3.2328 Y2.7202 I-0.0344 J0.0
G2 X3.2156 Y2.75 I0.0172 J0.0298
G1 F4.0 X3.2031
G2 F8.0 X3.2266 Y2.7906 I0.0469 J0.0
G2 X3.2969 Y2.75 I0.0234 J-0.0406
G2 X3.2266 Y2.7094 I-0.0469 J0.0
G2 X3.2031 Y2.75 I0.0234 J0.0406
G0 Z0.125
G0 X3.2469
G0 Z0.0
G1 F4.0 Z-0.0938
G2 F8.0 X3.2484 Y2.7527 I0.0031 J0.0
G2 X3.2531 Y2.75 I0.0016 J-0.0027
G2 X3.2484 Y2.7473 I-0.0031 J0.0
G2 X3.2469 Y2.75 I0.0016 J0.0027
G1 F4.0 X3.2406
G2 F8.0 X3.2453 Y2.7581 I0.0094 J0.0
G2 X3.2594 Y2.75 I0.0047 J-0.0081
G2 X3.2453 Y2.7419 I-0.0094 J0.0
G2 X3.2406 Y2.75 I0.0047 J0.0081
G1 F4.0 X3.2281
G2 F8.0 X3.2391 Y2.7689 I0.0219 J0.0
G2 X3.2719 Y2.75 I0.0109 J-0.0189
G2 X3.2391 Y2.7311 I-0.0219 J0.0
G2 X3.2281 Y2.75 I0.0109 J0.0189
G1 F4.0 X3.2156
G2 F8.0 X3.2328 Y2.7798 I0.0344 J0.0
G2 X3.2844 Y2.75 I0.0172 J-0.0298
G2 X3.2328 Y2.7202 I-0.0344 J0.0
G2 X3.2156 Y2.75 I0.0172 J0.0298
G1 F4.0 X3.2031
G2 F8.0 X3.2266 Y2.7906 I0.0469 J0.0
G2 X3.2969 Y2.75 I0.0234 J-0.0406
G2 X3.2266 Y2.7094 I-0.0469 J0.0
G2 X3.2031 Y2.75 I0.0234 J0.0406
G0 Z0.125
G0 X3.2469
G0 Z-0.0313
G1 F4.0 Z-0.125
G2 F8.0 X3.2484 Y2.7527 I0.0031 J0.0
G2 X3.2531 Y2.75 I0.0016 J-0.0027
G2 X3.2484 Y2.7473 I-0.0031 J0.0
G2 X3.2469 Y2.75 I0.0016 J0.0027
G1 F4.0 X3.2406
G2 F8.0 X3.2453 Y2.7581 I0.0094 J0.0
G2 X3.2594 Y2.75 I0.0047 J-0.0081
G2 X3.2453 Y2.7419 I-0.0094 J0.0
G2 X3.2406 Y2.75 I0.0047 J0.0081
G1 F4.0 X3.2281
G2 F8.0 X3.2391 Y2.7689 I0.0219 J0.0
G2 X3.2719 Y2.75 I0.0109 J-0.0189
G2 X3.2391 Y2.7311 I-0.0219 J0.0
G2 X3.2281 Y2.75 I0.0109 J0.0189
G1 F4.0 X3.2156
G2 F8.0 X3.2328 Y2.7798 I0.0344 J0.0
G2 X3.2844 Y2.75 I0.0172 J-0.0298
G2 X3.2328 Y2.7202 I-0.0344 J0.0
G2 X3.2156 Y2.75 I0.0172 J0.0298
G1 F4.0 X3.2031
G2 F8.0 X3.2266 Y2.7906 I0.0469 J0.0
G2 X3.2969 Y2.75 I0.0234 J-0.0406
G2 X3.2266 Y2.7094 I-0.0469 J0.0
G2 X3.2031 Y2.75 I0.0234 J0.0406
G0 Z0.125
G0 X3.2499 Y0.2531
G0 Z0.0625
G1 F4.0 Z-0.0313
G2 F8.0 X3.2531 Y0.25 I0.0001 J-0.0031
G2 X3.2484 Y0.2473 I-0.0031 J0.0
G2 Y0.2527 I0.0016 J0.0027
G2 X3.2499 Y0.2531 I0.0016 J-0.0027
G1 F4.0 X3.2498 Y0.2594
G2 F8.0 X3.2594 Y0.25 I0.0002 J-0.0094
G2 X3.2453 Y0.2419 I-0.0094 J0.0
G2 Y0.2581 I0.0047 J0.0081
G2 X3.2498 Y0.2594 I0.0047 J-0.0081
G1 F4.0 X3.2496 Y0.2719
G2 F8.0 X3.2719 Y0.25 I0.0004 J-0.0219
G2 X3.2391 Y0.2311 I-0.0219 J0.0
G2 Y0.2689 I0.0109 J0.0189
G2 X3.2496 Y0.2719 I0.0109 J-0.0189
G1 F4.0 X3.2494 Y0.2844
G2 F8.0 X3.2844 Y0.25 I0.0006 J-0.0344
G2 X3.2328 Y0.2202 I-0.0344 J0.0
G2 Y0.2798 I0.0172 J0.0298
G2 X3.2494 Y0.2844 I0.0172 J-0.0298
G1 F4.0 X3.2491 Y0.2969
G2 F8.0 X3.2969 Y0.25 I0.0009 J-0.0469
G2 X3.2266 Y0.2094 I-0.0469 J0.0
G2 Y0.2906 I0.0234 J0.0406
G2 X3.2491 Y0.2969 I0.0234 J-0.0406
G0 Z0.125
G0 X3.2499 Y0.2531
G0 Z0.0312
G1 F4.0 Z-0.0625
G2 F8.0 X3.2531 Y0.25 I0.0001 J-0.0031
G2 X3.2484 Y0.2473 I-0.0031 J0.0
G2 Y0.2527 I0.0016 J0.0027
G2 X3.2499 Y0.2531 I0.0016 J-0.0027
G1 F4.0 X3.2498 Y0.2594
G2 F8.0 X3.2594 Y0.25 I0.0002 J-0.0094
G2 X3.2453 Y0.2419 I-0.0094 J0.0
G2 Y0.2581 I0.0047 J0.0081
G2 X3.2498 Y0.2594 I0.0047 J-0.0081
G1 F4.0 X3.2496 Y0.2719
G2 F8.0 X3.2719 Y0.25 I0.0004 J-0.0219
G2 X3.2391 Y0.2311 I-0.0219 J0.0
G2 Y0.2689 I0.0109 J0.0189
G2 X3.2496 Y0.2719 I0.0109 J-0.0189
G1 F4.0 X3.2494 Y0.2844
G2 F8.0 X3.2844 Y0.25 I0.0006 J-0.0344
G2 X3.2328 Y0.2202 I-0.0344 J0.0
G2 Y0.2798 I0.0172 J0.0298
G2 X3.2494 Y0.2844 I0.0172 J-0.0298
G1 F4.0 X3.2491 Y0.2969
G2 F8.0 X3.2969 Y0.25 I0.0009 J-0.0469
G2 X3.2266 Y0.2094 I-0.0469 J0.0
G2 Y0.2906 I0.0234 J0.0406
G2 X3.2491 Y0.2969 I0.0234 J-0.0406
G0 Z0.125
G0 X3.2499 Y0.2531
G0 Z0.0
G1 F4.0 Z-0.0938
G2 F8.0 X3.2531 Y0.25 I0.0001 J-0.0031
G2 X3.2484 Y0.2473 I-0.0031 J0.0
G2 Y0.2527 I0.0016 J0.0027
G2 X3.2499 Y0.2531 I0.0016 J-0.0027
G1 F4.0 X3.2498 Y0.2594
G2 F8.0 X3.2594 Y0.25 I0.0002 J-0.0094
G2 X3.2453 Y0.2419 I-0.0094 J0.0
G2 Y0.2581 I0.0047 J0.0081
G2 X3.2498 Y0.2594 I0.0047 J-0.0081
G1 F4.0 X3.2496 Y0.2719
G2 F8.0 X3.2719 Y0.25 I0.0004 J-0.0219
G2 X3.2391 Y0.2311 I-0.0219 J0.0
G2 Y0.2689 I0.0109 J0.0189
G2 X3.2496 Y0.2719 I0.0109 J-0.0189
G1 F4.0 X3.2494 Y0.2844
G2 F8.0 X3.2844 Y0.25 I0.0006 J-0.0344
G2 X3.2328 Y0.2202 I-0.0344 J0.0
G2 Y0.2798 I0.0172 J0.0298
G2 X3.2494 Y0.2844 I0.0172 J-0.0298
G1 F4.0 X3.2491 Y0.2969
G2 F8.0 X3.2969 Y0.25 I0.0009 J-0.0469
G2 X3.2266 Y0.2094 I-0.0469 J0.0
G2 Y0.2906 I0.0234 J0.0406
G2 X3.2491 Y0.2969 I0.0234 J-0.0406
G0 Z0.125
G0 X3.2499 Y0.2531
G0 Z-0.0313
G1 F4.0 Z-0.125
G2 F8.0 X3.2531 Y0.25 I0.0001 J-0.0031
G2 X3.2484 Y0.2473 I-0.0031 J0.0
G2 Y0.2527 I0.0016 J0.0027
G2 X3.2499 Y0.2531 I0.0016 J-0.0027
G1 F4.0 X3.2498 Y0.2594
G2 F8.0 X3.2594 Y0.25 I0.0002 J-0.0094
G2 X3.2453 Y0.2419 I-0.0094 J0.0
G2 Y0.2581 I0.0047 J0.0081
G2 X3.2498 Y0.2594 I0.0047 J-0.0081
G1 F4.0 X3.2496 Y0.2719
G2 F8.0 X3.2719 Y0.25 I0.0004 J-0.0219
G2 X3.2391 Y0.2311 I-0.0219 J0.0
G2 Y0.2689 I0.0109 J0.0189
G2 X3.2496 Y0.2719 I0.0109 J-0.0189
G1 F4.0 X3.2494 Y0.2844
G2 F8.0 X3.2844 Y0.25 I0.0006 J-0.0344
G2 X3.2328 Y0.2202 I-0.0344 J0.0
G2 Y0.2798 I0.0172 J0.0298
G2 X3.2494 Y0.2844 I0.0172 J-0.0298
G1 F4.0 X3.2491 Y0.2969
G2 F8.0 X3.2969 Y0.25 I0.0009 J-0.0469
G2 X3.2266 Y0.2094 I-0.0469 J0.0
G2 Y0.2906 I0.0234 J0.0406
G2 X3.2491 Y0.2969 I0.0234 J-0.0406
G0 Z0.125
G0 X0.7531 Y0.2501
G0 Z0.0625
G1 F4.0 Z-0.0313
G1 F8.0 Y0.25
G2 X0.7484 Y0.2473 I-0.0031 J0.0
G2 Y0.2527 I0.0016 J0.0027
G2 X0.7531 Y0.2501 I0.0016 J-0.0027
G1 F4.0 X0.7594 Y0.2502
G2 F8.0 Y0.25 I-0.0094 J-0.0002
G2 X0.7453 Y0.2419 I-0.0094 J0.0
G2 Y0.2581 I0.0047 J0.0081
G2 X0.7594 Y0.2502 I0.0047 J-0.0081
G1 F4.0 X0.7719 Y0.2504
G2 F8.0 Y0.25 I-0.0219 J-0.0004
G2 X0.7391 Y0.2311 I-0.0219 J0.0
G2 Y0.2689 I0.0109 J0.0189
G2 X0.7719 Y0.2504 I0.0109 J-0.0189
G1 F4.0 X0.7844 Y0.2506
G2 F8.0 Y0.25 I-0.0344 J-0.0006
G2 X0.7328 Y0.2202 I-0.0344 J0.0
G2 Y0.2798 I0.0172 J0.0298
G2 X0.7844 Y0.2506 I0.0172 J-0.0298
G1 F4.0 X0.7969 Y0.2509
G2 F8.0 Y0.25 I-0.0469 J-0.0009
G2 X0.7266 Y0.2094 I-0.0469 J0.0
G2 Y0.2906 I0.0234 J0.0406
G2 X0.7969 Y0.2509 I0.0234 J-0.0406
G0 Z0.125
G0 X0.7531 Y0.2501
G0 Z0.0312
G1 F4.0 Z-0.0625
G1 F8.0 Y0.25
G2 X0.7484 Y0.2473 I-0.0031 J0.0
G2 Y0.2527 I0.0016 J0.0027
G2 X0.7531 Y0.2501 I0.0016 J-0.0027
G1 F4.0 X0.7594 Y0.2502
G2 F8.0 Y0.25 I-0.0094 J-0.0002
G2 X0.7453 Y0.2419 I-0.0094 J0.0
G2 Y0.2581 I0.0047 J0.0081
G2 X0.7594 Y0.2502 I0.0047 J-0.0081
G1 F4.0 X0.7719 Y0.2504
G2 F8.0 Y0.25 I-0.0219 J-0.0004
G2 X0.7391 Y0.2311 I-0.0219 J0.0
G2 Y0.2689 I0.0109 J0.0189
G2 X0.7719 Y0.2504 I0.0109 J-0.0189
G1 F4.0 X0.7844 Y0.2506
G2 F8.0 Y0.25 I-0.0344 J-0.0006
G2 X0.7328 Y0.2202 I-0.0344 J0.0
G2 Y0.2798 I0.0172 J0.0298
G2 X0.7844 Y0.2506 I0.0172 J-0.0298
G1 F4.0 X0.7969 Y0.2509
G2 F8.0 Y0.25 I-0.0469 J-0.0009
G2 X0.7266 Y0.2094 I-0.0469 J0.0
G2 Y0.2906 I0.0234 J0.0406
G2 X0.7969 Y0.2509 I0.0234 J-0.0406
G0 Z0.125
G0 X0.7531 Y0.2501
G0 Z0.0
G1 F4.0 Z-0.0938
G1 F8.0 Y0.25
G2 X0.7484 Y0.2473 I-0.0031 J0.0
G2 Y0.2527 I0.0016 J0.0027
G2 X0.7531 Y0.2501 I0.0016 J-0.0027
G1 F4.0 X0.7594 Y0.2502
G2 F8.0 Y0.25 I-0.0094 J-0.0002
G2 X0.7453 Y0.2419 I-0.0094 J0.0
G2 Y0.2581 I0.0047 J0.0081
G2 X0.7594 Y0.2502 I0.0047 J-0.0081
G1 F4.0 X0.7719 Y0.2504
G2 F8.0 Y0.25 I-0.0219 J-0.0004
G2 X0.7391 Y0.2311 I-0.0219 J0.0
G2 Y0.2689 I0.0109 J0.0189
G2 X0.7719 Y0.2504 I0.0109 J-0.0189
G1 F4.0 X0.7844 Y0.2506
G2 F8.0 Y0.25 I-0.0344 J-0.0006
G2 X0.7328 Y0.2202 I-0.0344 J0.0
G2 Y0.2798 I0.0172 J0.0298
G2 X0.7844 Y0.2506 I0.0172 J-0.0298
G1 F4.0 X0.7969 Y0.2509
G2 F8.0 Y0.25 I-0.0469 J-0.0009
G2 X0.7266 Y0.2094 I-0.0469 J0.0
G2 Y0.2906 I0.0234 J0.0406
G2 X0.7969 Y0.2509 I0.0234 J-0.0406
G0 Z0.125
G0 X0.7531 Y0.2501
G0 Z-0.0313
G1 F4.0 Z-0.125
G1 F8.0 Y0.25
G2 X0.7484 Y0.2473 I-0.0031 J0.0
G2 Y0.2527 I0.0016 J0.0027
G2 X0.7531 Y0.2501 I0.0016 J-0.0027
G1 F4.0 X0.7594 Y0.2502
G2 F8.0 Y0.25 I-0.0094 J-0.0002
G2 X0.7453 Y0.2419 I-0.0094 J0.0
G2 Y0.2581 I0.0047 J0.0081
G2 X0.7594 Y0.2502 I0.0047 J-0.0081
G1 F4.0 X0.7719 Y0.2504
G2 F8.0 Y0.25 I-0.0219 J-0.0004
G2 X0.7391 Y0.2311 I-0.0219 J0.0
G2 Y0.2689 I0.0109 J0.0189
G2 X0.7719 Y0.2504 I0.0109 J-0.0189
G1 F4.0 X0.7844 Y0.2506
G2 F8.0 Y0.25 I-0.0344 J-0.0006
G2 X0.7328 Y0.2202 I-0.0344 J0.0
G2 Y0.2798 I0.0172 J0.0298
G2 X0.7844 Y0.2506 I0.0172 J-0.0298
G1 F4.0 X0.7969 Y0.2509
G2 F8.0 Y0.25 I-0.0469 J-0.0009
G2 X0.7266 Y0.2094 I-0.0469 J0.0
G2 Y0.2906 I0.0234 J0.0406
G2 X0.7969 Y0.2509 I0.0234 J-0.0406
( Pocket3 )
S10000
G0 Z0.125
G0 X1.0719 Y0.5719
G0 Z0.0625
G1 F4.0 Z-0.02
G1 F8.0 Y0.5766
G3 X1.0766 Y0.5719 I0.0531 J0.0484
G1 X1.0719
G1 F4.0 X1.0656
G1 F8.0 Y0.5971
G3 X1.0971 Y0.5656 I0.0594 J0.0279
G1 X1.0656
G1 Y0.5719
G0 Z0.125
G0 X1.0719 Y2.4234
G0 Z0.0625
G1 F4.0 Z-0.02
G1 F8.0 Y2.4281
G1 X1.0766
G3 X1.0719 Y2.4234 I0.0484 J-0.0531
G1 F4.0 X1.0765 Y2.4192
G3 F8.0 X1.0656 Y2.4029 I0.0485 J-0.0442
G1 Y2.4344
G1 X1.0971
G3 X1.0765 Y2.4192 I0.0279 J-0.0594
G0 Z0.125
G0 X2.9234 Y2.4281
G0 Z0.0625
G1 F4.0 Z-0.02
G1 F8.0 X2.9281
G1 Y2.4234
G3 X2.9234 Y2.4281 I-0.0531 J-0.0484
G1 F4.0 X2.9192 Y2.4235
G3 F8.0 X2.9029 Y2.4344 I-0.0442 J-0.0485
G1 X2.9344
G1 Y2.4029
G3 X2.9192 Y2.4235 I-0.0594 J-0.0279
G0 Z0.125
G0 X2.9281 Y0.5766
G0 Z0.0625
G1 F4.0 Z-0.02
G1 F8.0 Y0.5719
G1 X2.9234
G3 X2.9281 Y0.5766 I-0.0484 J0.0531
G1 F4.0 X2.9344
G1 F8.0 Y0.5656
G1 X2.9029
G3 X2.9344 Y0.5971 I-0.0279 J0.0594
G1 Y0.5766
G0 Z0.125
G0 X2.8968 Y0.6073
G0 Z0.0625
G1 F4.0 Z-0.02
G3 F8.0 X2.9031 Y0.625 I-0.0218 J0.0177
G1 Y2.375
G3 X2.875 Y2.4031 I-0.0281 J0.0
G1 X1.125
G3 X1.0969 Y2.375 I0.0 J-0.0281
G1 Y0.625
G3 X1.125 Y0.5969 I0.0281 J0.0
G1 X2.875
G3 X2.8968 Y0.6073 I0.0 J0.0281
G1 F4.0 X2.8871 Y0.6151
G3 F8.0 X2.8906 Y0.625 I-0.0121 J0.0099
G1 Y2.375
G3 X2.875 Y2.3906 I-0.0156 J0.0
G1 X1.125
G3 X1.1094 Y2.375 I0.0 J-0.0156
G1 Y0.625
G3 X1.125 Y0.6094 I0.0156 J0.0
G1 X2.875
G3 X2.8871 Y0.6151 I0.0 J0.0156
G0 Z0.125
G0 X2.9065 Y0.5994
G0 Z0.0625
G1 F4.0 Z-0.02
G2 F8.0 X2.875 Y0.5844 I-0.0315 J0.0256
G1 X1.125
G2 X1.0844 Y0.625 I0.0 J0.0406
G1 Y2.375
G2 X1.125 Y2.4156 I0.0406 J0.0
G1 X2.875
G2 X2.9156 Y2.375 I0.0 J-0.0406
G1 Y0.625
G2 X2.9065 Y0.5994 I-0.0406 J0.0
G1 F4.0 X2.9162 Y0.5915
G2 F8.0 X2.875 Y0.5719 I-0.0412 J0.0335
G1 X1.125
G2 X1.0719 Y0.625 I0.0 J0.0531
G1 Y2.375
G2 X1.125 Y2.4281 I0.0531 J0.0
G1 X2.875
G2 X2.9281 Y2.375 I0.0 J-0.0531
G1 Y0.625
G2 X2.9162 Y0.5915 I-0.0531 J0.0
G0 Z0.125
G0 X2.9469
G0 Z0.0625
G1 F4.0 Z-0.02
G1 F8.0 Y0.5531
G1 X1.0531
G1 Y2.4469
G1 X2.9469
G1 Y0.5915
G1 F4.0 X2.9594
G1 F8.0 Y0.5406
G1 X1.0406
G1 Y2.4594
G1 X2.9594
G1 Y0.5915
G1 F4.0 X2.9719
G1 F8.0 Y0.5281
G1 X1.0281
G1 Y2.4719
G1 X2.9719
G1 Y0.5915
G1 F4.0 X2.9844
G1 F8.0 Y0.5156
G1 X1.0156
G1 Y2.4844
G1 X2.9844
G1 Y0.5915
G0 Z0.125
G0 X2.3316 Y1.3769
G0 Z0.0625
G1 F4.0 Z-0.02
G1 F8.0 X2.324
G3 X2.3252 Y1.3831 I-0.0619 J0.0157
G3 X2.3266 Y1.4001 I-0.0985 J0.0162
G1 Y1.5855
G3 X2.3211 Y1.6074 I-0.0469 J0.0
G3 X2.3265 Y1.6292 I-0.0414 J0.0218
G1 Y1.8422
G3 X2.3237 Y1.8652 I-0.0872 J0.0011
G1 X2.3331
G3 X2.3301 Y1.841 I0.0671 J-0.0207
G1 Y1.3919
G3 X2.3316 Y1.3769 I0.0625 J-0.0012
G1 F4.0 X2.3377 Y1.3783
G3 F8.0 X2.34 Y1.3706 I0.0549 J0.0125
G1 X2.3153
G3 X2.3191 Y1.3841 I-0.0532 J0.022
G3 X2.3203 Y1.4001 I-0.0923 J0.0153
G1 Y1.5855
G3 X2.3139 Y1.6074 I-0.0406 J0.0
G3 X2.3203 Y1.6292 I-0.0342 J0.0219
G1 Y1.8422
G3 X2.317 Y1.866 I-0.0809 J0.001
G3 X2.3152 Y1.8714 I-0.0576 J-0.0168
G1 X2.3422
G3 X2.3363 Y1.8412 I0.058 J-0.0269
G1 Y1.3919
G3 X2.3377 Y1.3783 I0.0563 J-0.0011
G1 F4.0 X2.3499 Y1.381
G3 F8.0 X2.3634 Y1.3581 I0.0427 J0.0097
G1 X2.2906
G3 X2.2915 Y1.3588 I-0.0374 J0.0535
G3 X2.2964 Y1.3633 I-0.0165 J0.0228
G3 X2.3067 Y1.386 I-0.0342 J0.0293
G3 X2.3078 Y1.4001 I-0.08 J0.0133
G1 Y1.5855
G3 X2.2973 Y1.6074 I-0.0281 J0.0
G3 X2.3078 Y1.6292 I-0.0177 J0.0219
G1 Y1.8423
G3 X2.305 Y1.8625 I-0.0684 J0.0009
G3 X2.2919 Y1.8839 I-0.0456 J-0.0133
G1 X2.3672
G3 X2.3653 Y1.8823 I0.0172 J-0.0223
G3 X2.3488 Y1.8415 I0.0349 J-0.0378
G1 Y1.3917
G3 X2.3499 Y1.381 I0.0438 J-0.001
G0 Z0.125
G0 X2.0423 Y1.6866
G0 Z0.0625
G1 F4.0 Z-0.02
G2 F8.0 X2.0316 Y1.7046 I0.0598 J0.0477
G2 X2.0238 Y1.748 I0.1057 J0.0414
G3 Y1.7502 I-0.0469 J0.0008
G2 X2.0399 Y1.8081 I0.1013 J0.0031
G3 X2.0374 Y1.7949 I0.1483 J-0.0341
G3 X2.0344 Y1.752 I0.2773 J-0.0412
G3 X2.0413 Y1.6909 I0.2489 J-0.003
G3 X2.0423 Y1.6866 I0.134 J0.0306
G1 F4.0 X2.0484 Y1.6881
G3 F8.0 X2.0571 Y1.6646 I0.1269 J0.0334
G2 X2.0514 Y1.6689 I0.1115 J0.1527
G3 X2.0512 Y1.669 I-0.0252 J-0.0319
G2 X2.0258 Y1.7023 I0.051 J0.0652
G2 X2.0176 Y1.7481 I0.1115 J0.0438
G3 Y1.75 I-0.0406 J0.0007
G2 X2.0558 Y1.8356 I0.1075 J0.0033
G2 X2.0559 Y1.8357 I0.0869 J-0.1035
G3 X2.0436 Y1.794 I0.1322 J-0.0617
G3 X2.0406 Y1.752 I0.2711 J-0.0403
G3 X2.0473 Y1.6924 I0.2426 J-0.003
G3 X2.0484 Y1.6881 I0.1279 J0.0292
G1 F4.0 X2.0605 Y1.6913
G3 F8.0 X2.0915 Y1.6374 I0.1148 J0.0302
G3 X2.093 Y1.6361 I0.0198 J0.0199
G3 X2.1076 Y1.6251 I0.085 J0.0983
G2 X2.0436 Y1.6591 I0.061 J0.1921
G3 X2.0435 Y1.6592 I-0.0174 J-0.0221
G2 X2.0143 Y1.6976 I0.0587 J0.075
G2 X2.0051 Y1.7483 I0.1231 J0.0485
G3 Y1.7496 I-0.0281 J0.0005
G2 X2.0478 Y1.8452 I0.12 J0.0037
G2 X2.1057 Y1.875 I0.0949 J-0.113
G3 X2.0703 Y1.8365 I0.0607 J-0.0912
G3 X2.07 Y1.836 I0.0246 J-0.0135
G3 X2.056 Y1.7922 I0.1181 J-0.062
G3 X2.0531 Y1.752 I0.2587 J-0.0386
G3 X2.0595 Y1.6952 I0.2301 J-0.0029
G3 X2.0605 Y1.6913 I0.1158 J0.0263
G0 Z0.125
G0 X2.0271 Y1.657
G0 Z0.0625
G1 F4.0 Z-0.02
G2 F8.0 X2.0027 Y1.6929 I0.0751 J0.0773
G2 X1.9926 Y1.7485 I0.1347 J0.0532
G3 Y1.7492 I-0.0156 J0.0003
G2 X2.0397 Y1.8548 I0.1325 J0.0041
G2 X2.1044 Y1.8876 I0.1029 J-0.1226
G2 X2.1795 Y1.8964 I0.0715 J-0.2858
G3 X2.1797 I0.0002 J0.0156
G1 X2.4508
G1 Y1.8831
G1 X2.4169
G3 X2.3988 Y1.8822 I-0.0011 J-0.1556
G3 X2.3763 Y1.875 I0.0036 J-0.0503
G3 X2.3738 Y1.8731 I0.0081 J-0.0133
G3 X2.3613 Y1.8419 I0.0265 J-0.0286
G1 Y1.3916
G3 X2.3723 Y1.367 I0.0313 J-0.0009
G3 X2.3736 Y1.3659 I0.0102 J0.0119
G3 X2.3897 Y1.3598 I0.0209 J0.0305
G3 X2.402 Y1.3589 I0.0116 J0.0773
G1 X2.4508
G1 Y1.3456
G1 X2.1941
G1 Y1.3589
G1 X2.2508
G3 X2.2842 Y1.3689 I0.0024 J0.0527
G3 X2.2869 Y1.3714 I-0.0092 J0.0126
G3 X2.2944 Y1.388 I-0.0247 J0.0212
G3 X2.2953 Y1.4 I-0.0676 J0.0114
G1 Y1.5855
G3 X2.2797 Y1.6011 I-0.0156 J0.0
G1 X2.1871
G3 X2.187 I0.0 J-0.0156
G2 X2.1067 Y1.6123 I-0.0025 J0.2744
G2 X2.0359 Y1.6493 I0.0619 J0.2049
G1 X2.0358
G2 X2.0271 Y1.657 I0.0664 J0.0849
G0 Z0.125
G0 X2.0779 Y1.6791
G0 Z0.0625
G1 F4.0 Z-0.02
G3 F8.0 X2.1003 Y1.6463 I0.0974 J0.0424
G3 X2.1011 Y1.6455 I0.011 J0.0111
G3 X2.1557 Y1.619 I0.0768 J0.0888
G3 X2.2114 Y1.6136 I0.0526 J0.2507
G1 X2.2797
G3 X2.2953 Y1.6292 I0.0 J0.0156
G1 Y1.8424
G3 X2.293 Y1.859 I-0.0559 J0.0009
G3 X2.2805 Y1.8772 I-0.0336 J-0.0098
G3 X2.2789 Y1.8783 I-0.0094 J-0.0125
G3 X2.2619 Y1.8842 I-0.0236 J-0.0407
G3 X2.2485 Y1.8858 I-0.0235 J-0.137
G3 X2.2231 Y1.8866 I-0.0238 J-0.3343
G3 X2.177 Y1.8846 I-0.0025 J-0.4561
G3 X2.129 Y1.8734 I0.0122 J-0.1617
G3 X2.1287 Y1.8733 I0.0058 J-0.0145
G3 X2.0812 Y1.8305 I0.0377 J-0.0895
G3 X2.0811 Y1.8302 I0.0137 J-0.0075
G3 X2.0683 Y1.7905 I0.107 J-0.0562
G3 X2.0656 Y1.7519 I0.2464 J-0.0368
G3 X2.0717 Y1.6981 I0.2177 J-0.0029
G3 X2.0779 Y1.6791 I0.1036 J0.0235
G0 Z0.125
G0 X1.8674 Y1.5933
G0 Z0.0625
G1 F4.0 Z-0.02
G2 F8.0 X1.8697 Y1.5872 I-0.1322 J-0.0539
G2 X1.8805 Y1.5196 I-0.1899 J-0.065
G3 Y1.5186 I0.0406 J-0.0005
G2 X1.8721 Y1.4556 I-0.2239 J-0.0025
G2 X1.859 Y1.4243 I-0.1359 J0.0387
G3 X1.8591 Y1.4246 I-0.1366 J0.0386
G3 X1.8666 Y1.4602 I-0.2408 J0.0694
G3 Y1.4604 I-0.0402 J0.0055
G3 X1.8707 Y1.5266 I-0.4756 J0.0625
G3 X1.8685 Y1.5727 I-0.4576 J0.0018
G3 X1.8646 Y1.5997 I-0.2496 J-0.0229
G2 X1.8674 Y1.5933 I-0.1294 J-0.0603
G1 F4.0 X1.8789 Y1.598
G2 F8.0 X1.8815 Y1.5913 I-0.1438 J-0.0586
G2 X1.893 Y1.5194 I-0.2017 J-0.0691
G3 Y1.5188 I0.0281 J-0.0004
G2 X1.8842 Y1.4522 I-0.2364 J-0.0026
G2 X1.8545 Y1.396 I-0.1479 J0.0421
G3 X1.8544 Y1.3958 I0.0216 J-0.018
G2 X1.8147 Y1.3636 I-0.0972 J0.0792
G2 X1.7867 Y1.3544 I-0.0473 J0.0966
G3 X1.7972 Y1.3598 I-0.0364 J0.0838
G3 X1.7976 Y1.3601 I-0.0144 J0.0241
G3 X1.8307 Y1.392 I-0.0586 J0.0938
G3 X1.831 Y1.3925 I-0.0233 J0.0157
G3 X1.847 Y1.428 I-0.1087 J0.0704
G3 X1.8542 Y1.4619 I-0.2288 J0.066
G3 Y1.462 I-0.0278 J0.0038
G3 X1.8582 Y1.5265 I-0.4632 J0.0609
G3 X1.8561 Y1.5715 I-0.4451 J0.0018
G3 X1.8469 Y1.6187 I-0.2372 J-0.0217
G3 X1.8313 Y1.6517 I-0.118 J-0.0356
G3 X1.8098 Y1.6752 I-0.0816 J-0.053
G2 X1.8436 Y1.6505 I-0.059 J-0.1164
G3 X1.844 Y1.6502 I0.02 J0.0197
G2 X1.8789 Y1.598 I-0.1088 J-0.1108
G1 F4.0 X1.8905 Y1.6027
G2 F8.0 X1.8933 Y1.5955 I-0.1554 J-0.0633
G2 X1.9055 Y1.5193 I-0.2135 J-0.0732
G3 Y1.5189 I0.0156 J-0.0002
G2 X1.8962 Y1.4488 I-0.2489 J-0.0027
G2 X1.8642 Y1.388 I-0.1599 J0.0455
G3 X1.8641 Y1.3879 I0.012 J-0.01
G2 X1.8203 Y1.3524 I-0.1069 J0.0871
G2 X1.7662 Y1.3402 I-0.0529 J0.1078
G3 X1.7658 I-0.0002 J-0.0156
G2 X1.7048 Y1.3582 I-0.0015 J0.107
G3 X1.7046 Y1.3583 I-0.0087 J-0.013
G2 X1.6696 Y1.4059 I0.0459 J0.0704
G3 X1.6716 Y1.403 I0.126 J0.0848
G3 X1.6717 Y1.4029 I0.0128 J0.009
G3 X1.704 Y1.3723 I0.0962 J0.0691
G3 X1.7042 Y1.3722 I0.0084 J0.0132
G3 X1.7496 Y1.3593 I0.0452 J0.0727
G3 X1.7908 Y1.3705 I0.0007 J0.0789
G3 X1.791 Y1.3706 I-0.008 J0.0134
G3 X1.8204 Y1.399 I-0.052 J0.0832
G3 X1.8205 Y1.3992 I-0.013 J0.0087
G3 X1.835 Y1.4314 I-0.0982 J0.0636
G3 X1.8418 Y1.4636 I-0.2168 J0.0626
G3 X1.8457 Y1.5265 I-0.4509 J0.0593
G3 X1.8437 Y1.5704 I-0.4327 J0.0018
G3 X1.835 Y1.6151 I-0.2248 J-0.0205
G3 X1.8209 Y1.6449 I-0.106 J-0.032
G3 X1.7485 Y1.6835 I-0.0712 J-0.0462
G3 X1.6774 Y1.6556 I-0.0027 J-0.0979
G3 X1.6757 Y1.6537 I0.0109 J-0.0112
G2 X1.7009 Y1.683 I0.056 J-0.0227
G3 X1.7014 Y1.6833 I-0.0079 J0.0135
G2 X1.7587 Y1.6995 I0.0556 J-0.0868
G3 X1.7591 I0.0003 J0.0156
G2 X1.8096 Y1.6892 I0.0008 J-0.1244
G2 X1.8525 Y1.6593 I-0.0589 J-0.1303
G3 X1.8527 Y1.6591 I0.0111 J0.011
G2 X1.8905 Y1.6027 I-0.1176 J-0.1197
G0 Z0.125
G0 X1.6298 Y1.6155
G0 Z0.0625
G1 F4.0 Z-0.02
G3 F8.0 X1.6242 Y1.5964 I0.2253 J-0.0764
G3 Y1.5963 I0.0394 J-0.0098
G3 X1.6184 Y1.5658 I0.2865 J-0.0704
G1 Y1.6332
G3 X1.6298 Y1.6155 I0.0387 J0.0124
G0 Z0.125
G0 X1.6184 Y1.4791
G0 Z0.0625
G1 F4.0 Z-0.02
G3 F8.0 X1.6218 Y1.4583 I0.3232 J0.0421
G3 X1.6282 Y1.4338 I0.1739 J0.0324
G3 X1.6184 Y1.4216 I0.0261 J-0.0311
G1 Y1.4791
G0 Z0.125
G0 X1.6106 Y1.3747
G0 Z0.0625
G1 F4.0 Z-0.02
G1 F8.0 X1.6102 Y1.3706
G1 X1.6086
G3 X1.6106 Y1.3747 I-0.0683 J0.0353
G0 Z0.125
G0 X1.6184 Y1.8562
G0 Z0.0625
G1 F4.0 Z-0.02
G1 F8.0 Y1.8761
G1 X1.6269 Y1.8757
G3 X1.6184 Y1.8562 I0.0532 J-0.0351
G1 F4.0 X1.6059
G1 F8.0 Y1.8892
G1 X1.6575 Y1.8867
G3 X1.6511 Y1.8828 I0.031 J-0.0569
G3 X1.6289 Y1.84 I0.029 J-0.0422
G1 Y1.6456
G3 X1.6448 Y1.6203 I0.0281 J0.0
G3 X1.6363 Y1.5934 I0.2103 J-0.0812
G1 Y1.5933
G3 X1.6281 Y1.5242 I0.2744 J-0.0674
G3 X1.634 Y1.4606 I0.3134 J-0.003
G3 X1.6435 Y1.4286 I0.1616 J0.0301
G3 X1.6263 Y1.4055 I0.0108 J-0.0259
G1 X1.6215 Y1.3581
G1 X1.5823
G3 X1.5896 Y1.3646 I-0.0328 J0.0444
G3 X1.5915 Y1.3668 I-0.0204 J0.0193
G3 X1.6041 Y1.397 I-0.0511 J0.0391
G3 X1.6059 Y1.42 I-0.1336 J0.0217
G1 Y1.8562
G1 F4.0 X1.5934
G1 F8.0 Y1.9023
G1 X1.7184 Y1.8963
G1 Y1.8831
G1 X1.7009
G3 X1.681 Y1.8816 I-0.0011 J-0.1153
G3 X1.6583 Y1.8725 I0.0075 J-0.0517
G3 X1.6414 Y1.84 I0.0218 J-0.032
G1 Y1.6456
G3 X1.6631 Y1.6312 I0.0156 J0.0
G3 X1.6484 Y1.5904 I0.192 J-0.0922
G1 Y1.5903
G3 X1.6406 Y1.5242 I0.2622 J-0.0644
G3 X1.6463 Y1.463 I0.3009 J-0.003
G3 X1.664 Y1.4149 I0.1493 J0.0277
G3 X1.6388 Y1.4042 I-0.0097 J-0.0122
G1 X1.6328 Y1.3456
G1 X1.5246
G1 Y1.3589
G1 X1.5421
G3 X1.5608 Y1.3613 I0.0009 J0.0665
G3 X1.5805 Y1.3732 I-0.0114 J0.0412
G3 X1.5815 Y1.3744 I-0.0113 J0.0107
G3 X1.5918 Y1.3989 I-0.0412 J0.0315
G3 X1.5934 Y1.4199 I-0.1213 J0.0198
G1 Y1.8562
G0 Z0.125
G0 X1.516 Y2.0701
G0 Z0.0625
G1 F4.0 Z-0.02
G3 F8.0 X1.509 Y2.0797 I-0.0256 J-0.0116
G3 X1.516 Y2.0893 I-0.0186 J0.0211
G3 X1.5231 Y2.0797 I0.0256 J0.0115
G3 X1.516 Y2.0701 I0.0186 J-0.0211
G0 Z0.125
G0 X1.6431 Y2.0867
G0 Z0.0625
G1 F4.0 Z-0.02
G3 F8.0 X1.6432 Y2.087 I-0.0243 J0.0141
G1 X1.6435 Y2.0867
G1 X1.6431
G0 Z0.125
G0 X1.5318 Y2.2173
G0 Z0.0625
G1 F4.0 Z-0.02
G3 F8.0 X1.5185 Y2.207 I0.0099 J-0.0263
G1 Y2.2328
G1 X1.5318 Y2.2173
G1 F4.0 X1.5413 Y2.2255
G1 F8.0 X1.6628 Y2.0833
G1 Y2.0742
G1 X1.5417
G3 X1.526 Y2.0585 I0.0 J-0.0156
G1 Y1.9956
G1 X1.506
G1 Y2.0585
G3 X1.4904 Y2.0742 I-0.0156 J0.0
G1 X1.4757
G1 Y2.0852
G1 X1.4904
G3 X1.506 Y2.1008 I0.0 J0.0156
G1 Y2.266
G1 X1.5066
G1 X1.5413 Y2.2255
G1 F4.0 X1.5415 Y2.2066
G3 F8.0 X1.526 Y2.191 I0.0002 J-0.0156
G1 Y2.1008
G3 X1.5417 Y2.0852 I0.0156 J0.0
G1 X1.6188
G3 X1.6306 Y2.1109 I0.0 J0.0156
G1 X1.5535 Y2.2012
G3 X1.5415 Y2.2066 I-0.0119 J-0.0102
G0 Z0.125
G0 X1.3794 Y2.1422
G0 Z0.0625
G1 F4.0 Z-0.02
G2 F8.0 X1.3819 Y2.1323 I-0.1228 J-0.0363
G3 X1.3764 Y2.1388 I-0.0561 J-0.0417
G3 X1.3794 Y2.1422 I-0.0245 J0.0241
G1 F4.0 X1.3744 Y2.146
G3 F8.0 X1.3799 Y2.1593 I-0.0224 J0.0169
G2 X1.3815 Y2.1553 I-0.1918 J-0.0808
G2 X1.3909 Y2.1068 I-0.1248 J-0.0494
G2 X1.3906 Y2.0934 I-0.2269 J-0.0014
G3 X1.3845 Y2.1151 I-0.0974 J-0.0153
G3 X1.3844 Y2.1156 I-0.026 J-0.0106
G3 X1.367 Y2.1391 I-0.0586 J-0.025
G3 X1.3744 Y2.146 I-0.015 J0.0238
G1 F4.0 X1.3644 Y2.1535
G3 F8.0 X1.3666 Y2.1685 I-0.0125 J0.0094
G3 X1.3501 Y2.1994 I-0.1318 J-0.0503
G3 X1.3288 Y2.2252 I-0.1725 J-0.1208
G3 X1.2868 Y2.26 I-0.1672 J-0.1592
G1 X1.2949 Y2.2686
G2 X1.3303 Y2.2481 I-0.0373 J-0.1051
G2 X1.3658 Y2.2091 I-0.1352 J-0.1589
G3 X1.366 Y2.2089 I0.0128 J0.009
G2 X1.3931 Y2.16 I-0.1779 J-0.1304
G2 X1.4034 Y2.1068 I-0.1364 J-0.054
G2 X1.4007 Y2.0694 I-0.2394 J-0.0015
G1 Y2.0693
G2 X1.3907 Y2.035 I-0.1301 J0.0191
G2 X1.3787 Y2.0162 I-0.072 J0.0327
G2 X1.3554 Y1.9991 I-0.0495 J0.0431
G2 X1.3144 Y1.9915 I-0.0388 J0.095
G3 X1.3138 I-0.0003 J-0.0156
G2 X1.2837 Y1.997 I-0.0009 J0.0806
G2 X1.2589 Y2.0139 I0.0268 J0.0658
G3 X1.2588 Y2.014 I-0.0113 J-0.0107
G2 X1.242 Y2.0415 I0.0537 J0.0519
G2 X1.2367 Y2.0748 I0.0958 J0.0321
G3 Y2.0752 I-0.0156 J0.0002
G2 X1.2417 Y2.1083 I0.1039 J0.0014
G2 X1.2581 Y2.1352 I0.0659 J-0.0218
G3 X1.2582 Y2.1353 I-0.0111 J0.0109
G2 X1.2835 Y2.1518 I0.0485 J-0.0467
G2 X1.3148 Y2.1569 I0.0301 J-0.0854
G2 X1.3295 Y2.1547 I-0.001 J-0.0548
G3 X1.3296 Y2.1546 I0.0045 J0.015
G2 X1.3454 Y2.1487 I-0.0323 J-0.1106
G3 X1.3644 Y2.1535 I0.0065 J0.0142
G0 Z0.125
G0 X1.3526 Y2.1342
G0 Z0.0625
G1 F4.0 Z-0.02
G3 F8.0 X1.3422 Y2.1391 I-0.0268 J-0.0436
G1 X1.3421
G3 X1.3177 Y2.1429 I-0.0234 J-0.0704
G3 X1.275 Y2.1221 I-0.0008 J-0.0525
G3 X1.2629 Y2.0976 I0.0513 J-0.0408
G3 X1.2598 Y2.0729 I0.0925 J-0.0238
G3 X1.2627 Y2.0491 I0.0948 J-0.0009
G3 X1.2745 Y2.025 I0.0608 J0.015
G3 X1.2746 Y2.0249 I0.0122 J0.0098
G3 X1.2941 Y2.0101 I0.0403 J0.0329
G3 X1.2943 Y2.01 I0.0063 J0.0143
G3 X1.317 Y2.0056 I0.0221 J0.0531
G3 X1.3458 Y2.0112 I0.0014 J0.0694
G3 X1.3462 Y2.0114 I-0.0062 J0.0144
G3 X1.3702 Y2.0339 I-0.0215 J0.047
G3 X1.377 Y2.0527 I-0.061 J0.0328
G3 X1.3793 Y2.0758 I-0.1083 J0.0224
G3 X1.373 Y2.1104 I-0.0861 J0.0022
G3 X1.3729 Y2.1107 I-0.0145 J-0.0059
G3 X1.3526 Y2.1342 I-0.0471 J-0.0201
( Pocket2 )
S10000
G0 Z0.125
G0 X2.1624 Y0.7222
G0 Z0.0625
G1 F4.0 Z-0.02
G2 F8.0 X2.1559 Y0.7086 I-0.0564 J0.0187
G2 X2.1435 Y0.697 I-0.0299 J0.0194
G3 X2.1563 Y0.715 I-0.0277 J0.0334
G3 X2.1608 Y0.7301 I-0.08 J0.0317
G3 X2.163 Y0.7446 I-0.1473 J0.0295
G1 Y0.7447
G3 X2.1643 Y0.7727 I-0.2732 J0.0265
G3 X2.163 Y0.796 I-0.2031 J0.001
G3 X2.1574 Y0.8206 I-0.1035 J-0.0106
G3 X2.1526 Y0.8306 I-0.0499 J-0.018
G2 X2.1538 Y0.8288 I-0.0372 J-0.0281
G3 X2.1539 Y0.8287 I0.0116 J0.0079
G2 X2.1656 Y0.8036 I-0.065 J-0.0456
G2 X2.1692 Y0.775 I-0.1054 J-0.0277
G3 Y0.7748 I0.014 J-0.0001
G2 X2.1678 Y0.7478 I-0.2388 J-0.0011
G1 Y0.7477
G2 X2.1625 Y0.7226 I-0.1231 J0.0128
G2 X2.1624 Y0.7222 I-0.0565 J0.0184
G0 Z0.125
G0 X2.0834 Y0.7112
G0 Z0.0625
G1 F4.0 Z-0.02
G2 F8.0 X2.0724 Y0.7385 I0.0698 J0.0439
G1 Y0.7386
G2 X2.0692 Y0.7708 I0.1473 J0.0309
G3 Y0.771 I-0.014 J0.0001
G2 X2.0711 Y0.7992 I0.1875 J0.0012
G3 Y0.7993 I-0.0139 J0.002
G2 X2.0784 Y0.8246 I0.0902 J-0.0124
G2 X2.0872 Y0.8373 I0.041 J-0.0191
G2 X2.0924 Y0.8414 I0.025 J-0.0256
G3 X2.0826 Y0.8285 I0.0244 J-0.0288
G3 X2.0775 Y0.8133 I0.0583 J-0.0279
G3 X2.0753 Y0.7993 I0.1287 J-0.0269
G1 Y0.7992
G3 X2.0742 Y0.7725 I0.2646 J-0.0252
G3 X2.0748 Y0.7511 I0.3289 J-0.0009
G3 X2.0776 Y0.7288 I0.1672 J0.0097
G3 X2.0827 Y0.7126 I0.0714 J0.0136
G3 X2.0834 Y0.7112 I0.0367 J0.0166
G1 F4.0 X2.08 Y0.7091
G2 F8.0 X2.0685 Y0.7377 I0.0732 J0.0461
G1 Y0.7378
G2 X2.0652 Y0.7709 I0.1512 J0.0317
G3 Y0.771 I-0.01 J0.0001
G2 X2.0672 Y0.7998 I0.1915 J0.0012
G1 Y0.7999
G2 X2.0748 Y0.8263 I0.0942 J-0.013
G2 X2.0844 Y0.8401 I0.0446 J-0.0208
G2 X2.1038 Y0.8505 I0.0278 J-0.0284
G2 X2.1175 Y0.852 I0.0133 J-0.0591
G3 X2.1177 I0.0001 J0.01
G2 X2.14 Y0.8467 I0.0007 J-0.0467
G2 X2.1572 Y0.8311 I-0.0246 J-0.0442
G3 Y0.831 I0.0083 J0.0056
G2 X2.1695 Y0.8046 I-0.0683 J-0.0479
G2 X2.1732 Y0.7749 I-0.1093 J-0.0288
G3 Y0.7748 I0.01 J-0.0001
G2 X2.1718 Y0.7474 I-0.2428 J-0.0011
G1 Y0.7473
G2 X2.1663 Y0.7214 I-0.1271 J0.0132
G2 X2.1592 Y0.7064 I-0.0603 J0.0196
G2 X2.1425 Y0.692 I-0.0332 J0.0216
G2 X2.1195 Y0.6876 I-0.0219 J0.0513
G3 X2.1191 I-0.0002 J-0.01
G2 X2.097 Y0.6927 I-0.0008 J0.0463
G2 X2.0805 Y0.7083 I0.0227 J0.0406
G1 X2.0804 Y0.7084
G2 X2.08 Y0.7091 I0.0727 J0.0468
G1 F4.0 X2.0871 Y0.7127
G3 F8.0 X2.1002 Y0.6984 I0.0323 J0.0165
G3 X2.1005 Y0.6982 I0.0053 J0.0085
G3 X2.1202 Y0.6932 I0.0189 J0.0333
G3 X2.1406 Y0.6998 I0.0006 J0.0327
G3 X2.141 Y0.7001 I-0.006 J0.008
G3 X2.1526 Y0.7164 I-0.0251 J0.0303
G3 X2.1569 Y0.7309 I-0.0763 J0.0302
G3 X2.159 Y0.745 I-0.1434 J0.0288
G1 Y0.7451
G3 X2.1603 Y0.7727 I-0.2692 J0.0262
G3 X2.1591 Y0.7956 I-0.1992 J0.001
G3 X2.1537 Y0.8192 I-0.0996 J-0.0102
G3 X2.1443 Y0.8351 I-0.0462 J-0.0166
G3 X2.1442 Y0.8352 I-0.0075 J-0.0066
G3 X2.1183 Y0.8464 I-0.0253 J-0.0231
G3 X2.0862 Y0.8268 I-0.0015 J-0.0338
G3 X2.0814 Y0.8125 I0.0547 J-0.0262
G3 X2.0793 Y0.7989 I0.1248 J-0.0261
G1 Y0.7988
G3 X2.0781 Y0.7725 I0.2607 J-0.0248
G3 X2.0788 Y0.7513 I0.3249 J-0.0009
G3 X2.0815 Y0.7296 I0.1632 J0.0095
G3 X2.0863 Y0.7142 I0.0674 J0.0128
G3 X2.0871 Y0.7127 I0.033 J0.0149
G0 Z0.125
G0 X2.006 Y0.7259
G0 Z0.0625
G1 F4.0 Z-0.02
G3 F8.0 X2.0068 Y0.737 I-0.0657 J0.0107
G3 X2.003 Y0.7579 I-0.052 J0.0013
G3 Y0.7581 I-0.0093 J-0.0038
G3 X1.9843 Y0.7753 I-0.0287 J-0.0122
G1 X1.9842 Y0.7754
G3 X1.9695 Y0.7776 I-0.0142 J-0.0426
G3 X1.9435 Y0.765 I-0.0005 J-0.032
G3 X1.9362 Y0.7502 I0.0311 J-0.0247
G3 X1.9343 Y0.7353 I0.0558 J-0.0144
G3 X1.936 Y0.721 I0.0571 J-0.0005
G3 X1.9432 Y0.7063 I0.0369 J0.0091
G3 X1.9433 I0.0078 J0.0062
G3 X1.9551 Y0.6973 I0.0245 J0.02
G3 X1.9553 Y0.6972 I0.004 J0.0092
G3 X1.9691 Y0.6945 I0.0134 J0.0323
G3 X1.9865 Y0.6979 I0.0008 J0.042
G3 X1.9867 Y0.698 I-0.0039 J0.0092
G3 X2.0013 Y0.7118 I-0.0131 J0.0286
G3 X2.0055 Y0.7231 I-0.037 J0.0199
G3 X2.006 Y0.7259 I-0.0652 J0.0135
G0 Z0.125
G0 X2.0118 Y0.7573
G0 Z0.0625
G1 F4.0 Z-0.02
G3 F8.0 X2.0104 Y0.7609 I-0.0569 J-0.019
G3 X2.0103 Y0.7612 I-0.0167 J-0.0068
G3 X2.0008 Y0.7746 I-0.036 J-0.0154
G3 X2.0067 Y0.7826 I-0.011 J0.0143
G2 X2.0118 Y0.7573 I-0.0736 J-0.0277
G1 F4.0 X2.0197 Y0.7576
G2 F8.0 X2.0198 Y0.7555 I-0.0866 J-0.0026
G2 X2.0182 Y0.7333 I-0.1418 J-0.0009
G2 X2.0123 Y0.713 I-0.0767 J0.0113
G2 X2.0053 Y0.702 I-0.0422 J0.0192
G2 X1.9916 Y0.692 I-0.0289 J0.0252
G2 X1.9675 Y0.6876 I-0.0229 J0.0559
G3 X1.9672 I-0.0002 J-0.01
G2 X1.9495 Y0.6908 I-0.0006 J0.0473
G2 X1.935 Y0.7007 I0.0157 J0.0385
G1 X1.9349
G2 X1.9251 Y0.7168 I0.0314 J0.0304
G2 X1.922 Y0.7364 I0.0563 J0.0189
G3 Y0.7366 I-0.01 J0.0001
G2 X1.9249 Y0.7562 I0.0611 J0.0008
G2 X1.9345 Y0.7719 I0.0386 J-0.0128
G3 X1.9346 I-0.0071 J0.007
G2 X1.9494 Y0.7816 I0.0284 J-0.0273
G2 X1.9677 Y0.7846 I0.0177 J-0.0501
G2 X1.9763 Y0.7833 I-0.0006 J-0.0319
G1 X1.9764
G2 X1.9857 Y0.7798 I-0.019 J-0.0652
G3 X1.9992 Y0.7925 I0.0042 J0.0091
G3 X1.9893 Y0.811 I-0.0791 J-0.0302
G3 X1.9766 Y0.8265 I-0.1032 J-0.0723
G3 X1.9522 Y0.8468 I-0.1 J-0.0953
G1 X1.9561 Y0.851
G2 X1.9765 Y0.8391 I-0.0224 J-0.0618
G2 X1.9976 Y0.816 I-0.08 J-0.094
G3 X1.9977 Y0.8158 I0.0082 J0.0057
G2 X2.0137 Y0.7869 I-0.1053 J-0.0772
G2 X2.0197 Y0.7576 I-0.0806 J-0.0319
G0 Z0.125
G0 X1.86 Y0.6975
G0 Z0.0625
G1 F4.0 Z-0.02
G2 F8.0 X1.8602 Y0.6963 I-0.0029 J-0.0011
G3 Y0.6957 I0.018 J-0.0004
G2 X1.8591 Y0.6931 I-0.0035 J-0.0001
G3 X1.8589 Y0.6929 I0.0127 J-0.0128
G2 X1.8565 Y0.6919 I-0.0024 J0.0023
G3 X1.8559 I-0.0003 J-0.018
G2 X1.8537 Y0.6928 I-0.0001 J0.0029
G3 X1.8532 Y0.6933 I-0.013 J-0.0124
G2 X1.8522 Y0.6957 I0.0023 J0.0024
G3 Y0.6963 I-0.018 J0.0003
G2 X1.8531 Y0.6985 I0.0029 J0.0001
G3 X1.8537 Y0.6991 I-0.0124 J0.013
G2 X1.8559 Y0.7 I0.0021 J-0.002
G3 X1.8565 I0.0003 J0.018
G2 X1.8589 Y0.699 I0.0001 J-0.0033
G3 X1.8592 Y0.6986 I0.0129 J0.0125
G2 X1.86 Y0.6975 I-0.0022 J-0.0022
G1 F4.0 X1.8675 Y0.7003
G2 F8.0 X1.8682 Y0.6962 I-0.0104 J-0.0039
G3 Y0.6958 I0.01 J-0.0002
G2 X1.8648 Y0.6875 I-0.0115 J-0.0002
G3 X1.8646 Y0.6873 I0.007 J-0.0071
G2 X1.8564 Y0.6839 I-0.0081 J0.0079
G3 X1.856 I-0.0002 J-0.01
G2 X1.8479 Y0.6873 I-0.0002 J0.0109
G3 X1.8477 Y0.6875 I-0.0072 J-0.0069
G2 X1.8442 Y0.6958 I0.0079 J0.0081
G3 Y0.6962 I-0.01 J0.0002
G2 X1.8476 Y0.7043 I0.0109 J0.0002
G3 X1.8479 Y0.7046 I-0.0069 J0.0072
G2 X1.856 Y0.708 I0.0079 J-0.0075
G3 X1.8564 I0.0002 J0.01
G2 X1.8646 Y0.7045 I0.0002 J-0.0113
G3 X1.8648 Y0.7043 I0.0072 J0.007
G2 X1.8675 Y0.7003 I-0.0078 J-0.0079
G0 Z0.125
G0 X1.7729 Y0.7474
G0 Z0.0625
G1 F4.0 Z-0.02
G3 F8.0 X1.7715 Y0.7584 I-0.009 J0.0045
G1 X1.7256 Y0.8121
G3 X1.708 Y0.8056 I-0.0076 J-0.0065
G1 Y0.7519
G3 X1.718 Y0.7419 I0.01 J0.0
G1 X1.7639
G3 X1.7729 Y0.7474 I0.0 J0.01
G0 Z0.125
G0 X1.7051 Y0.7393
G0 Z0.0625
G1 F4.0 Z-0.02
G3 F8.0 X1.7028 Y0.7363 I0.0129 J-0.0126
G3 X1.7004 Y0.7393 I-0.0153 J-0.0095
G3 X1.7028 Y0.7424 I-0.0129 J0.0126
G3 X1.7051 Y0.7393 I0.0152 J0.0095
G0 Z0.125
G0 X1.7055 Y0.8185
G0 Z0.0625
G1 F4.0 Z-0.02
G1 F8.0 Y0.8271
G1 X1.7101 Y0.8217
G3 X1.7055 Y0.8185 I0.0079 J-0.0161
G1 F4.0 X1.6975
G1 F8.0 Y0.8488
G1 X1.7894 Y0.7412
G1 Y0.7368
G1 X1.718
G3 X1.708 Y0.7268 I0.0 J-0.01
G1 Y0.69
G1 X1.6975
G1 Y0.7268
G3 X1.6875 Y0.7368 I-0.01 J0.0
G1 X1.6794
G1 Y0.7419
G1 X1.6875
G3 X1.6975 Y0.7519 I0.0 J0.01
G1 Y0.8185
G0 Z0.125
G0 X2.2557 Y0.8205
G0 Z0.0625
G1 F4.0 Z-0.02
G1 F8.0 Y0.8285
G3 X2.2605 Y0.8245 I0.103 J0.1202
G3 X2.2557 Y0.8205 I0.0089 J-0.0156
G1 F4.0 X2.2477
G1 F8.0 Y0.8474
G3 X2.2699 Y0.8275 I0.111 J0.1013
G3 X2.2958 Y0.8114 I0.117 J0.1596
G1 Y0.8047
G1 X2.2746 Y0.8175
G3 X2.2594 Y0.8089 I-0.0051 J-0.0086
G1 Y0.69
G1 X2.2477
G1 Y0.8205
( Pocket4 )
S10000
G0 Z0.125
G0 X2.7312 Y1.0649
G0 Z0.0625
G1 F4.0 Z-0.02
G3 F8.0 X2.7212 Y1.0792 I-0.0235 J-0.0058
G3 X2.7312 Y1.0935 I-0.0135 J0.0201
G1 Y1.0649
G0 Z0.125
G0 Y1.172
G0 Z0.0625
G1 F4.0 Z-0.02
G3 F8.0 X2.726 Y1.182 I-0.0235 J-0.0057
G1 X2.7312
G1 Y1.172
G0 Z0.125
G0 X2.6167 Y1.174
G0 Z0.0625
G1 F4.0 Z-0.02
G3 F8.0 X2.6132 Y1.1704 I0.0389 J-0.0419
G3 X2.613 Y1.1701 I0.018 J-0.0162
G3 X2.5994 Y1.1327 I0.0412 J-0.0361
G3 X2.6091 Y1.1009 I0.0556 J-0.0004
G3 X2.6118 Y1.0973 I0.0455 J0.031
G2 X2.6039 Y1.108 I0.0287 J0.0294
G3 X2.6038 Y1.1082 I-0.0215 J-0.011
G2 X2.5999 Y1.1193 I0.0357 J0.0186
G2 X2.5986 Y1.1334 I0.0712 J0.0136
G3 Y1.1338 I-0.0242 J0.0002
G2 X2.6008 Y1.1515 I0.0668 J0.0007
G2 X2.6074 Y1.1648 I0.0369 J-0.0098
G3 X2.6077 Y1.1652 I-0.0192 J0.0147
G2 X2.6167 Y1.174 I0.0304 J-0.0223
G1 F4.0 X2.6197 Y1.1707
G3 F8.0 X2.6165 Y1.1674 I0.0359 J-0.0386
G3 X2.6163 Y1.1672 I0.0147 J-0.0132
G3 X2.6038 Y1.1327 I0.0379 J-0.0332
G3 X2.6127 Y1.1034 I0.0512 J-0.0005
G3 X2.637 Y1.0844 I0.0419 J0.0285
G3 X2.6373 Y1.0843 I0.0069 J0.0186
G3 X2.6505 Y1.0811 I0.0215 J0.0611
G3 X2.6613 Y1.08 I0.0202 J0.1447
G1 X2.6614
G3 X2.6816 Y1.0794 I0.0191 J0.3064
G1 X2.7077
G3 X2.7275 Y1.0992 I0.0 J0.0198
G1 Y1.1663
G3 X2.7077 Y1.186 I-0.0198 J0.0
G1 X2.6847
G3 X2.667 Y1.1858 I-0.001 J-0.5743
G3 X2.6475 Y1.1842 I0.0026 J-0.1541
G3 X2.6471 I0.0028 J-0.0196
G3 X2.6197 Y1.1707 I0.0085 J-0.0521
G1 F4.0 X2.6257 Y1.1643
G3 F8.0 X2.623 Y1.1615 I0.03 J-0.0322
G3 X2.6229 Y1.1614 I0.0082 J-0.0074
G3 X2.6126 Y1.1328 I0.0313 J-0.0274
G3 X2.62 Y1.1083 I0.0424 J-0.0005
G3 X2.6401 Y1.0926 I0.0346 J0.0235
G3 X2.6402 I0.0038 J0.0103
G3 X2.6517 Y1.0898 I0.0186 J0.0528
G3 X2.6619 Y1.0888 I0.019 J0.136
G3 X2.6816 Y1.0882 I0.0185 J0.2976
G1 X2.7077
G3 X2.7187 Y1.0992 I0.0 J0.011
G1 Y1.1663
G3 X2.7077 Y1.1773 I-0.011 J0.0
G1 X2.6847
G3 X2.6672 Y1.177 I-0.001 J-0.5655
G3 X2.6488 Y1.1755 I0.0024 J-0.1453
G3 X2.6486 I0.0016 J-0.0109
G3 X2.6257 Y1.1643 I0.0071 J-0.0434
G0 Z0.125
G0 X2.6171 Y1.1794
G0 Z0.0625
G1 F4.0 Z-0.02
G2 F8.0 X2.6269 Y1.1835 I0.021 J-0.0365
G2 X2.6377 Y1.1851 I0.0161 J-0.0705
G3 X2.6379 I-0.0015 J0.0197
G2 X2.6512 Y1.1859 I0.0241 J-0.2771
G2 X2.6788 Y1.1864 I0.0259 J-0.6835
G1 X2.6789
G1 X2.7356
G1 Y0.9898
G1 X2.7275
G1 Y1.0591
G3 X2.7077 Y1.0789 I-0.0198 J0.0
G1 X2.6766
G1 X2.6765
G2 X2.6528 Y1.0795 I-0.0012 J0.4329
G3 X2.6527 I-0.001 J-0.0198
G2 X2.6311 Y1.0819 I0.0075 J0.1662
G2 X2.614 Y1.0897 I0.0116 J0.0481
G2 X2.6 Y1.106 I0.0265 J0.037
G3 X2.5999 Y1.1061 I-0.0176 J-0.009
G2 X2.5956 Y1.1185 I0.0396 J0.0206
G2 X2.5942 Y1.1334 I0.0755 J0.0144
G3 Y1.1337 I-0.0198 J0.0001
G2 X2.5966 Y1.1526 I0.0712 J0.0007
G2 X2.6039 Y1.1675 I0.0411 J-0.0109
G3 X2.6041 Y1.1678 I-0.0157 J0.012
G2 X2.6171 Y1.1794 I0.0339 J-0.0249
G1 F4.0 X2.6127 Y1.187
G2 F8.0 X2.6248 Y1.192 I0.0253 J-0.0441
G2 X2.637 Y1.1939 I0.0183 J-0.0791
G3 X2.6372 I-0.0008 J0.011
G2 X2.6508 Y1.1947 I0.0248 J-0.2859
G2 X2.6788 Y1.1952 I0.0262 J-0.6923
G1 X2.6789
G1 X2.7444
G1 Y0.981
G1 X2.7187
G1 Y1.0591
G3 X2.7077 Y1.0701 I-0.011 J0.0
G1 X2.6766
G2 X2.6524 Y1.0707 I-0.0012 J0.4417
G1 X2.6523
G2 X2.6294 Y1.0733 I0.0079 J0.175
G2 X2.6089 Y1.0826 I0.0134 J0.0567
G2 X2.5921 Y1.102 I0.0316 J0.0442
G1 Y1.1021
G2 X2.587 Y1.1168 I0.0474 J0.0247
G2 X2.5854 Y1.1335 I0.0841 J0.0161
G3 Y1.1337 I-0.011 J0.0001
G2 X2.5881 Y1.1548 I0.08 J0.0008
G2 X2.5969 Y1.1728 I0.0496 J-0.0132
G3 X2.597 Y1.173 I-0.0087 J0.0067
G2 X2.6127 Y1.187 I0.041 J-0.0301
G0 Z0.125
G0 X2.5138 Y1.1112
G0 Z0.0625
G1 F4.0 Z-0.02
G1 F8.0 X2.5128 Y1.111
G3 X2.5085 Y1.1162 I-0.0363 J-0.0252
G2 X2.5138 Y1.1112 I-0.0215 J-0.028
G0 Z0.125
G0 X2.5178 Y1.0389
G0 Z0.0625
G1 F4.0 Z-0.02
G2 F8.0 X2.5236 Y1.0323 I-0.0155 J-0.0195
G2 X2.5277 Y1.0171 I-0.0244 J-0.0147
G3 Y1.0162 I0.0198 J-0.0003
G2 X2.5189 Y0.995 I-0.028 J-0.0008
G2 X2.5072 Y0.9882 I-0.0206 J0.0222
G2 X2.5054 Y0.9877 I-0.0156 J0.052
G3 X2.5088 Y0.9906 I-0.0275 J0.0351
G3 X2.522 Y1.0214 I-0.0287 J0.0306
G3 X2.5178 Y1.0389 I-0.0376 J0.0002
G0 Z0.125
G0 X2.422 Y1.0669
G0 Z0.0625
G1 F4.0 Z-0.02
G3 F8.0 X2.421 Y1.0656 I0.0192 J-0.0147
G1 Y1.0683
G3 X2.422 Y1.0669 I0.0202 J0.0134
G0 Z0.125
G0 X2.4211 Y1.0103
G0 Z0.0625
G1 F4.0 Z-0.02
G3 F8.0 X2.4223 Y1.0074 I0.0491 J0.0189
G3 X2.4209 Y1.0062 I0.0153 J-0.0187
G3 X2.421 Y1.0085 I-0.1499 J0.008
G3 X2.4211 Y1.0103 I-0.3701 J0.0169
G1 F4.0 X2.4252 Y1.0119
G3 F8.0 X2.428 Y1.006 I0.045 J0.0174
G3 X2.4189 Y0.995 I0.0097 J-0.0173
G3 X2.4173 Y0.9898 I0.1062 J-0.0357
G1 X2.4147
G3 X2.4166 Y1.0087 I-0.1437 J0.0244
G3 X2.417 Y1.0263 I-0.3657 J0.0167
G3 Y1.0264 I-0.0198 J0.0
G1 X2.4165 Y1.0792
G2 X2.417 Y1.0932 I0.1946 J0.0006
G3 Y1.0933 I-0.0198 J0.0014
G2 X2.4187 Y1.1056 I0.0826 J-0.0052
G3 Y1.1057 I-0.0193 J0.0042
G2 X2.4203 Y1.1102 I0.0178 J-0.0038
G2 X2.4243 Y1.115 I0.0147 J-0.0083
G2 X2.4318 Y1.1197 I0.0231 J-0.0282
G2 X2.4376 Y1.1219 I0.0216 J-0.0491
G3 X2.4357 Y1.1205 I0.0247 J-0.0368
G3 X2.4344 Y1.1195 I0.0119 J-0.0158
G3 X2.4233 Y1.1012 I0.0247 J-0.0276
G3 X2.4214 Y1.086 I0.0543 J-0.0144
G1 Y1.0817
G3 X2.428 Y1.0669 I0.0198 J0.0
G3 X2.4214 Y1.0522 I0.0132 J-0.0147
G1 Y1.0432
G3 X2.4217 Y1.0312 I0.2211 J-0.0007
G3 X2.4237 Y1.0164 I0.0733 J0.0026
G3 X2.424 Y1.0154 I0.0192 J0.0047
G3 X2.4252 Y1.0119 I0.0461 J0.0139
G1 F4.0 X2.4324 Y0.9984
G3 F8.0 X2.4272 Y0.9922 I0.0052 J-0.0097
G3 X2.4254 Y0.9863 I0.0979 J-0.0329
G2 X2.4238 Y0.981 I-0.1573 J0.0443
G1 X2.4032
G3 X2.4058 Y0.9904 I-0.1067 J0.0344
G3 X2.4059 Y0.991 I-0.0107 J0.0024
G3 X2.4078 Y1.0091 I-0.1349 J0.0232
G3 X2.4082 Y1.0263 I-0.3569 J0.0163
G1 X2.4077 Y1.0792
G2 X2.4082 Y1.0938 I0.2034 J0.0006
G2 X2.4101 Y1.1075 I0.0913 J-0.0058
G2 X2.4125 Y1.1143 I0.0264 J-0.0056
G2 X2.4187 Y1.1218 I0.0224 J-0.0124
G2 X2.4282 Y1.1277 I0.0287 J-0.035
G2 X2.447 Y1.1327 I0.0253 J-0.0571
G3 X2.4471 Y1.1328 I-0.0012 J0.0109
G2 X2.4687 Y1.134 I0.0204 J-0.1689
G3 X2.4688 I0.0001 J0.011
G2 X2.4927 Y1.1319 I0.0012 J-0.1238
G3 X2.4929 I0.002 J0.0108
G2 X2.5128 Y1.124 I-0.009 J-0.0519
G2 X2.5247 Y1.1111 I-0.0257 J-0.0358
G2 X2.5281 Y1.1048 I-0.0585 J-0.0353
G1 X2.5084 Y1.1013
G3 X2.507 Y1.1036 I-0.0523 J-0.0279
G3 X2.4973 Y1.1144 I-0.0305 J-0.0178
G3 X2.497 Y1.1146 I-0.0065 J-0.0089
G3 X2.484 Y1.1201 I-0.0203 J-0.0295
G3 X2.472 Y1.1213 I-0.0116 J-0.0549
G3 X2.4578 Y1.1203 I-0.0008 J-0.0869
G3 X2.441 Y1.1135 I0.0045 J-0.0352
G3 X2.4403 Y1.1129 I0.0066 J-0.0088
G3 X2.4318 Y1.0989 I0.0188 J-0.0211
G3 X2.4302 Y1.0861 I0.0457 J-0.0122
G1 Y1.0817
G3 X2.4373 Y1.0714 I0.011 J0.0
G3 X2.4605 Y1.0644 I0.0582 J0.1525
G3 X2.4832 Y1.0597 I0.1178 J0.5091
G2 X2.5006 Y1.0557 I-0.0414 J-0.2202
G1 X2.5007
G2 X2.5166 Y1.0499 I-0.0245 J-0.0926
G2 X2.5312 Y1.0368 I-0.0143 J-0.0305
G2 X2.5365 Y1.0169 I-0.032 J-0.0193
G3 Y1.0164 I0.011 J-0.0002
G2 X2.5249 Y0.9885 I-0.0368 J-0.001
G2 X2.5097 Y0.9798 I-0.0266 J0.0287
G2 X2.4908 Y0.9771 I-0.0181 J0.0604
G3 X2.4906 I-0.0001 J-0.011
G2 X2.4668 Y0.9819 I-0.0004 J0.0601
G2 X2.4454 Y0.9965 I0.0285 J0.0648
G3 X2.4324 Y0.9984 I-0.0078 J-0.0078
G1 F4.0 X2.4397 Y1.0043
G3 F8.0 X2.4472 Y0.9972 I0.0305 J0.025
G3 X2.4769 Y0.987 I0.0304 J0.0401
G3 X2.5027 Y0.997 I0.0011 J0.0358
G3 X2.5133 Y1.0214 I-0.0227 J0.0243
G3 X2.5094 Y1.036 I-0.0288 J0.0002
G3 X2.5093 Y1.0362 I-0.0095 J-0.0055
G3 X2.4996 Y1.0464 I-0.0284 J-0.0172
G3 X2.4988 Y1.0469 I-0.0062 J-0.0091
G3 X2.4842 Y1.0528 I-0.0295 J-0.0525
G3 X2.471 Y1.056 I-0.0549 J-0.1959
G1 X2.4709
G2 X2.4444 Y1.0627 I0.0575 J0.2846
G3 X2.4302 Y1.0522 I-0.0032 J-0.0105
G1 Y1.0432
G3 X2.4305 Y1.0316 I0.2123 J-0.0007
G3 X2.4323 Y1.0185 I0.0645 J0.0022
G3 X2.4324 Y1.0179 I0.0107 J0.0026
G3 X2.4397 Y1.0043 I0.0377 J0.0114
G0 Z0.125
G0 X2.3323
G0 Z0.0625
G1 F4.0 Z-0.02
G1 F8.0 Y0.9898
G1 X2.3266
G1 Y1.1864
G1 X2.3323
G1 Y1.0043
G1 F4.0 X2.3411
G1 F8.0 Y0.981
G1 X2.3178
G1 Y1.1952
G1 X2.3411
G1 Y1.0043
G0 Z0.125
G0 X2.2406
G0 Z0.0625
G1 F4.0 Z-0.02
G1 F8.0 Y0.9898
G1 X2.2349
G1 Y1.1864
G1 X2.2406
G1 Y1.0043
G1 F4.0 X2.2494
G1 F8.0 Y0.981
G1 X2.2261
G1 Y1.1952
G1 X2.2494
G1 Y1.0043
G0 Z0.125
G0 X2.1607 Y1.0127
G0 Z0.0625
G1 F4.0 Z-0.02
G2 F8.0 X2.152 Y0.995 I-0.0279 J0.0027
G2 X2.1403 Y0.9882 I-0.0206 J0.0222
G2 X2.1385 Y0.9877 I-0.0156 J0.052
G3 X2.1419 Y0.9906 I-0.0275 J0.0351
G3 X2.1551 Y1.0214 I-0.0287 J0.0306
G3 X2.1509 Y1.0389 I-0.0376 J0.0002
G2 X2.1567 Y1.0323 I-0.0155 J-0.0195
G2 X2.1608 Y1.0171 I-0.0244 J-0.0147
G3 Y1.0162 I0.0198 J-0.0003
G2 X2.1607 Y1.0127 I-0.028 J-0.0008
G0 Z0.125
G0 X2.1459 Y1.111
G0 Z0.0625
G1 F4.0 Z-0.02
G3 F8.0 X2.1416 Y1.1162 I-0.0363 J-0.0252
G2 X2.1469 Y1.1112 I-0.0215 J-0.028
G1 X2.1459 Y1.111
G0 Z0.125
G0 X2.0551 Y1.0669
G0 Z0.0625
G1 F4.0 Z-0.02
G3 F8.0 X2.0541 Y1.0656 I0.0192 J-0.0147
G1 Y1.0683
G3 X2.0551 Y1.0669 I0.0202 J0.0134
G0 Z0.125
G0 X2.0542 Y1.0103
G0 Z0.0625
G1 F4.0 Z-0.02
G3 F8.0 X2.0554 Y1.0074 I0.0491 J0.0189
G3 X2.054 Y1.0062 I0.0153 J-0.0187
G3 X2.0541 Y1.0085 I-0.1499 J0.008
G3 X2.0542 Y1.0103 I-0.3701 J0.0169
G1 F4.0 X2.0583 Y1.0119
G3 F8.0 X2.0611 Y1.006 I0.045 J0.0174
G3 X2.052 Y0.995 I0.0097 J-0.0173
G3 X2.0504 Y0.9898 I0.1062 J-0.0357
G1 X2.0478
G3 X2.0497 Y1.0087 I-0.1437 J0.0244
G3 X2.0501 Y1.0263 I-0.3657 J0.0167
G3 Y1.0264 I-0.0198 J0.0
G1 X2.0496 Y1.0792
G2 X2.0501 Y1.0932 I0.1946 J0.0006
G3 Y1.0933 I-0.0198 J0.0014
G2 X2.0518 Y1.1056 I0.0826 J-0.0052
G3 Y1.1057 I-0.0193 J0.0042
G2 X2.0534 Y1.1102 I0.0178 J-0.0038
G2 X2.0574 Y1.115 I0.0147 J-0.0083
G2 X2.0649 Y1.1197 I0.0231 J-0.0282
G2 X2.0707 Y1.1219 I0.0216 J-0.0491
G3 X2.0688 Y1.1205 I0.0247 J-0.0368
G3 X2.0675 Y1.1195 I0.0119 J-0.0158
G3 X2.0564 Y1.1012 I0.0247 J-0.0276
G3 X2.0545 Y1.086 I0.0543 J-0.0144
G1 Y1.0817
G3 X2.0611 Y1.0669 I0.0198 J0.0
G3 X2.0545 Y1.0522 I0.0132 J-0.0147
G1 Y1.0432
G3 X2.0548 Y1.0312 I0.2211 J-0.0007
G3 X2.0568 Y1.0164 I0.0733 J0.0026
G3 X2.0571 Y1.0154 I0.0192 J0.0047
G3 X2.0583 Y1.0119 I0.0461 J0.0139
G1 F4.0 X2.0655 Y0.9984
G3 F8.0 X2.0603 Y0.9922 I0.0052 J-0.0097
G3 X2.0585 Y0.9863 I0.0979 J-0.0329
G2 X2.0569 Y0.981 I-0.1573 J0.0443
G1 X2.0363
G3 X2.0389 Y0.9904 I-0.1067 J0.0344
G3 X2.039 Y0.991 I-0.0107 J0.0024
G3 X2.0409 Y1.0091 I-0.1349 J0.0232
G3 X2.0413 Y1.0263 I-0.3569 J0.0163
G1 X2.0408 Y1.0792
G2 X2.0413 Y1.0938 I0.2034 J0.0006
G2 X2.0432 Y1.1075 I0.0913 J-0.0058
G2 X2.0456 Y1.1143 I0.0264 J-0.0056
G2 X2.0518 Y1.1218 I0.0224 J-0.0124
G2 X2.0613 Y1.1277 I0.0287 J-0.035
G2 X2.0801 Y1.1327 I0.0253 J-0.0571
G3 X2.0802 Y1.1328 I-0.0012 J0.0109
G2 X2.1018 Y1.134 I0.0204 J-0.1689
G3 X2.1019 I0.0001 J0.011
G2 X2.1258 Y1.1319 I0.0012 J-0.1238
G3 X2.126 I0.002 J0.0108
G2 X2.1459 Y1.124 I-0.009 J-0.0519
G2 X2.1578 Y1.1111 I-0.0257 J-0.0358
G2 X2.1612 Y1.1048 I-0.0585 J-0.0353
G1 X2.1415 Y1.1013
G3 X2.1401 Y1.1036 I-0.0523 J-0.0279
G3 X2.1304 Y1.1144 I-0.0305 J-0.0178
G3 X2.1301 Y1.1146 I-0.0065 J-0.0089
G3 X2.1171 Y1.1201 I-0.0203 J-0.0295
G3 X2.1051 Y1.1213 I-0.0116 J-0.0549
G3 X2.0909 Y1.1203 I-0.0008 J-0.0869
G3 X2.0741 Y1.1135 I0.0045 J-0.0352
G3 X2.0734 Y1.1129 I0.0066 J-0.0088
G3 X2.0649 Y1.0989 I0.0188 J-0.0211
G3 X2.0633 Y1.0861 I0.0457 J-0.0122
G1 Y1.0817
G3 X2.0704 Y1.0714 I0.011 J0.0
G3 X2.0936 Y1.0644 I0.0582 J0.1525
G3 X2.1163 Y1.0597 I0.1178 J0.5091
G2 X2.1337 Y1.0557 I-0.0414 J-0.2202
G1 X2.1338
G2 X2.1497 Y1.0499 I-0.0245 J-0.0926
G2 X2.1643 Y1.0368 I-0.0143 J-0.0305
G2 X2.1696 Y1.0169 I-0.032 J-0.0193
G3 Y1.0164 I0.011 J-0.0002
G2 X2.158 Y0.9885 I-0.0368 J-0.001
G2 X2.1428 Y0.9798 I-0.0266 J0.0287
G2 X2.1239 Y0.9771 I-0.0181 J0.0604
G3 X2.1237 I-0.0001 J-0.011
G2 X2.0999 Y0.9819 I-0.0004 J0.0601
G2 X2.0785 Y0.9965 I0.0285 J0.0648
G3 X2.0655 Y0.9984 I-0.0078 J-0.0078
G1 F4.0 X2.0728 Y1.0043
G3 F8.0 X2.0803 Y0.9972 I0.0305 J0.025
G3 X2.11 Y0.987 I0.0304 J0.0401
G3 X2.1358 Y0.997 I0.0011 J0.0358
G3 X2.1464 Y1.0214 I-0.0227 J0.0243
G3 X2.1425 Y1.036 I-0.0288 J0.0002
G3 X2.1424 Y1.0362 I-0.0095 J-0.0055
G3 X2.1327 Y1.0464 I-0.0284 J-0.0172
G3 X2.1319 Y1.0469 I-0.0062 J-0.0091
G3 X2.1173 Y1.0528 I-0.0295 J-0.0525
G3 X2.1041 Y1.056 I-0.0549 J-0.1959
G1 X2.104
G2 X2.0775 Y1.0627 I0.0575 J0.2846
G3 X2.0633 Y1.0522 I-0.0032 J-0.0105
G1 Y1.0432
G3 X2.0636 Y1.0316 I0.2123 J-0.0007
G3 X2.0654 Y1.0185 I0.0645 J0.0022
G3 X2.0655 Y1.0179 I0.0107 J0.0026
G3 X2.0728 Y1.0043 I0.0377 J0.0114
G0 Z0.125
G0 X1.9724 Y1.0287
G0 Z0.0625
G1 F4.0 Z-0.02
G2 F8.0 X1.9718 Y1.0262 I-0.1066 J0.0259
G2 X1.9594 Y1.0028 I-0.0577 J0.0155
G2 X1.9431 Y0.9901 I-0.0398 J0.0346
G2 X1.9339 Y0.987 I-0.0188 J0.0397
G3 X1.9386 Y0.9894 I-0.0224 J0.0491
G3 X1.9391 Y0.9897 I-0.0099 J0.0171
G3 X1.9586 Y1.0096 I-0.0305 J0.0494
G3 X1.9588 Y1.01 I-0.017 J0.01
G3 X1.9674 Y1.0364 I-0.0633 J0.0351
G3 X1.9689 Y1.0592 I-0.1568 J0.0217
G3 X1.9663 Y1.0836 I-0.1062 J0.001
G3 X1.9537 Y1.1098 I-0.0618 J-0.0134
G3 X1.9377 Y1.1234 I-0.0422 J-0.0337
G2 X1.96 Y1.1092 I-0.0129 J-0.045
G2 X1.972 Y1.0863 I-0.0412 J-0.0361
G1 Y1.0862
G2 X1.9755 Y1.0565 I-0.1115 J-0.0283
G3 Y1.056 I0.0198 J-0.0002
G2 X1.9724 Y1.0287 I-0.1097 J-0.0013
G0 Z0.125
G0 X1.8564 Y1.015
G0 Z0.0625
G1 F4.0 Z-0.02
G3 F8.0 X1.8524 Y1.0115 I0.0139 J-0.0198
G1 Y1.0265
G3 X1.8564 Y1.015 I0.0684 J0.0171
G0 Z0.125
G0 X1.8524 Y1.086
G0 Z0.0625
G1 F4.0 Z-0.02
G1 F8.0 Y1.1093
G3 X1.8585 Y1.1021 I0.0211 J0.0119
G3 X1.8524 Y1.086 I0.0624 J-0.0327
G1 F4.0 X1.848
G1 F8.0 Y1.1864
G1 X1.8537
G1 Y1.1211
G3 X1.8644 Y1.1036 I0.0198 J0.0
G3 X1.8558 Y1.0804 I0.0565 J-0.0342
G3 X1.8536 Y1.0549 I0.1312 J-0.0242
G3 X1.8562 Y1.0299 I0.1119 J-0.001
G3 X1.8621 Y1.0132 I0.0647 J0.0137
G3 X1.8505 Y0.9951 I0.0081 J-0.018
G1 Y0.9898
G1 X1.848
G1 Y1.086
G1 F4.0 X1.8392
G1 F8.0 Y1.1952
G1 X1.8625
G1 Y1.1211
G3 X1.8819 Y1.114 I0.011 J0.0
G2 X1.9006 Y1.1288 I0.0471 J-0.0402
G2 X1.9231 Y1.134 I0.0221 J-0.0447
G3 X1.9234 I0.0001 J0.011
G2 X1.9666 Y1.115 I0.0013 J-0.0556
G2 X1.9805 Y1.0885 I-0.0478 J-0.0419
G1 Y1.0884
G2 X1.9843 Y1.0563 I-0.1201 J-0.0305
G3 Y1.0561 I0.011 J-0.0001
G2 X1.9803 Y1.0239 I-0.1185 J-0.0014
G2 X1.9661 Y0.997 I-0.0662 J0.0177
G2 X1.9469 Y0.9822 I-0.0465 J0.0403
G2 X1.9239 Y0.9771 I-0.0226 J0.0477
G2 X1.9002 Y0.983 I0.0004 J0.0526
G2 X1.8793 Y1.0014 I0.0266 J0.0511
G3 X1.8593 Y0.9951 I-0.0091 J-0.0062
G1 Y0.981
G1 X1.8392
G1 Y1.086
G0 Z0.125
G0 X1.8648 Y1.0808
G0 Z0.0625
G1 F4.0 Z-0.02
G3 F8.0 X1.8644 Y1.0789 I0.0561 J-0.0114
G3 X1.8623 Y1.0549 I0.1226 J-0.0227
G3 X1.8647 Y1.0318 I0.1031 J-0.001
G3 X1.8756 Y1.0084 I0.0561 J0.0118
G3 X1.9108 Y0.9909 I0.0353 J0.0269
G3 X1.9342 Y0.997 I0.0007 J0.0452
G3 X1.9345 Y0.9972 I-0.0055 J0.0095
G3 X1.951 Y1.014 I-0.0259 J0.0419
G3 X1.9511 Y1.0143 I-0.0095 J0.0056
G3 X1.9587 Y1.0376 I-0.0556 J0.0309
G3 X1.9601 Y1.0592 I-0.1481 J0.0206
G3 X1.9577 Y1.0817 I-0.0974 J0.001
G3 X1.9469 Y1.1043 I-0.0532 J-0.0115
G3 X1.9113 Y1.1213 I-0.0353 J-0.0282
G3 X1.8753 Y1.104 I-0.0007 J-0.0446
G3 X1.8752 Y1.1039 I0.0087 J-0.0067
G3 X1.8648 Y1.0808 I0.0457 J-0.0345
G0 Z0.125
G0 X1.7638
G0 Z0.0625
G1 F4.0 Z-0.02
G1 F8.0 Y0.9898
G1 X1.7581
G1 Y1.1213
G1 X1.7638
G1 Y1.0808
G1 F4.0 X1.7726
G1 F8.0 Y0.981
G1 X1.7493
G1 Y1.1301
G1 X1.7726
G1 Y1.0808
G0 Z0.125
G0 X1.6731
G0 Z0.0625
G1 F4.0 Z-0.02
G1 F8.0 Y1.0328
G3 Y1.0327 I0.0198 J0.0
G2 X1.6721 Y1.0162 I-0.1228 J-0.0008
G3 X1.672 Y1.016 I0.0196 J-0.0025
G2 X1.6686 Y1.0029 I-0.0493 J0.0059
G2 X1.6576 Y0.9912 I-0.0227 J0.0103
G3 X1.6575 Y0.9911 I0.0093 J-0.0175
G2 X1.6427 Y0.9863 I-0.0205 J0.0379
G3 X1.6469 Y0.9887 I-0.0224 J0.0428
G3 X1.6477 Y0.9893 I-0.0109 J0.0165
G3 X1.6641 Y1.0124 I-0.0263 J0.0362
G3 X1.6645 Y1.0137 I-0.0189 J0.0058
G3 X1.6665 Y1.0279 I-0.0818 J0.0188
G3 X1.6671 Y1.0397 I-0.2911 J0.0206
G3 X1.6674 Y1.0625 I-0.7145 J0.0213
G1 Y1.1213
G1 X1.6731
G1 Y1.0808
G1 F4.0 X1.6819
G1 F8.0 Y1.0328
G2 X1.6808 Y1.015 I-0.1316 J-0.0008
G3 Y1.0149 I0.0109 J-0.0014
G2 X1.6767 Y0.9993 I-0.0581 J0.007
G2 X1.6618 Y0.9834 I-0.0308 J0.0138
G1 X1.6617
G2 X1.6362 Y0.9771 I-0.0247 J0.0457
G3 X1.636 I-0.0002 J-0.011
G2 X1.6091 Y0.9838 I-0.0001 J0.0574
G3 X1.6089 I-0.0051 J-0.0097
G2 X1.5902 Y0.9992 I0.0247 J0.0489
G3 X1.5923 Y0.9978 I0.0265 J0.0351
G3 X1.6191 Y0.9896 I0.0265 J0.0388
G3 X1.642 Y0.9961 I0.0012 J0.0395
G3 X1.6425 Y0.9964 I-0.006 J0.0092
G3 X1.6557 Y1.015 I-0.0212 J0.0291
G3 X1.6559 Y1.0157 I-0.0105 J0.0032
G3 X1.6577 Y1.0285 I-0.0733 J0.0169
G3 X1.6583 Y1.04 I-0.2823 J0.02
G3 X1.6586 Y1.0625 I-0.7057 J0.0211
G1 Y1.1301
G1 X1.6819
G1 Y1.0808
G0 Z0.125
G0 X1.7581 Y1.1841
G0 Z0.0625
G1 F4.0 Z-0.02
G1 F8.0 Y1.1864
G1 X1.7638
G1 Y1.1841
G1 X1.7581
G1 F4.0 Y1.1753
G1 F8.0 X1.7493
G1 Y1.1952
G1 X1.7726
G1 Y1.1753
G1 X1.7581
G0 Z0.125
G0 X1.5614 Y1.0206
G0 Z0.0625
G1 F4.0 Z-0.02
G3 F8.0 X1.5627 Y1.0159 I0.0784 J0.0179
G3 X1.5632 Y1.0141 I0.0232 J0.0068
G3 X1.5634 Y1.0138 I0.0534 J0.0202
G3 X1.5614 Y1.012 I0.0159 J-0.0182
G1 Y1.0206
G1 F4.0 X1.557
G1 F8.0 Y1.1213
G1 X1.5627
G1 Y1.069
G3 X1.564 Y1.0325 I0.3969 J-0.0037
G3 X1.5669 Y1.0171 I0.0758 J0.006
G3 X1.5674 Y1.0157 I0.019 J0.0056
G3 X1.5687 Y1.0124 I0.0493 J0.0186
G3 X1.5595 Y0.9956 I0.0105 J-0.0168
G1 Y0.9898
G1 X1.557
G1 Y1.0206
G1 F4.0 X1.5482
G1 F8.0 Y0.981
G1 X1.5683
G1 Y0.9956
G2 X1.5832 Y1.0059 I0.011 J0.0
G2 X1.5756 Y1.0188 I0.0335 J0.0284
G2 X1.5753 Y1.0196 I0.0103 J0.0039
G2 X1.5728 Y1.0332 I0.0645 J0.019
G2 X1.5715 Y1.069 I0.3868 J0.032
G1 Y1.1301
G1 X1.5482
G1 Y1.0206
G0 Z0.125
G0 X1.4695 Y1.0899
G0 Z0.0625
G1 F4.0 Z-0.02
G3 F8.0 X1.4682 Y1.0951 I-0.1003 J-0.0232
G3 X1.4679 Y1.0958 I-0.0233 J-0.0067
G3 X1.4669 Y1.0987 I-0.0529 J-0.017
G3 X1.4695 Y1.1011 I-0.0149 J0.019
G1 Y1.0899
G1 F4.0 X1.4739
G1 F8.0 Y0.9898
G1 X1.4682
G1 Y1.0531
G3 X1.4676 Y1.0721 I-0.2583 J0.001
G3 X1.4639 Y1.0939 I-0.0984 J-0.0055
G3 X1.4638 Y1.0945 I-0.019 J-0.0055
G3 X1.4615 Y1.1004 I-0.0488 J-0.0156
G3 X1.4718 Y1.1178 I-0.0095 J0.0174
G1 Y1.1213
G1 X1.4739
G1 Y1.0899
G0 Z0.125
G0 X1.3695 Y1.1031
G0 Z0.0625
G1 F4.0 Z-0.02
G3 F8.0 Y1.1028 I0.0428 J-0.0128
G3 X1.3694 Y1.1027 I0.0232 J-0.0068
G3 X1.3671 Y1.0904 I0.064 J-0.0183
G3 X1.3667 Y1.0854 I0.1633 J-0.0168
G3 X1.3645 Y1.0943 I-0.1015 J-0.0203
G3 X1.3635 Y1.0975 I-0.0542 J-0.0159
G3 X1.3695 Y1.1031 I-0.0132 J0.0203
G1 F4.0 X1.366 Y1.1057
G3 F8.0 X1.3678 Y1.1084 I-0.0157 J0.012
G2 X1.3798 Y1.1209 I0.0285 J-0.0153
G2 X1.3919 Y1.1248 I0.0175 J-0.0336
G3 X1.3898 Y1.1236 I0.0209 J-0.0381
G3 X1.3886 Y1.1228 I0.0105 J-0.0168
G3 X1.3737 Y1.1016 I0.0238 J-0.0325
G3 Y1.1015 I0.019 J-0.0056
G3 X1.3715 Y1.0899 I0.0598 J-0.0171
G3 X1.3708 Y1.0809 I0.159 J-0.0164
G1 Y1.0808
G3 X1.3705 Y1.0638 I0.3605 J-0.0161
G1 Y0.9898
G1 X1.3648
G1 Y1.0521
G3 X1.3641 Y1.0713 I-0.242 J0.001
G3 X1.3603 Y1.093 I-0.0989 J-0.0062
G1 Y1.0931
G1 Y1.093
G3 X1.3579 Y1.0995 I-0.05 J-0.0147
G3 X1.366 Y1.1057 I-0.0076 J0.0183
G0 Z0.125
G0 X1.2891 Y1.1245
G0 Z0.0625
G1 F4.0 Z-0.02
G3 F8.0 X1.2754 Y1.1115 I0.0209 J-0.0357
G3 X1.2747 Y1.1103 I0.0166 J-0.0109
G3 X1.2697 Y1.0965 I0.0395 J-0.022
G3 X1.2683 Y1.0862 I0.0941 J-0.0187
G3 X1.2675 Y1.0678 I0.2005 J-0.0173
G1 Y0.9898
G1 X1.2618
G1 Y1.0794
G3 Y1.0795 I-0.0198 J0.0
G2 X1.2625 Y1.0955 I0.1601 J0.0009
G3 X1.2626 Y1.0958 I-0.0197 J0.0019
G2 X1.2651 Y1.1076 I0.0437 J-0.0033
G2 X1.2762 Y1.1202 I0.0245 J-0.0105
G2 X1.2859 Y1.1239 I0.0167 J-0.0287
G2 X1.2891 Y1.1245 I0.0117 J-0.0538
G1 F4.0 X1.2936 Y1.1169
G3 F8.0 X1.2828 Y1.1067 I0.0164 J-0.0281
G3 X1.2824 Y1.106 I0.0092 J-0.006
G3 X1.2784 Y1.0948 I0.0318 J-0.0177
G3 X1.277 Y1.0855 I0.0855 J-0.0171
G1 Y1.0854
G3 X1.2763 Y1.0678 I0.1918 J-0.0165
G1 Y0.981
G1 X1.253
G1 Y1.0794
G1 Y1.0795
G2 X1.2538 Y1.0963 I0.1689 J0.0009
G3 Y1.0965 I-0.011 J0.001
G2 X1.2569 Y1.1108 I0.0525 J-0.004
G2 X1.2718 Y1.1278 I0.0327 J-0.0137
G2 X1.284 Y1.1325 I0.0212 J-0.0362
G2 X1.298 Y1.134 I0.0136 J-0.0624
G3 X1.2982 I0.0001 J0.011
G2 X1.3208 Y1.1285 I0.0002 J-0.0487
G2 X1.3417 Y1.1109 I-0.0328 J-0.0601
G3 X1.36 Y1.1126 I0.0086 J0.0068
G2 X1.3755 Y1.1286 I0.0362 J-0.0194
G2 X1.3984 Y1.134 I0.0218 J-0.0413
G3 X1.3987 I0.0003 J0.011
G2 X1.4233 Y1.128 I0.0004 J-0.0514
G2 X1.4434 Y1.1109 I-0.033 J-0.0593
G3 X1.463 Y1.1178 I0.0086 J0.0068
G1 Y1.1301
G1 X1.4827
G1 Y0.981
G1 X1.4594
G1 Y1.0531
G3 X1.4588 Y1.0716 I-0.2495 J0.001
G3 X1.4555 Y1.0915 I-0.0896 J-0.0049
G3 X1.4554 Y1.0918 I-0.0106 J-0.003
G3 X1.4391 Y1.1138 I-0.0404 J-0.0129
G3 X1.439 I-0.0062 J-0.0091
G3 X1.4142 Y1.1213 I-0.0246 J-0.0365
G3 X1.3945 Y1.1161 I-0.0014 J-0.0347
G3 X1.3938 Y1.1157 I0.0058 J-0.0093
G3 X1.3821 Y1.0991 I0.0186 J-0.0254
G1 Y1.099
G3 X1.3803 Y1.0891 I0.0513 J-0.0147
G3 X1.3796 Y1.0805 I0.1502 J-0.0155
G1 Y1.0804
G3 X1.3793 Y1.0638 I0.3517 J-0.0157
G1 Y0.981
G1 X1.356
G1 Y1.0522
G3 X1.3553 Y1.0707 I-0.2332 J0.001
G3 X1.3518 Y1.0906 I-0.0901 J-0.0056
G3 X1.3356 Y1.1135 I-0.0415 J-0.0122
G3 X1.3117 Y1.1213 I-0.0244 J-0.034
G3 X1.2936 Y1.1169 I-0.0017 J-0.0325
G0 Z0.125
M5
M30
