( Made using CamBam - http://www.cambam.co.uk )
( 048-cadmium 11/21/2013 8:45:46 PM )
( T0 : 0.0313 )
G20 G90 G91.1 G64 G40
G0 Z0.125
( T0 : 0.0313 )
T0 M6
( Pocket1 )
G17
M3 S10000
G0 X0.7531 Y2.75
G0 Z0.0625
G1 F4.0 Z-0.0313
G2 F8.0 X0.7484 Y2.7473 I-0.0031 J0.0
G2 Y2.7527 I0.0016 J0.0027
G2 X0.7531 Y2.75 I0.0016 J-0.0027
G1 F4.0 X0.7594
G2 F8.0 X0.7453 Y2.7419 I-0.0094 J0.0
G2 Y2.7581 I0.0047 J0.0081
G2 X0.7594 Y2.75 I0.0047 J-0.0081
G1 F4.0 X0.7719
G2 F8.0 X0.7391 Y2.7311 I-0.0219 J0.0
G2 Y2.7689 I0.0109 J0.0189
G2 X0.7719 Y2.75 I0.0109 J-0.0189
G1 F4.0 X0.7844
G2 F8.0 X0.7328 Y2.7202 I-0.0344 J0.0
G2 Y2.7798 I0.0172 J0.0298
G2 X0.7844 Y2.75 I0.0172 J-0.0298
G1 F4.0 X0.7969
G2 F8.0 X0.7266 Y2.7094 I-0.0469 J0.0
G2 Y2.7906 I0.0234 J0.0406
G2 X0.7969 Y2.75 I0.0234 J-0.0406
G0 Z0.125
G0 X0.7531
G0 Z0.0312
G1 F4.0 Z-0.0625
G2 F8.0 X0.7484 Y2.7473 I-0.0031 J0.0
G2 Y2.7527 I0.0016 J0.0027
G2 X0.7531 Y2.75 I0.0016 J-0.0027
G1 F4.0 X0.7594
G2 F8.0 X0.7453 Y2.7419 I-0.0094 J0.0
G2 Y2.7581 I0.0047 J0.0081
G2 X0.7594 Y2.75 I0.0047 J-0.0081
G1 F4.0 X0.7719
G2 F8.0 X0.7391 Y2.7311 I-0.0219 J0.0
G2 Y2.7689 I0.0109 J0.0189
G2 X0.7719 Y2.75 I0.0109 J-0.0189
G1 F4.0 X0.7844
G2 F8.0 X0.7328 Y2.7202 I-0.0344 J0.0
G2 Y2.7798 I0.0172 J0.0298
G2 X0.7844 Y2.75 I0.0172 J-0.0298
G1 F4.0 X0.7969
G2 F8.0 X0.7266 Y2.7094 I-0.0469 J0.0
G2 Y2.7906 I0.0234 J0.0406
G2 X0.7969 Y2.75 I0.0234 J-0.0406
G0 Z0.125
G0 X0.7531
G0 Z0.0
G1 F4.0 Z-0.0938
G2 F8.0 X0.7484 Y2.7473 I-0.0031 J0.0
G2 Y2.7527 I0.0016 J0.0027
G2 X0.7531 Y2.75 I0.0016 J-0.0027
G1 F4.0 X0.7594
G2 F8.0 X0.7453 Y2.7419 I-0.0094 J0.0
G2 Y2.7581 I0.0047 J0.0081
G2 X0.7594 Y2.75 I0.0047 J-0.0081
G1 F4.0 X0.7719
G2 F8.0 X0.7391 Y2.7311 I-0.0219 J0.0
G2 Y2.7689 I0.0109 J0.0189
G2 X0.7719 Y2.75 I0.0109 J-0.0189
G1 F4.0 X0.7844
G2 F8.0 X0.7328 Y2.7202 I-0.0344 J0.0
G2 Y2.7798 I0.0172 J0.0298
G2 X0.7844 Y2.75 I0.0172 J-0.0298
G1 F4.0 X0.7969
G2 F8.0 X0.7266 Y2.7094 I-0.0469 J0.0
G2 Y2.7906 I0.0234 J0.0406
G2 X0.7969 Y2.75 I0.0234 J-0.0406
G0 Z0.125
G0 X0.7531
G0 Z-0.0323
G1 F4.0 Z-0.126
G2 F8.0 X0.7484 Y2.7473 I-0.0031 J0.0
G2 Y2.7527 I0.0016 J0.0027
G2 X0.7531 Y2.75 I0.0016 J-0.0027
G1 F4.0 X0.7594
G2 F8.0 X0.7453 Y2.7419 I-0.0094 J0.0
G2 Y2.7581 I0.0047 J0.0081
G2 X0.7594 Y2.75 I0.0047 J-0.0081
G1 F4.0 X0.7719
G2 F8.0 X0.7391 Y2.7311 I-0.0219 J0.0
G2 Y2.7689 I0.0109 J0.0189
G2 X0.7719 Y2.75 I0.0109 J-0.0189
G1 F4.0 X0.7844
G2 F8.0 X0.7328 Y2.7202 I-0.0344 J0.0
G2 Y2.7798 I0.0172 J0.0298
G2 X0.7844 Y2.75 I0.0172 J-0.0298
G1 F4.0 X0.7969
G2 F8.0 X0.7266 Y2.7094 I-0.0469 J0.0
G2 Y2.7906 I0.0234 J0.0406
G2 X0.7969 Y2.75 I0.0234 J-0.0406
G0 Z0.125
G0 X3.2469
G0 Z0.0625
G1 F4.0 Z-0.0313
G2 F8.0 X3.2484 Y2.7527 I0.0031 J0.0
G2 X3.2531 Y2.75 I0.0016 J-0.0027
G2 X3.2484 Y2.7473 I-0.0031 J0.0
G2 X3.2469 Y2.75 I0.0016 J0.0027
G1 F4.0 X3.2406
G2 F8.0 X3.2453 Y2.7581 I0.0094 J0.0
G2 X3.2594 Y2.75 I0.0047 J-0.0081
G2 X3.2453 Y2.7419 I-0.0094 J0.0
G2 X3.2406 Y2.75 I0.0047 J0.0081
G1 F4.0 X3.2281
G2 F8.0 X3.2391 Y2.7689 I0.0219 J0.0
G2 X3.2719 Y2.75 I0.0109 J-0.0189
G2 X3.2391 Y2.7311 I-0.0219 J0.0
G2 X3.2281 Y2.75 I0.0109 J0.0189
G1 F4.0 X3.2156
G2 F8.0 X3.2328 Y2.7798 I0.0344 J0.0
G2 X3.2844 Y2.75 I0.0172 J-0.0298
G2 X3.2328 Y2.7202 I-0.0344 J0.0
G2 X3.2156 Y2.75 I0.0172 J0.0298
G1 F4.0 X3.2031
G2 F8.0 X3.2266 Y2.7906 I0.0469 J0.0
G2 X3.2969 Y2.75 I0.0234 J-0.0406
G2 X3.2266 Y2.7094 I-0.0469 J0.0
G2 X3.2031 Y2.75 I0.0234 J0.0406
G0 Z0.125
G0 X3.2469
G0 Z0.0312
G1 F4.0 Z-0.0625
G2 F8.0 X3.2484 Y2.7527 I0.0031 J0.0
G2 X3.2531 Y2.75 I0.0016 J-0.0027
G2 X3.2484 Y2.7473 I-0.0031 J0.0
G2 X3.2469 Y2.75 I0.0016 J0.0027
G1 F4.0 X3.2406
G2 F8.0 X3.2453 Y2.7581 I0.0094 J0.0
G2 X3.2594 Y2.75 I0.0047 J-0.0081
G2 X3.2453 Y2.7419 I-0.0094 J0.0
G2 X3.2406 Y2.75 I0.0047 J0.0081
G1 F4.0 X3.2281
G2 F8.0 X3.2391 Y2.7689 I0.0219 J0.0
G2 X3.2719 Y2.75 I0.0109 J-0.0189
G2 X3.2391 Y2.7311 I-0.0219 J0.0
G2 X3.2281 Y2.75 I0.0109 J0.0189
G1 F4.0 X3.2156
G2 F8.0 X3.2328 Y2.7798 I0.0344 J0.0
G2 X3.2844 Y2.75 I0.0172 J-0.0298
G2 X3.2328 Y2.7202 I-0.0344 J0.0
G2 X3.2156 Y2.75 I0.0172 J0.0298
G1 F4.0 X3.2031
G2 F8.0 X3.2266 Y2.7906 I0.0469 J0.0
G2 X3.2969 Y2.75 I0.0234 J-0.0406
G2 X3.2266 Y2.7094 I-0.0469 J0.0
G2 X3.2031 Y2.75 I0.0234 J0.0406
G0 Z0.125
G0 X3.2469
G0 Z0.0
G1 F4.0 Z-0.0938
G2 F8.0 X3.2484 Y2.7527 I0.0031 J0.0
G2 X3.2531 Y2.75 I0.0016 J-0.0027
G2 X3.2484 Y2.7473 I-0.0031 J0.0
G2 X3.2469 Y2.75 I0.0016 J0.0027
G1 F4.0 X3.2406
G2 F8.0 X3.2453 Y2.7581 I0.0094 J0.0
G2 X3.2594 Y2.75 I0.0047 J-0.0081
G2 X3.2453 Y2.7419 I-0.0094 J0.0
G2 X3.2406 Y2.75 I0.0047 J0.0081
G1 F4.0 X3.2281
G2 F8.0 X3.2391 Y2.7689 I0.0219 J0.0
G2 X3.2719 Y2.75 I0.0109 J-0.0189
G2 X3.2391 Y2.7311 I-0.0219 J0.0
G2 X3.2281 Y2.75 I0.0109 J0.0189
G1 F4.0 X3.2156
G2 F8.0 X3.2328 Y2.7798 I0.0344 J0.0
G2 X3.2844 Y2.75 I0.0172 J-0.0298
G2 X3.2328 Y2.7202 I-0.0344 J0.0
G2 X3.2156 Y2.75 I0.0172 J0.0298
G1 F4.0 X3.2031
G2 F8.0 X3.2266 Y2.7906 I0.0469 J0.0
G2 X3.2969 Y2.75 I0.0234 J-0.0406
G2 X3.2266 Y2.7094 I-0.0469 J0.0
G2 X3.2031 Y2.75 I0.0234 J0.0406
G0 Z0.125
G0 X3.2469
G0 Z-0.0323
G1 F4.0 Z-0.126
G2 F8.0 X3.2484 Y2.7527 I0.0031 J0.0
G2 X3.2531 Y2.75 I0.0016 J-0.0027
G2 X3.2484 Y2.7473 I-0.0031 J0.0
G2 X3.2469 Y2.75 I0.0016 J0.0027
G1 F4.0 X3.2406
G2 F8.0 X3.2453 Y2.7581 I0.0094 J0.0
G2 X3.2594 Y2.75 I0.0047 J-0.0081
G2 X3.2453 Y2.7419 I-0.0094 J0.0
G2 X3.2406 Y2.75 I0.0047 J0.0081
G1 F4.0 X3.2281
G2 F8.0 X3.2391 Y2.7689 I0.0219 J0.0
G2 X3.2719 Y2.75 I0.0109 J-0.0189
G2 X3.2391 Y2.7311 I-0.0219 J0.0
G2 X3.2281 Y2.75 I0.0109 J0.0189
G1 F4.0 X3.2156
G2 F8.0 X3.2328 Y2.7798 I0.0344 J0.0
G2 X3.2844 Y2.75 I0.0172 J-0.0298
G2 X3.2328 Y2.7202 I-0.0344 J0.0
G2 X3.2156 Y2.75 I0.0172 J0.0298
G1 F4.0 X3.2031
G2 F8.0 X3.2266 Y2.7906 I0.0469 J0.0
G2 X3.2969 Y2.75 I0.0234 J-0.0406
G2 X3.2266 Y2.7094 I-0.0469 J0.0
G2 X3.2031 Y2.75 I0.0234 J0.0406
G0 Z0.125
G0 X3.2499 Y0.2531
G0 Z0.0625
G1 F4.0 Z-0.0313
G2 F8.0 X3.2531 Y0.25 I0.0001 J-0.0031
G2 X3.2484 Y0.2473 I-0.0031 J0.0
G2 Y0.2527 I0.0016 J0.0027
G2 X3.2499 Y0.2531 I0.0016 J-0.0027
G1 F4.0 X3.2498 Y0.2594
G2 F8.0 X3.2594 Y0.25 I0.0002 J-0.0094
G2 X3.2453 Y0.2419 I-0.0094 J0.0
G2 Y0.2581 I0.0047 J0.0081
G2 X3.2498 Y0.2594 I0.0047 J-0.0081
G1 F4.0 X3.2496 Y0.2719
G2 F8.0 X3.2719 Y0.25 I0.0004 J-0.0219
G2 X3.2391 Y0.2311 I-0.0219 J0.0
G2 Y0.2689 I0.0109 J0.0189
G2 X3.2496 Y0.2719 I0.0109 J-0.0189
G1 F4.0 X3.2494 Y0.2844
G2 F8.0 X3.2844 Y0.25 I0.0006 J-0.0344
G2 X3.2328 Y0.2202 I-0.0344 J0.0
G2 Y0.2798 I0.0172 J0.0298
G2 X3.2494 Y0.2844 I0.0172 J-0.0298
G1 F4.0 X3.2491 Y0.2969
G2 F8.0 X3.2969 Y0.25 I0.0009 J-0.0469
G2 X3.2266 Y0.2094 I-0.0469 J0.0
G2 Y0.2906 I0.0234 J0.0406
G2 X3.2491 Y0.2969 I0.0234 J-0.0406
G0 Z0.125
G0 X3.2499 Y0.2531
G0 Z0.0312
G1 F4.0 Z-0.0625
G2 F8.0 X3.2531 Y0.25 I0.0001 J-0.0031
G2 X3.2484 Y0.2473 I-0.0031 J0.0
G2 Y0.2527 I0.0016 J0.0027
G2 X3.2499 Y0.2531 I0.0016 J-0.0027
G1 F4.0 X3.2498 Y0.2594
G2 F8.0 X3.2594 Y0.25 I0.0002 J-0.0094
G2 X3.2453 Y0.2419 I-0.0094 J0.0
G2 Y0.2581 I0.0047 J0.0081
G2 X3.2498 Y0.2594 I0.0047 J-0.0081
G1 F4.0 X3.2496 Y0.2719
G2 F8.0 X3.2719 Y0.25 I0.0004 J-0.0219
G2 X3.2391 Y0.2311 I-0.0219 J0.0
G2 Y0.2689 I0.0109 J0.0189
G2 X3.2496 Y0.2719 I0.0109 J-0.0189
G1 F4.0 X3.2494 Y0.2844
G2 F8.0 X3.2844 Y0.25 I0.0006 J-0.0344
G2 X3.2328 Y0.2202 I-0.0344 J0.0
G2 Y0.2798 I0.0172 J0.0298
G2 X3.2494 Y0.2844 I0.0172 J-0.0298
G1 F4.0 X3.2491 Y0.2969
G2 F8.0 X3.2969 Y0.25 I0.0009 J-0.0469
G2 X3.2266 Y0.2094 I-0.0469 J0.0
G2 Y0.2906 I0.0234 J0.0406
G2 X3.2491 Y0.2969 I0.0234 J-0.0406
G0 Z0.125
G0 X3.2499 Y0.2531
G0 Z0.0
G1 F4.0 Z-0.0938
G2 F8.0 X3.2531 Y0.25 I0.0001 J-0.0031
G2 X3.2484 Y0.2473 I-0.0031 J0.0
G2 Y0.2527 I0.0016 J0.0027
G2 X3.2499 Y0.2531 I0.0016 J-0.0027
G1 F4.0 X3.2498 Y0.2594
G2 F8.0 X3.2594 Y0.25 I0.0002 J-0.0094
G2 X3.2453 Y0.2419 I-0.0094 J0.0
G2 Y0.2581 I0.0047 J0.0081
G2 X3.2498 Y0.2594 I0.0047 J-0.0081
G1 F4.0 X3.2496 Y0.2719
G2 F8.0 X3.2719 Y0.25 I0.0004 J-0.0219
G2 X3.2391 Y0.2311 I-0.0219 J0.0
G2 Y0.2689 I0.0109 J0.0189
G2 X3.2496 Y0.2719 I0.0109 J-0.0189
G1 F4.0 X3.2494 Y0.2844
G2 F8.0 X3.2844 Y0.25 I0.0006 J-0.0344
G2 X3.2328 Y0.2202 I-0.0344 J0.0
G2 Y0.2798 I0.0172 J0.0298
G2 X3.2494 Y0.2844 I0.0172 J-0.0298
G1 F4.0 X3.2491 Y0.2969
G2 F8.0 X3.2969 Y0.25 I0.0009 J-0.0469
G2 X3.2266 Y0.2094 I-0.0469 J0.0
G2 Y0.2906 I0.0234 J0.0406
G2 X3.2491 Y0.2969 I0.0234 J-0.0406
G0 Z0.125
G0 X3.2499 Y0.2531
G0 Z-0.0323
G1 F4.0 Z-0.126
G2 F8.0 X3.2531 Y0.25 I0.0001 J-0.0031
G2 X3.2484 Y0.2473 I-0.0031 J0.0
G2 Y0.2527 I0.0016 J0.0027
G2 X3.2499 Y0.2531 I0.0016 J-0.0027
G1 F4.0 X3.2498 Y0.2594
G2 F8.0 X3.2594 Y0.25 I0.0002 J-0.0094
G2 X3.2453 Y0.2419 I-0.0094 J0.0
G2 Y0.2581 I0.0047 J0.0081
G2 X3.2498 Y0.2594 I0.0047 J-0.0081
G1 F4.0 X3.2496 Y0.2719
G2 F8.0 X3.2719 Y0.25 I0.0004 J-0.0219
G2 X3.2391 Y0.2311 I-0.0219 J0.0
G2 Y0.2689 I0.0109 J0.0189
G2 X3.2496 Y0.2719 I0.0109 J-0.0189
G1 F4.0 X3.2494 Y0.2844
G2 F8.0 X3.2844 Y0.25 I0.0006 J-0.0344
G2 X3.2328 Y0.2202 I-0.0344 J0.0
G2 Y0.2798 I0.0172 J0.0298
G2 X3.2494 Y0.2844 I0.0172 J-0.0298
G1 F4.0 X3.2491 Y0.2969
G2 F8.0 X3.2969 Y0.25 I0.0009 J-0.0469
G2 X3.2266 Y0.2094 I-0.0469 J0.0
G2 Y0.2906 I0.0234 J0.0406
G2 X3.2491 Y0.2969 I0.0234 J-0.0406
G0 Z0.125
G0 X0.7531 Y0.2501
G0 Z0.0625
G1 F4.0 Z-0.0313
G1 F8.0 Y0.25
G2 X0.7484 Y0.2473 I-0.0031 J0.0
G2 Y0.2527 I0.0016 J0.0027
G2 X0.7531 Y0.2501 I0.0016 J-0.0027
G1 F4.0 X0.7594 Y0.2502
G2 F8.0 Y0.25 I-0.0094 J-0.0002
G2 X0.7453 Y0.2419 I-0.0094 J0.0
G2 Y0.2581 I0.0047 J0.0081
G2 X0.7594 Y0.2502 I0.0047 J-0.0081
G1 F4.0 X0.7719 Y0.2504
G2 F8.0 Y0.25 I-0.0219 J-0.0004
G2 X0.7391 Y0.2311 I-0.0219 J0.0
G2 Y0.2689 I0.0109 J0.0189
G2 X0.7719 Y0.2504 I0.0109 J-0.0189
G1 F4.0 X0.7844 Y0.2506
G2 F8.0 Y0.25 I-0.0344 J-0.0006
G2 X0.7328 Y0.2202 I-0.0344 J0.0
G2 Y0.2798 I0.0172 J0.0298
G2 X0.7844 Y0.2506 I0.0172 J-0.0298
G1 F4.0 X0.7969 Y0.2509
G2 F8.0 Y0.25 I-0.0469 J-0.0009
G2 X0.7266 Y0.2094 I-0.0469 J0.0
G2 Y0.2906 I0.0234 J0.0406
G2 X0.7969 Y0.2509 I0.0234 J-0.0406
G0 Z0.125
G0 X0.7531 Y0.2501
G0 Z0.0312
G1 F4.0 Z-0.0625
G1 F8.0 Y0.25
G2 X0.7484 Y0.2473 I-0.0031 J0.0
G2 Y0.2527 I0.0016 J0.0027
G2 X0.7531 Y0.2501 I0.0016 J-0.0027
G1 F4.0 X0.7594 Y0.2502
G2 F8.0 Y0.25 I-0.0094 J-0.0002
G2 X0.7453 Y0.2419 I-0.0094 J0.0
G2 Y0.2581 I0.0047 J0.0081
G2 X0.7594 Y0.2502 I0.0047 J-0.0081
G1 F4.0 X0.7719 Y0.2504
G2 F8.0 Y0.25 I-0.0219 J-0.0004
G2 X0.7391 Y0.2311 I-0.0219 J0.0
G2 Y0.2689 I0.0109 J0.0189
G2 X0.7719 Y0.2504 I0.0109 J-0.0189
G1 F4.0 X0.7844 Y0.2506
G2 F8.0 Y0.25 I-0.0344 J-0.0006
G2 X0.7328 Y0.2202 I-0.0344 J0.0
G2 Y0.2798 I0.0172 J0.0298
G2 X0.7844 Y0.2506 I0.0172 J-0.0298
G1 F4.0 X0.7969 Y0.2509
G2 F8.0 Y0.25 I-0.0469 J-0.0009
G2 X0.7266 Y0.2094 I-0.0469 J0.0
G2 Y0.2906 I0.0234 J0.0406
G2 X0.7969 Y0.2509 I0.0234 J-0.0406
G0 Z0.125
G0 X0.7531 Y0.2501
G0 Z0.0
G1 F4.0 Z-0.0938
G1 F8.0 Y0.25
G2 X0.7484 Y0.2473 I-0.0031 J0.0
G2 Y0.2527 I0.0016 J0.0027
G2 X0.7531 Y0.2501 I0.0016 J-0.0027
G1 F4.0 X0.7594 Y0.2502
G2 F8.0 Y0.25 I-0.0094 J-0.0002
G2 X0.7453 Y0.2419 I-0.0094 J0.0
G2 Y0.2581 I0.0047 J0.0081
G2 X0.7594 Y0.2502 I0.0047 J-0.0081
G1 F4.0 X0.7719 Y0.2504
G2 F8.0 Y0.25 I-0.0219 J-0.0004
G2 X0.7391 Y0.2311 I-0.0219 J0.0
G2 Y0.2689 I0.0109 J0.0189
G2 X0.7719 Y0.2504 I0.0109 J-0.0189
G1 F4.0 X0.7844 Y0.2506
G2 F8.0 Y0.25 I-0.0344 J-0.0006
G2 X0.7328 Y0.2202 I-0.0344 J0.0
G2 Y0.2798 I0.0172 J0.0298
G2 X0.7844 Y0.2506 I0.0172 J-0.0298
G1 F4.0 X0.7969 Y0.2509
G2 F8.0 Y0.25 I-0.0469 J-0.0009
G2 X0.7266 Y0.2094 I-0.0469 J0.0
G2 Y0.2906 I0.0234 J0.0406
G2 X0.7969 Y0.2509 I0.0234 J-0.0406
G0 Z0.125
G0 X0.7531 Y0.2501
G0 Z-0.0323
G1 F4.0 Z-0.126
G1 F8.0 Y0.25
G2 X0.7484 Y0.2473 I-0.0031 J0.0
G2 Y0.2527 I0.0016 J0.0027
G2 X0.7531 Y0.2501 I0.0016 J-0.0027
G1 F4.0 X0.7594 Y0.2502
G2 F8.0 Y0.25 I-0.0094 J-0.0002
G2 X0.7453 Y0.2419 I-0.0094 J0.0
G2 Y0.2581 I0.0047 J0.0081
G2 X0.7594 Y0.2502 I0.0047 J-0.0081
G1 F4.0 X0.7719 Y0.2504
G2 F8.0 Y0.25 I-0.0219 J-0.0004
G2 X0.7391 Y0.2311 I-0.0219 J0.0
G2 Y0.2689 I0.0109 J0.0189
G2 X0.7719 Y0.2504 I0.0109 J-0.0189
G1 F4.0 X0.7844 Y0.2506
G2 F8.0 Y0.25 I-0.0344 J-0.0006
G2 X0.7328 Y0.2202 I-0.0344 J0.0
G2 Y0.2798 I0.0172 J0.0298
G2 X0.7844 Y0.2506 I0.0172 J-0.0298
G1 F4.0 X0.7969 Y0.2509
G2 F8.0 Y0.25 I-0.0469 J-0.0009
G2 X0.7266 Y0.2094 I-0.0469 J0.0
G2 Y0.2906 I0.0234 J0.0406
G2 X0.7969 Y0.2509 I0.0234 J-0.0406
( Pocket3 )
S10000
G0 Z0.125
G0 X1.0719 Y0.5719
G0 Z0.0625
G1 F4.0 Z-0.02
G1 F8.0 Y0.5766
G3 X1.0766 Y0.5719 I0.0531 J0.0484
G1 X1.0719
G1 F4.0 X1.0656
G1 F8.0 Y0.5971
G3 X1.0971 Y0.5656 I0.0594 J0.0279
G1 X1.0656
G1 Y0.5719
G0 Z0.125
G0 X1.0719 Y2.4234
G0 Z0.0625
G1 F4.0 Z-0.02
G1 F8.0 Y2.4281
G1 X1.0766
G3 X1.0719 Y2.4234 I0.0484 J-0.0531
G1 F4.0 X1.0765 Y2.4192
G3 F8.0 X1.0656 Y2.4029 I0.0485 J-0.0442
G1 Y2.4344
G1 X1.0971
G3 X1.0765 Y2.4192 I0.0279 J-0.0594
G0 Z0.125
G0 X2.9234 Y2.4281
G0 Z0.0625
G1 F4.0 Z-0.02
G1 F8.0 X2.9281
G1 Y2.4234
G3 X2.9234 Y2.4281 I-0.0531 J-0.0484
G1 F4.0 X2.9192 Y2.4235
G3 F8.0 X2.9029 Y2.4344 I-0.0442 J-0.0485
G1 X2.9344
G1 Y2.4029
G3 X2.9192 Y2.4235 I-0.0594 J-0.0279
G0 Z0.125
G0 X2.9281 Y0.5766
G0 Z0.0625
G1 F4.0 Z-0.02
G1 F8.0 Y0.5719
G1 X2.9234
G3 X2.9281 Y0.5766 I-0.0484 J0.0531
G1 F4.0 X2.9344
G1 F8.0 Y0.5656
G1 X2.9029
G3 X2.9344 Y0.5971 I-0.0279 J0.0594
G1 Y0.5766
G0 Z0.125
G0 X2.8968 Y0.6073
G0 Z0.0625
G1 F4.0 Z-0.02
G3 F8.0 X2.9031 Y0.625 I-0.0218 J0.0177
G1 Y2.375
G3 X2.875 Y2.4031 I-0.0281 J0.0
G1 X1.125
G3 X1.0969 Y2.375 I0.0 J-0.0281
G1 Y0.625
G3 X1.125 Y0.5969 I0.0281 J0.0
G1 X2.875
G3 X2.8968 Y0.6073 I0.0 J0.0281
G1 F4.0 X2.8871 Y0.6151
G3 F8.0 X2.8906 Y0.625 I-0.0121 J0.0099
G1 Y2.375
G3 X2.875 Y2.3906 I-0.0156 J0.0
G1 X1.125
G3 X1.1094 Y2.375 I0.0 J-0.0156
G1 Y0.625
G3 X1.125 Y0.6094 I0.0156 J0.0
G1 X2.875
G3 X2.8871 Y0.6151 I0.0 J0.0156
G0 Z0.125
G0 X2.9065 Y0.5994
G0 Z0.0625
G1 F4.0 Z-0.02
G2 F8.0 X2.875 Y0.5844 I-0.0315 J0.0256
G1 X1.125
G2 X1.0844 Y0.625 I0.0 J0.0406
G1 Y2.375
G2 X1.125 Y2.4156 I0.0406 J0.0
G1 X2.875
G2 X2.9156 Y2.375 I0.0 J-0.0406
G1 Y0.625
G2 X2.9065 Y0.5994 I-0.0406 J0.0
G1 F4.0 X2.9162 Y0.5915
G2 F8.0 X2.875 Y0.5719 I-0.0412 J0.0335
G1 X1.125
G2 X1.0719 Y0.625 I0.0 J0.0531
G1 Y2.375
G2 X1.125 Y2.4281 I0.0531 J0.0
G1 X2.875
G2 X2.9281 Y2.375 I0.0 J-0.0531
G1 Y0.625
G2 X2.9162 Y0.5915 I-0.0531 J0.0
G0 Z0.125
G0 X2.9469
G0 Z0.0625
G1 F4.0 Z-0.02
G1 F8.0 Y0.5531
G1 X1.0531
G1 Y2.4469
G1 X2.9469
G1 Y0.5915
G1 F4.0 X2.9594
G1 F8.0 Y0.5406
G1 X1.0406
G1 Y2.4594
G1 X2.9594
G1 Y0.5915
G1 F4.0 X2.9719
G1 F8.0 Y0.5281
G1 X1.0281
G1 Y2.4719
G1 X2.9719
G1 Y0.5915
G1 F4.0 X2.9844
G1 F8.0 Y0.5156
G1 X1.0156
G1 Y2.4844
G1 X2.9844
G1 Y0.5915
G0 Z0.125
G0 X2.402 Y1.555
G0 Z0.0625
G1 F4.0 Z-0.02
G3 F8.0 X2.4053 Y1.627 I-0.6895 J0.0671
G3 X2.4018 Y1.7073 I-0.8504 J0.0034
G2 X2.4115 Y1.6284 I-0.3009 J-0.0771
G3 Y1.6276 I0.0531 J-0.0003
G2 X2.402 Y1.555 I-0.2639 J-0.0025
G1 F4.0 X2.3896 Y1.5562
G3 F8.0 X2.3928 Y1.627 I-0.677 J0.0659
G3 X2.3888 Y1.712 I-0.8379 J0.0034
G3 X2.3717 Y1.7997 I-0.4416 J-0.0405
G3 X2.3673 Y1.8129 I-0.215 J-0.0649
G2 X2.391 Y1.7725 I-0.2396 J-0.1678
G3 X2.3911 Y1.7724 I0.0366 J0.0177
G2 X2.424 Y1.6284 I-0.2902 J-0.1422
G3 Y1.6277 I0.0406 J-0.0002
G2 X2.3924 Y1.4966 I-0.2764 J-0.0026
G3 X2.3921 Y1.4962 I0.036 J-0.0189
G2 X2.3713 Y1.4629 I-0.1991 J0.1018
G3 X2.3745 Y1.4733 I-0.2377 J0.0797
G3 X2.3859 Y1.5255 I-0.3764 J0.1097
G3 Y1.5257 I-0.0402 J0.006
G3 X2.3896 Y1.5562 I-0.6734 J0.0963
G1 F4.0 X2.3772 Y1.5574
G3 F8.0 X2.3803 Y1.627 I-0.6646 J0.0646
G3 X2.3764 Y1.7108 I-0.8254 J0.0034
G3 X2.3598 Y1.7961 I-0.4292 J-0.0393
G3 X2.3329 Y1.8528 I-0.203 J-0.0613
G3 Y1.8529 I-0.0234 J-0.0157
G3 X2.294 Y1.8942 I-0.1483 J-0.1004
G2 X2.3154 Y1.8817 I-0.09 J-0.1784
G3 X2.3155 Y1.8816 I0.0157 J0.0234
G2 X2.3652 Y1.8365 I-0.1213 J-0.1833
G2 X2.4022 Y1.778 I-0.2375 J-0.1914
G3 X2.4023 Y1.7779 I0.0253 J0.0123
G2 X2.4365 Y1.6283 I-0.3014 J-0.1477
G3 Y1.6279 I0.0281 J-0.0002
G2 X2.4034 Y1.4908 I-0.2889 J-0.0027
G3 X2.4033 Y1.4905 I0.0249 J-0.0131
G2 X2.3164 Y1.3967 I-0.2103 J0.1075
G2 X2.2877 Y1.382 I-0.1172 J0.194
G3 X2.3373 Y1.4208 I-0.1092 J0.1908
G3 X2.3415 Y1.4265 I-0.0203 J0.0194
G3 X2.3625 Y1.4767 I-0.208 J0.1161
G3 X2.3736 Y1.5274 I-0.3644 J0.1063
G3 Y1.5275 I-0.0278 J0.0041
G3 X2.3772 Y1.5574 I-0.661 J0.0945
G0 Z0.125
G0 X2.0348 Y1.8304
G0 Z0.0625
G1 F4.0 Z-0.02
G1 F8.0 X2.0359 Y1.8551
G3 X2.0464 Y1.8493 I0.0245 J0.0324
G3 X2.0348 Y1.8304 I0.2593 J-0.1718
G1 F4.0 X2.0457 Y1.8242
G3 F8.0 X2.0277 Y1.7862 I0.26 J-0.1467
G3 X2.0195 Y1.7648 I0.5835 J-0.2354
G1 X2.0252 Y1.8972
G1 X2.0347 Y1.876
G3 X2.0704 Y1.8612 I0.0257 J0.0115
G3 X2.0457 Y1.8242 I0.2354 J-0.1836
G1 F4.0 X2.0566 Y1.8181
G3 F8.0 X2.0393 Y1.7816 I0.2492 J-0.1405
G3 X2.0167 Y1.7148 I0.5718 J-0.2308
G1 X2.0048
G1 X2.014 Y1.927
G1 X2.0256
G1 X2.0461 Y1.8811
G3 X2.0708 Y1.8759 I0.0143 J0.0064
G2 X2.1355 Y1.9159 I0.1424 J-0.158
G2 X2.2037 Y1.9281 I0.0678 J-0.1814
G2 X2.3223 Y1.8921 I0.0003 J-0.2123
G1 X2.3224 Y1.892
G2 X2.3749 Y1.8444 I-0.1282 J-0.1937
G2 X2.4135 Y1.7834 I-0.2472 J-0.1993
G2 X2.449 Y1.6282 I-0.3126 J-0.1532
G3 Y1.628 I0.0156 J-0.0001
G2 X2.4145 Y1.485 I-0.3014 J-0.0029
G3 X2.4144 Y1.4848 I0.0138 J-0.0073
G2 X2.3229 Y1.386 I-0.2214 J0.1131
G2 X2.1972 Y1.3516 I-0.1237 J0.2047
G3 X2.1969 I-0.0001 J-0.0156
G2 X2.1216 Y1.3639 I-0.0024 J0.221
G2 X2.0575 Y1.4035 I0.0626 J0.1731
G2 X2.0103 Y1.4758 I0.1375 J0.1413
G1 Y1.4759
G2 X1.9921 Y1.5457 I0.3222 J0.121
G1 X2.0038
G3 X2.0213 Y1.4834 I0.3569 J0.0665
G3 X2.0653 Y1.4147 I0.1776 J0.0656
G3 X2.0656 Y1.4145 I0.011 J0.0111
G3 X2.1217 Y1.3791 I0.1144 J0.1194
G3 X2.1219 I0.0055 J0.0146
G3 X2.1865 Y1.368 I0.0629 J0.1727
G3 X2.264 Y1.3839 I0.0013 J0.1897
G3 X2.2642 Y1.384 I-0.0063 J0.0143
G3 X2.3283 Y1.4294 I-0.0856 J0.1888
G3 X2.3306 Y1.4326 I-0.0113 J0.0108
G3 X2.3505 Y1.4802 I-0.1971 J0.11
G3 X2.3612 Y1.5292 I-0.3524 J0.1028
G1 Y1.5293
G3 X2.3678 Y1.627 I-0.6486 J0.0927
G3 X2.3639 Y1.7096 I-0.8129 J0.0034
G3 X2.3478 Y1.7924 I-0.4168 J-0.0382
G3 X2.3226 Y1.8458 I-0.191 J-0.0577
G1 X2.3225 Y1.8459
G3 X2.2706 Y1.8951 I-0.1379 J-0.0934
G3 X2.2703 Y1.8953 I-0.0081 J-0.0134
G3 X2.1998 Y1.9137 I-0.069 J-0.1203
G3 X2.1337 Y1.8981 I-0.0011 J-0.1435
G3 X2.1335 Y1.898 I0.0071 J-0.0139
G3 X2.0818 Y1.8555 I0.078 J-0.1475
G3 X2.0817 Y1.8554 I0.0121 J-0.0098
G3 X2.0566 Y1.8181 I0.224 J-0.1778
G0 Z0.125
G0 X1.8425 Y1.6197
G0 Z0.0625
G1 F4.0 Z-0.02
G2 F8.0 X1.8476 Y1.6072 I-0.1294 J-0.0603
G2 X1.8584 Y1.5396 I-0.1899 J-0.065
G3 Y1.5386 I0.0406 J-0.0005
G2 X1.8501 Y1.4756 I-0.2239 J-0.0025
G2 X1.8369 Y1.4443 I-0.1359 J0.0387
G3 X1.837 Y1.4446 I-0.1366 J0.0386
G3 X1.8445 Y1.4802 I-0.2408 J0.0694
G3 Y1.4804 I-0.0402 J0.0055
G3 X1.8486 Y1.5466 I-0.4756 J0.0625
G3 X1.8465 Y1.5927 I-0.4576 J0.0018
G3 X1.8425 Y1.6197 I-0.2496 J-0.0229
G1 F4.0 X1.8302 Y1.6172
G3 F8.0 X1.8248 Y1.6387 I-0.2334 J-0.0474
G3 X1.8092 Y1.6717 I-0.118 J-0.0356
G3 X1.7877 Y1.6952 I-0.0816 J-0.053
G2 X1.8216 Y1.6705 I-0.059 J-0.1164
G3 X1.8219 Y1.6702 I0.02 J0.0197
G2 X1.8594 Y1.6113 I-0.1088 J-0.1108
G2 X1.8709 Y1.5394 I-0.2017 J-0.0691
G3 Y1.5388 I0.0281 J-0.0004
G2 X1.8621 Y1.4722 I-0.2364 J-0.0026
G2 X1.8325 Y1.416 I-0.1479 J0.0421
G3 X1.8323 Y1.4158 I0.0216 J-0.018
G2 X1.7926 Y1.3836 I-0.0972 J0.0792
G2 X1.7646 Y1.3744 I-0.0473 J0.0966
G3 X1.7751 Y1.3798 I-0.0364 J0.0838
G3 X1.7756 Y1.3801 I-0.0144 J0.0241
G3 X1.8087 Y1.412 I-0.0586 J0.0938
G3 X1.8089 Y1.4125 I-0.0233 J0.0157
G3 X1.825 Y1.448 I-0.1087 J0.0704
G3 X1.8321 Y1.4819 I-0.2288 J0.066
G3 Y1.482 I-0.0278 J0.0038
G3 X1.8361 Y1.5465 I-0.4632 J0.0609
G3 X1.834 Y1.5915 I-0.4451 J0.0018
G3 X1.8302 Y1.6172 I-0.2372 J-0.0217
G1 F4.0 X1.818 Y1.6148
G3 F8.0 X1.8129 Y1.6351 I-0.2212 J-0.0449
G3 X1.7988 Y1.6649 I-0.106 J-0.032
G3 X1.7265 Y1.7035 I-0.0712 J-0.0462
G3 X1.6553 Y1.6756 I-0.0027 J-0.0979
G3 X1.6536 Y1.6737 I0.0109 J-0.0112
G2 X1.6788 Y1.703 I0.056 J-0.0227
G3 X1.6793 Y1.7033 I-0.0079 J0.0135
G2 X1.7367 Y1.7195 I0.0556 J-0.0868
G3 X1.737 I0.0003 J0.0156
G2 X1.7875 Y1.7092 I0.0008 J-0.1244
G2 X1.8305 Y1.6793 I-0.0589 J-0.1303
G3 X1.8307 Y1.6791 I0.0111 J0.011
G2 X1.8712 Y1.6155 I-0.1176 J-0.1197
G2 X1.8834 Y1.5393 I-0.2135 J-0.0732
G3 Y1.5389 I0.0156 J-0.0002
G2 X1.8741 Y1.4688 I-0.2489 J-0.0027
G2 X1.8421 Y1.408 I-0.1599 J0.0455
G3 X1.842 Y1.4079 I0.012 J-0.01
G2 X1.7982 Y1.3724 I-0.1069 J0.0871
G2 X1.7441 Y1.3602 I-0.0529 J0.1078
G3 X1.7437 I-0.0002 J-0.0156
G2 X1.6827 Y1.3782 I-0.0015 J0.107
G3 X1.6826 Y1.3783 I-0.0087 J-0.013
G2 X1.6475 Y1.4259 I0.0459 J0.0704
G3 X1.6495 Y1.423 I0.126 J0.0848
G3 X1.6496 Y1.4229 I0.0128 J0.009
G3 X1.6819 Y1.3923 I0.0962 J0.0691
G3 X1.6821 Y1.3922 I0.0084 J0.0132
G3 X1.7275 Y1.3793 I0.0452 J0.0727
G3 X1.7687 Y1.3905 I0.0007 J0.0789
G3 X1.769 Y1.3906 I-0.008 J0.0134
G3 X1.7983 Y1.419 I-0.052 J0.0832
G3 X1.7985 Y1.4192 I-0.013 J0.0087
G3 X1.813 Y1.4514 I-0.0982 J0.0636
G3 X1.8198 Y1.4836 I-0.2168 J0.0626
G3 X1.8236 Y1.5465 I-0.4509 J0.0593
G3 X1.8216 Y1.5904 I-0.4327 J0.0018
G3 X1.818 Y1.6148 I-0.2248 J-0.0205
G0 Z0.125
G0 X1.6077 Y1.6355
G0 Z0.0625
G1 F4.0 Z-0.02
G3 F8.0 X1.6021 Y1.6164 I0.2253 J-0.0764
G3 Y1.6163 I0.0394 J-0.0098
G3 X1.5963 Y1.5858 I0.2865 J-0.0704
G1 Y1.6532
G3 X1.6077 Y1.6355 I0.0387 J0.0124
G0 Z0.125
G0 X1.5963 Y1.4991
G0 Z0.0625
G1 F4.0 Z-0.02
G3 F8.0 X1.5997 Y1.4783 I0.3232 J0.0421
G3 X1.6061 Y1.4538 I0.1739 J0.0324
G3 X1.5963 Y1.4416 I0.0261 J-0.0311
G1 Y1.4991
G0 Z0.125
G0 X1.5885 Y1.3947
G0 Z0.0625
G1 F4.0 Z-0.02
G1 F8.0 X1.5881 Y1.3906
G1 X1.5866
G3 X1.5885 Y1.3947 I-0.0683 J0.0353
G0 Z0.125
G0 X1.5963 Y1.8762
G0 Z0.0625
G1 F4.0 Z-0.02
G1 F8.0 Y1.8961
G1 X1.6049 Y1.8957
G3 X1.5963 Y1.8762 I0.0532 J-0.0351
G1 F4.0 X1.5838
G1 F8.0 Y1.9092
G1 X1.6354 Y1.9067
G3 X1.6291 Y1.9028 I0.031 J-0.0569
G3 X1.6068 Y1.86 I0.029 J-0.0422
G1 Y1.6656
G3 X1.6227 Y1.6403 I0.0281 J0.0
G3 X1.6142 Y1.6134 I0.2103 J-0.0812
G1 Y1.6133
G3 X1.6061 Y1.5442 I0.2744 J-0.0674
G3 X1.612 Y1.4806 I0.3134 J-0.003
G3 X1.6214 Y1.4486 I0.1616 J0.0301
G3 X1.6042 Y1.4255 I0.0108 J-0.0259
G1 X1.5994 Y1.3781
G1 X1.5602
G3 X1.5675 Y1.3846 I-0.0328 J0.0444
G3 X1.5694 Y1.3868 I-0.0204 J0.0193
G3 X1.582 Y1.417 I-0.0511 J0.0391
G3 X1.5838 Y1.44 I-0.1336 J0.0217
G1 Y1.8762
G1 F4.0 X1.5713
G1 F8.0 Y1.9223
G1 X1.6963 Y1.9163
G1 Y1.9031
G1 X1.6788
G3 X1.6589 Y1.9016 I-0.0011 J-0.1153
G3 X1.6362 Y1.8925 I0.0075 J-0.0517
G3 X1.6193 Y1.86 I0.0218 J-0.032
G1 Y1.6656
G3 X1.6411 Y1.6512 I0.0156 J0.0
G3 X1.6264 Y1.6104 I0.192 J-0.0922
G1 X1.6263 Y1.6103
G3 X1.6186 Y1.5442 I0.2622 J-0.0644
G3 X1.6242 Y1.483 I0.3009 J-0.003
G3 X1.642 Y1.4349 I0.1493 J0.0277
G3 X1.6167 Y1.4242 I-0.0097 J-0.0122
G1 X1.6107 Y1.3656
G1 X1.5025
G1 Y1.3789
G1 X1.52
G3 X1.5387 Y1.3813 I0.0009 J0.0665
G3 X1.5584 Y1.3932 I-0.0114 J0.0412
G3 X1.5595 Y1.3944 I-0.0113 J0.0107
G3 X1.5697 Y1.4189 I-0.0412 J0.0315
G3 X1.5713 Y1.4399 I-0.1213 J0.0198
G1 Y1.8762
G0 Z0.125
G0 X1.516 Y2.0701
G0 Z0.0625
G1 F4.0 Z-0.02
G3 F8.0 X1.509 Y2.0797 I-0.0256 J-0.0116
G3 X1.516 Y2.0893 I-0.0186 J0.0211
G3 X1.5231 Y2.0797 I0.0256 J0.0115
G3 X1.516 Y2.0701 I0.0186 J-0.0211
G0 Z0.125
G0 X1.6431 Y2.0867
G0 Z0.0625
G1 F4.0 Z-0.02
G3 F8.0 X1.6432 Y2.087 I-0.0243 J0.0141
G1 X1.6435 Y2.0867
G1 X1.6431
G0 Z0.125
G0 X1.5318 Y2.2173
G0 Z0.0625
G1 F4.0 Z-0.02
G3 F8.0 X1.5185 Y2.207 I0.0099 J-0.0263
G1 Y2.2328
G1 X1.5318 Y2.2173
G1 F4.0 X1.5413 Y2.2255
G1 F8.0 X1.6628 Y2.0833
G1 Y2.0742
G1 X1.5417
G3 X1.526 Y2.0585 I0.0 J-0.0156
G1 Y1.9956
G1 X1.506
G1 Y2.0585
G3 X1.4904 Y2.0742 I-0.0156 J0.0
G1 X1.4757
G1 Y2.0852
G1 X1.4904
G3 X1.506 Y2.1008 I0.0 J0.0156
G1 Y2.266
G1 X1.5066
G1 X1.5413 Y2.2255
G1 F4.0 X1.5415 Y2.2066
G3 F8.0 X1.526 Y2.191 I0.0002 J-0.0156
G1 Y2.1008
G3 X1.5417 Y2.0852 I0.0156 J0.0
G1 X1.6188
G3 X1.6306 Y2.1109 I0.0 J0.0156
G1 X1.5535 Y2.2012
G3 X1.5415 Y2.2066 I-0.0119 J-0.0102
G0 Z0.125
G0 X1.3736 Y2.2109
G0 Z0.0625
G1 F4.0 Z-0.02
G3 F8.0 X1.366 Y2.2377 I-0.047 J0.0012
G3 X1.3653 Y2.2387 I-0.0131 J-0.0085
G3 X1.3396 Y2.2545 I-0.0335 J-0.0256
G3 X1.3241 Y2.2561 I-0.0152 J-0.0713
G3 X1.2895 Y2.2446 I-0.002 J-0.0521
G3 X1.2891 Y2.2444 I0.0098 J-0.0122
G3 X1.2742 Y2.2105 I0.0275 J-0.0323
G3 X1.2779 Y2.1917 I0.0559 J0.0011
G3 X1.2853 Y2.1765 I0.0825 J0.0311
G3 X1.2961 Y2.1625 I0.0675 J0.0408
G3 X1.3122 Y2.1509 I0.0401 J0.0386
G3 X1.3249 Y2.1505 I0.0067 J0.0141
G3 X1.357 Y2.1734 I-0.0331 J0.0805
G3 X1.3679 Y2.1888 I-0.0533 J0.0495
G3 X1.3735 Y2.2103 I-0.042 J0.0224
G3 X1.3736 Y2.2109 I-0.047 J0.0018
G0 Z0.125
G0 X1.3459 Y2.1475
G0 Z0.0625
G1 F4.0 Z-0.02
G3 F8.0 X1.3458 Y2.1461 I0.028 J-0.0031
G3 X1.3447 Y2.1467 I-0.0586 J-0.1023
G3 X1.3459 Y2.1475 I-0.0529 J0.0843
G1 F4.0 X1.3584 Y2.1462
G3 F8.0 X1.366 Y2.131 I0.0155 J-0.0017
G2 X1.3954 Y2.1021 I-0.0431 J-0.0733
G3 X1.3956 Y2.1018 I0.0133 J0.0082
G2 X1.4065 Y2.0657 I-0.0575 J-0.037
G2 X1.4018 Y2.0347 I-0.0961 J-0.0014
G2 X1.3864 Y2.0106 I-0.0546 J0.0181
G2 X1.359 Y1.9958 I-0.0452 J0.0509
G2 X1.3251 Y1.9915 I-0.0323 J0.119
G3 X1.3247 I-0.0002 J-0.0156
G2 X1.2904 Y1.996 I-0.0014 J0.1218
G2 X1.2622 Y2.0113 I0.0201 J0.0712
G2 X1.2457 Y2.0351 I0.0395 J0.0448
G2 X1.2406 Y2.0657 I0.0815 J0.0293
G2 X1.2443 Y2.0832 I0.0466 J-0.0007
G1 X1.2444 Y2.0833
G2 X1.2543 Y2.1011 I0.0834 J-0.0349
G3 X1.2545 Y2.1014 I-0.0127 J0.0091
G2 X1.2683 Y2.1176 I0.0861 J-0.0589
G1 Y2.1177
G2 X1.2842 Y2.1287 I0.0418 J-0.0432
G3 X1.285 Y2.1565 I-0.0067 J0.0141
G2 X1.273 Y2.1659 I0.0231 J0.042
G1 Y2.166
G2 X1.2625 Y2.1796 I0.0655 J0.0613
G3 X1.2624 Y2.1798 I-0.0132 J-0.0083
G2 X1.2547 Y2.1952 I0.0666 J0.0427
G2 X1.2519 Y2.2103 I0.0419 J0.0155
G2 X1.2562 Y2.2346 I0.0652 J0.001
G2 X1.2697 Y2.2534 I0.0457 J-0.0184
G1 Y2.2535
G2 X1.2939 Y2.2664 I0.0403 J-0.0464
G2 X1.3237 Y2.2701 I0.0285 J-0.1049
G3 X1.324 I0.0002 J0.0156
G2 X1.3527 Y2.2662 I0.001 J-0.0982
G2 X1.3768 Y2.2532 I-0.0197 J-0.0658
G3 X1.3769 I0.01 J0.012
G2 X1.3911 Y2.2345 I-0.0314 J-0.0385
G2 X1.3956 Y2.2105 I-0.0562 J-0.0231
G2 X1.3874 Y2.1819 I-0.0574 J0.0009
G3 X1.3871 Y2.1814 I0.0134 J-0.0081
G2 X1.3651 Y2.1574 I-0.0621 J0.0348
G3 X1.3584 Y2.1462 I0.0088 J-0.0129
G1 F4.0 X1.3474 Y2.1304
G3 F8.0 X1.337 Y2.1367 I-0.0601 J-0.0866
G3 X1.3218 Y2.1365 I-0.0074 J-0.0138
G3 X1.2943 Y2.1176 I0.1017 J-0.1775
G3 X1.2703 Y2.0899 I0.062 J-0.078
G3 X1.2702 Y2.0897 I0.0135 J-0.0079
G3 X1.2627 Y2.0622 I0.0502 J-0.0284
G3 X1.2813 Y2.0204 I0.0527 J-0.0016
G3 X1.3026 Y2.0088 I0.0385 J0.0452
G1 X1.3027 Y2.0087
G3 X1.3247 Y2.0056 I0.0215 J0.0723
G3 X1.3679 Y2.023 I0.0017 J0.0579
G3 X1.3681 Y2.0232 I-0.0112 J0.0109
G3 X1.3844 Y2.0661 I-0.0439 J0.0413
G3 X1.3696 Y2.1096 I-0.0706 J0.0002
G3 X1.3695 Y2.1098 I-0.0124 J-0.0096
G3 X1.3474 Y2.1304 I-0.0822 J-0.066
( Pocket2 )
S10000
G0 Z0.125
G0 X2.2557 Y0.8205
G0 Z0.0625
G1 F4.0 Z-0.02
G1 F8.0 Y0.8285
G3 X2.2605 Y0.8245 I0.103 J0.1202
G3 X2.2557 Y0.8205 I0.0089 J-0.0156
G1 F4.0 X2.2477
G1 F8.0 Y0.8474
G3 X2.2699 Y0.8275 I0.111 J0.1013
G3 X2.2958 Y0.8114 I0.117 J0.1596
G1 Y0.8047
G1 X2.2746 Y0.8175
G3 X2.2594 Y0.8089 I-0.0051 J-0.0086
G1 Y0.69
G1 X2.2477
G1 Y0.8205
G0 Z0.125
G0 X2.114 Y0.8245
G0 Z0.0625
G1 F4.0 Z-0.02
G3 F8.0 X2.1092 Y0.8205 I0.0089 J-0.0156
G1 Y0.8285
G3 X2.114 Y0.8245 I0.103 J0.1202
G1 F4.0 X2.118 Y0.8176
G3 F8.0 X2.1129 Y0.8089 I0.0049 J-0.0087
G1 Y0.69
G1 X2.1012
G1 Y0.8474
G3 X2.1234 Y0.8275 I0.111 J0.1013
G3 X2.1493 Y0.8114 I0.117 J0.1596
G1 Y0.8047
G1 X2.1281 Y0.8175
G3 X2.118 Y0.8176 I-0.0051 J-0.0086
G0 Z0.125
G0 X1.9946 Y0.7049
G0 Z0.0625
G1 F4.0 Z-0.02
G1 F8.0 X1.9993 Y0.698
G1 X1.9918
G3 X1.9946 Y0.7049 I-0.0148 J0.0102
G1 F4.0 X1.9868 Y0.7064
G3 F8.0 X1.9853 Y0.7137 I-0.0098 J0.0018
G1 X1.9487 Y0.7695
G2 X1.9388 Y0.7864 I0.1453 J0.096
G2 X1.932 Y0.8037 I0.0807 J0.0417
G2 X1.9304 Y0.8149 I0.0424 J0.0117
G2 X1.9332 Y0.8301 I0.0385 J0.0006
G2 X1.9421 Y0.8416 I0.0272 J-0.0118
G2 X1.9587 Y0.8497 I0.0269 J-0.034
G2 X1.9788 Y0.852 I0.0192 J-0.0777
G3 X1.979 I0.0001 J0.01
G2 X2.0037 Y0.845 I0.0004 J-0.0458
G3 X2.0039 Y0.8449 I0.0053 J0.0085
G2 X2.0157 Y0.8345 I-0.0216 J-0.0364
G1 X2.0097 Y0.8298
G3 X2.0014 Y0.8374 I-0.0407 J-0.0355
G3 X2.0012 Y0.8376 I-0.006 J-0.008
G3 X1.9777 Y0.845 I-0.0232 J-0.0324
G3 X1.9612 Y0.8423 I-0.001 J-0.0462
G1 X1.9611
G3 X1.9457 Y0.8275 I0.0089 J-0.0248
G3 X1.9456 Y0.8273 I0.0093 J-0.0038
G3 X1.9434 Y0.8146 I0.0316 J-0.012
G3 X1.9454 Y0.8007 I0.054 J0.0007
G3 X1.9499 Y0.7884 I0.0799 J0.0222
G1 Y0.7883
G3 X1.9621 Y0.767 I0.1313 J0.061
G1 X2.0144 Y0.69
G1 X1.9198
G1 Y0.6982
G1 X1.9769
G3 X1.9868 Y0.7064 I0.0 J0.01
G0 Z0.125
G0 X1.8602 Y0.6966
G0 Z0.0625
G1 F4.0 Z-0.02
G2 F8.0 Y0.6963 I-0.0031 J-0.0002
G3 Y0.6957 I0.018 J-0.0004
G2 X1.8591 Y0.6931 I-0.0035 J-0.0001
G3 X1.8589 Y0.6929 I0.0127 J-0.0128
G2 X1.8565 Y0.6919 I-0.0024 J0.0023
G3 X1.8559 I-0.0003 J-0.018
G2 X1.8537 Y0.6928 I-0.0001 J0.0029
G3 X1.8532 Y0.6933 I-0.013 J-0.0124
G2 X1.8522 Y0.6957 I0.0023 J0.0024
G3 Y0.6963 I-0.018 J0.0003
G2 X1.8531 Y0.6985 I0.0029 J0.0001
G3 X1.8537 Y0.6991 I-0.0124 J0.013
G2 X1.8559 Y0.7 I0.0021 J-0.002
G3 X1.8565 I0.0003 J0.018
G2 X1.8589 Y0.699 I0.0001 J-0.0033
G3 X1.8592 Y0.6986 I0.0129 J0.0125
G2 X1.8602 Y0.6966 I-0.0022 J-0.0022
G1 F4.0 X1.8681 Y0.6973
G2 F8.0 X1.8682 Y0.6962 I-0.0111 J-0.0008
G3 Y0.6958 I0.01 J-0.0002
G2 X1.8648 Y0.6875 I-0.0115 J-0.0002
G3 X1.8646 Y0.6873 I0.007 J-0.0071
G2 X1.8564 Y0.6839 I-0.0081 J0.0079
G3 X1.856 I-0.0002 J-0.01
G2 X1.8479 Y0.6873 I-0.0002 J0.0109
G3 X1.8477 Y0.6875 I-0.0072 J-0.0069
G2 X1.8442 Y0.6958 I0.0079 J0.0081
G3 Y0.6962 I-0.01 J0.0002
G2 X1.8476 Y0.7043 I0.0109 J0.0002
G3 X1.8479 Y0.7046 I-0.0069 J0.0072
G2 X1.856 Y0.708 I0.0079 J-0.0075
G3 X1.8564 I0.0002 J0.01
G2 X1.8646 Y0.7045 I0.0002 J-0.0113
G3 X1.8648 Y0.7043 I0.0072 J0.007
G2 X1.8681 Y0.6973 I-0.0078 J-0.0079
G0 Z0.125
G0 X1.7728 Y0.7473
G0 Z0.0625
G1 F4.0 Z-0.02
G3 F8.0 X1.7715 Y0.7584 I-0.0089 J0.0046
G1 X1.7256 Y0.8121
G3 X1.708 Y0.8056 I-0.0076 J-0.0065
G1 Y0.7519
G3 X1.718 Y0.7419 I0.01 J0.0
G1 X1.7639
G3 X1.7728 Y0.7473 I0.0 J0.01
G0 Z0.125
G0 X1.7051 Y0.7393
G0 Z0.0625
G1 F4.0 Z-0.02
G3 F8.0 X1.7028 Y0.7363 I0.0129 J-0.0126
G3 X1.7004 Y0.7393 I-0.0153 J-0.0095
G3 X1.7028 Y0.7424 I-0.0129 J0.0126
G3 X1.7051 Y0.7393 I0.0152 J0.0095
G0 Z0.125
G0 X1.7055 Y0.8185
G0 Z0.0625
G1 F4.0 Z-0.02
G1 F8.0 Y0.8271
G1 X1.7101 Y0.8217
G3 X1.7055 Y0.8185 I0.0079 J-0.0161
G1 F4.0 X1.6975
G1 F8.0 Y0.8488
G1 X1.7894 Y0.7412
G1 Y0.7368
G1 X1.718
G3 X1.708 Y0.7268 I0.0 J-0.01
G1 Y0.69
G1 X1.6975
G1 Y0.7268
G3 X1.6875 Y0.7368 I-0.01 J0.0
G1 X1.6794
G1 Y0.7419
G1 X1.6875
G3 X1.6975 Y0.7519 I0.0 J0.01
G1 Y0.8185
( Pocket4 )
S10000
G0 Z0.125
G0 X2.4812 Y1.0337
G0 Z0.0625
G1 F4.0 Z-0.02
G2 F8.0 X2.4819 Y1.0271 I-0.0278 J-0.0061
G3 Y1.0262 I0.0198 J-0.0003
G2 X2.473 Y1.005 I-0.028 J-0.0008
G2 X2.4613 Y0.9982 I-0.0206 J0.0222
G2 X2.4596 Y0.9977 I-0.0156 J0.052
G3 X2.4629 Y1.0006 I-0.0275 J0.0351
G3 X2.4762 Y1.0314 I-0.0287 J0.0306
G3 X2.472 Y1.0489 I-0.0376 J0.0002
G2 X2.4778 Y1.0423 I-0.0155 J-0.0195
G2 X2.4812 Y1.0337 I-0.0244 J-0.0147
G0 Z0.125
G0 X2.4669 Y1.121
G0 Z0.0625
G1 F4.0 Z-0.02
G3 F8.0 X2.4627 Y1.1262 I-0.0363 J-0.0252
G2 X2.468 Y1.1212 I-0.0215 J-0.028
G1 X2.4669 Y1.121
G0 Z0.125
G0 X2.3762 Y1.0769
G0 Z0.0625
G1 F4.0 Z-0.02
G3 F8.0 X2.3752 Y1.0756 I0.0192 J-0.0147
G1 Y1.0783
G3 X2.3762 Y1.0769 I0.0202 J0.0134
G0 Z0.125
G0 X2.3752 Y1.0203
G0 Z0.0625
G1 F4.0 Z-0.02
G3 F8.0 X2.3765 Y1.0174 I0.0491 J0.0189
G3 X2.3751 Y1.0162 I0.0153 J-0.0187
G3 X2.3752 Y1.0185 I-0.1499 J0.008
G3 Y1.0203 I-0.3701 J0.0169
G1 F4.0 X2.3794 Y1.0219
G3 F8.0 X2.3821 Y1.016 I0.045 J0.0174
G3 X2.373 Y1.005 I0.0097 J-0.0173
G3 X2.3714 Y0.9998 I0.1062 J-0.0357
G1 X2.3688
G3 X2.3708 Y1.0187 I-0.1437 J0.0244
G3 X2.3712 Y1.0363 I-0.3657 J0.0167
G3 X2.3711 Y1.0364 I-0.0198 J0.0
G1 X2.3707 Y1.0892
G2 X2.3711 Y1.1032 I0.1946 J0.0006
G3 Y1.1033 I-0.0198 J0.0014
G2 X2.3729 Y1.1156 I0.0826 J-0.0052
G3 Y1.1157 I-0.0193 J0.0042
G2 X2.3745 Y1.1202 I0.0178 J-0.0038
G2 X2.3785 Y1.125 I0.0147 J-0.0083
G2 X2.386 Y1.1297 I0.0231 J-0.0282
G2 X2.3918 Y1.1319 I0.0216 J-0.0491
G3 X2.3899 Y1.1305 I0.0247 J-0.0368
G3 X2.3886 Y1.1295 I0.0119 J-0.0158
G3 X2.3774 Y1.1112 I0.0247 J-0.0276
G3 X2.3755 Y1.096 I0.0543 J-0.0144
G1 Y1.0917
G3 X2.3821 Y1.0769 I0.0198 J0.0
G3 X2.3756 Y1.0622 I0.0132 J-0.0147
G1 Y1.0532
G3 X2.3758 Y1.0412 I0.2211 J-0.0007
G3 X2.3779 Y1.0264 I0.0733 J0.0026
G3 X2.3782 Y1.0254 I0.0192 J0.0047
G3 X2.3794 Y1.0219 I0.0461 J0.0139
G1 F4.0 X2.3866 Y1.0084
G3 F8.0 X2.3814 Y1.0022 I0.0052 J-0.0097
G3 X2.3796 Y0.9963 I0.0979 J-0.0329
G2 X2.378 Y0.991 I-0.1573 J0.0443
G1 X2.3574
G3 X2.36 Y1.0004 I-0.1067 J0.0344
G3 X2.3601 Y1.001 I-0.0107 J0.0024
G3 X2.362 Y1.0191 I-0.1349 J0.0232
G3 X2.3624 Y1.0363 I-0.3569 J0.0163
G1 X2.3623
G1 X2.3619 Y1.0892
G2 X2.3623 Y1.1038 I0.2034 J0.0006
G1 X2.3624
G2 X2.3643 Y1.1175 I0.0913 J-0.0058
G2 X2.3667 Y1.1243 I0.0264 J-0.0056
G2 X2.3729 Y1.1318 I0.0224 J-0.0124
G2 X2.3823 Y1.1377 I0.0287 J-0.035
G2 X2.4011 Y1.1427 I0.0253 J-0.0571
G3 X2.4013 Y1.1428 I-0.0012 J0.0109
G2 X2.4228 Y1.144 I0.0204 J-0.1689
G3 X2.423 I0.0001 J0.011
G2 X2.4469 Y1.1419 I0.0012 J-0.1238
G3 X2.447 I0.002 J0.0108
G2 X2.4669 Y1.134 I-0.009 J-0.0519
G2 X2.4789 Y1.1211 I-0.0257 J-0.0358
G2 X2.4822 Y1.1148 I-0.0585 J-0.0353
G1 X2.4625 Y1.1113
G3 X2.4612 Y1.1136 I-0.0523 J-0.0279
G3 X2.4514 Y1.1244 I-0.0305 J-0.0178
G3 X2.4512 Y1.1246 I-0.0065 J-0.0089
G3 X2.4382 Y1.1301 I-0.0203 J-0.0295
G3 X2.4261 Y1.1313 I-0.0116 J-0.0549
G3 X2.412 Y1.1303 I-0.0008 J-0.0869
G3 X2.3952 Y1.1235 I0.0045 J-0.0352
G3 X2.3945 Y1.1229 I0.0066 J-0.0088
G3 X2.3859 Y1.1089 I0.0188 J-0.0211
G3 X2.3843 Y1.0961 I0.0457 J-0.0122
G1 Y1.0917
G3 X2.3914 Y1.0814 I0.011 J0.0
G3 X2.4147 Y1.0744 I0.0582 J0.1525
G3 X2.4373 Y1.0697 I0.1178 J0.5091
G2 X2.4548 Y1.0657 I-0.0414 J-0.2202
G1 X2.4549
G2 X2.4708 Y1.0599 I-0.0245 J-0.0926
G2 X2.4853 Y1.0468 I-0.0143 J-0.0305
G2 X2.4907 Y1.0269 I-0.032 J-0.0193
G3 Y1.0264 I0.011 J-0.0002
G2 X2.479 Y0.9985 I-0.0368 J-0.001
G2 X2.4639 Y0.9898 I-0.0266 J0.0287
G2 X2.4449 Y0.9871 I-0.0181 J0.0604
G3 X2.4447 I-0.0001 J-0.011
G2 X2.421 Y0.9919 I-0.0004 J0.0601
G2 X2.3996 Y1.0065 I0.0285 J0.0648
G3 X2.3866 Y1.0084 I-0.0078 J-0.0078
G1 F4.0 X2.3938 Y1.0143
G3 F8.0 X2.4014 Y1.0072 I0.0305 J0.025
G3 X2.431 Y0.997 I0.0304 J0.0401
G3 X2.4569 Y1.007 I0.0011 J0.0358
G3 X2.4674 Y1.0314 I-0.0227 J0.0243
G3 X2.4636 Y1.046 I-0.0288 J0.0002
G3 X2.4634 Y1.0462 I-0.0095 J-0.0055
G3 X2.4537 Y1.0564 I-0.0284 J-0.0172
G3 X2.4529 Y1.0569 I-0.0062 J-0.0091
G3 X2.4383 Y1.0628 I-0.0295 J-0.0525
G3 X2.4251 Y1.066 I-0.0549 J-0.1959
G2 X2.3985 Y1.0727 I0.0575 J0.2846
G3 X2.3843 Y1.0622 I-0.0032 J-0.0105
G1 Y1.0532
G3 X2.3846 Y1.0416 I0.2123 J-0.0007
G3 X2.3864 Y1.0285 I0.0645 J0.0022
G3 X2.3866 Y1.0279 I0.0107 J0.0026
G3 X2.3938 Y1.0143 I0.0377 J0.0114
G0 Z0.125
G0 X2.2935 Y1.0387
G0 Z0.0625
G1 F4.0 Z-0.02
G2 F8.0 X2.2928 Y1.0362 I-0.1066 J0.0259
G2 X2.2805 Y1.0128 I-0.0577 J0.0155
G2 X2.2641 Y1.0001 I-0.0398 J0.0346
G2 X2.255 Y0.997 I-0.0188 J0.0397
G3 X2.2596 Y0.9994 I-0.0224 J0.0491
G3 X2.2601 Y0.9997 I-0.0099 J0.0171
G3 X2.2796 Y1.0196 I-0.0305 J0.0494
G3 X2.2799 Y1.02 I-0.017 J0.01
G3 X2.2884 Y1.0464 I-0.0633 J0.0351
G3 X2.2899 Y1.0692 I-0.1568 J0.0217
G3 X2.2873 Y1.0936 I-0.1062 J0.001
G3 X2.2748 Y1.1198 I-0.0618 J-0.0134
G3 X2.2587 Y1.1334 I-0.0422 J-0.0337
G2 X2.281 Y1.1192 I-0.0129 J-0.045
G2 X2.293 Y1.0963 I-0.0412 J-0.0361
G1 Y1.0962
G2 X2.2966 Y1.0665 I-0.1115 J-0.0283
G3 Y1.066 I0.0198 J-0.0002
G2 X2.2935 Y1.0387 I-0.1097 J-0.0013
G0 Z0.125
G0 X2.1775 Y1.025
G0 Z0.0625
G1 F4.0 Z-0.02
G3 F8.0 X2.1735 Y1.0215 I0.0139 J-0.0198
G1 Y1.0365
G3 X2.1775 Y1.025 I0.0684 J0.0171
G0 Z0.125
G0 X2.1735 Y1.096
G0 Z0.0625
G1 F4.0 Z-0.02
G1 F8.0 Y1.1193
G3 X2.1796 Y1.1121 I0.0211 J0.0119
G3 X2.1735 Y1.096 I0.0624 J-0.0327
G1 F4.0 X2.1691
G1 F8.0 Y1.1964
G1 X2.1748
G1 Y1.1311
G3 X2.1854 Y1.1136 I0.0198 J0.0
G3 X2.1768 Y1.0904 I0.0565 J-0.0342
G3 X2.1746 Y1.0649 I0.1312 J-0.0242
G3 X2.1772 Y1.0399 I0.1119 J-0.001
G3 X2.1832 Y1.0232 I0.0647 J0.0137
G3 X2.1715 Y1.0051 I0.0081 J-0.018
G1 Y0.9998
G1 X2.1691
G1 Y1.096
G1 F4.0 X2.1603
G1 F8.0 Y1.2052
G1 X2.1836
G1 Y1.1311
G3 X2.2029 Y1.124 I0.011 J0.0
G2 X2.2217 Y1.1388 I0.0471 J-0.0402
G2 X2.2441 Y1.144 I0.0221 J-0.0447
G3 X2.2445 I0.0001 J0.011
G2 X2.2876 Y1.125 I0.0013 J-0.0556
G1 X2.2877
G2 X2.3016 Y1.0985 I-0.0478 J-0.0419
G1 Y1.0984
G2 X2.3054 Y1.0663 I-0.1201 J-0.0305
G3 Y1.0661 I0.011 J-0.0001
G2 X2.3013 Y1.0339 I-0.1185 J-0.0014
G2 X2.2871 Y1.007 I-0.0662 J0.0177
G2 X2.268 Y0.9922 I-0.0465 J0.0403
G2 X2.2449 Y0.9871 I-0.0226 J0.0477
G2 X2.2212 Y0.993 I0.0004 J0.0526
G2 X2.2004 Y1.0114 I0.0266 J0.0511
G3 X2.1803 Y1.0051 I-0.0091 J-0.0062
G1 Y0.991
G1 X2.1603
G1 Y1.096
G0 Z0.125
G0 X2.1858 Y1.0908
G0 Z0.0625
G1 F4.0 Z-0.02
G3 F8.0 X2.1855 Y1.0889 I0.0561 J-0.0114
G3 X2.1834 Y1.0649 I0.1226 J-0.0227
G3 X2.1858 Y1.0418 I0.1031 J-0.001
G3 X2.1966 Y1.0184 I0.0561 J0.0118
G3 X2.2318 Y1.0009 I0.0353 J0.0269
G3 X2.2552 Y1.007 I0.0007 J0.0452
G3 X2.2555 Y1.0072 I-0.0055 J0.0095
G3 X2.272 Y1.024 I-0.0259 J0.0419
G3 X2.2722 Y1.0243 I-0.0095 J0.0056
G3 X2.2797 Y1.0476 I-0.0556 J0.0309
G3 X2.2811 Y1.0692 I-0.1481 J0.0206
G3 X2.2788 Y1.0917 I-0.0974 J0.001
G3 X2.2679 Y1.1143 I-0.0532 J-0.0115
G3 X2.2323 Y1.1313 I-0.0353 J-0.0282
G3 X2.1963 Y1.114 I-0.0007 J-0.0446
G3 Y1.1139 I0.0087 J-0.0067
G3 X2.1858 Y1.0908 I0.0457 J-0.0345
G0 Z0.125
G0 X2.0838 Y1.0999
G0 Z0.0625
G1 F4.0 Z-0.02
G3 F8.0 X2.0825 Y1.1051 I-0.1003 J-0.0232
G3 X2.0823 Y1.1058 I-0.0233 J-0.0067
G3 X2.0812 Y1.1087 I-0.0529 J-0.017
G3 X2.0838 Y1.1111 I-0.0149 J0.019
G1 Y1.0999
G1 F4.0 X2.0796 Y1.0989
G3 F8.0 X2.0782 Y1.1039 I-0.096 J-0.0222
G3 X2.0781 Y1.1045 I-0.019 J-0.0055
G3 X2.0758 Y1.1104 I-0.0488 J-0.0156
G3 X2.0861 Y1.1278 I-0.0095 J0.0174
G1 Y1.1313
G1 X2.0882
G1 Y0.9998
G1 X2.0826
G1 Y1.0631
G3 X2.0819 Y1.0821 I-0.2583 J0.001
G3 X2.0796 Y1.0989 I-0.0984 J-0.0055
G0 Z0.125
G0 X1.9839 Y1.1131
G0 Z0.0625
G1 F4.0 Z-0.02
G3 F8.0 X1.9838 Y1.1128 I0.0428 J-0.0128
G3 X1.9837 Y1.1127 I0.0232 J-0.0068
G3 X1.9814 Y1.1004 I0.064 J-0.0183
G3 X1.981 Y1.0954 I0.1633 J-0.0168
G3 X1.9788 Y1.1043 I-0.1015 J-0.0203
G3 X1.9778 Y1.1075 I-0.0542 J-0.0159
G3 X1.9839 Y1.1131 I-0.0132 J0.0203
G1 F4.0 X1.9804 Y1.1157
G3 F8.0 X1.9821 Y1.1184 I-0.0157 J0.012
G2 X1.9941 Y1.1309 I0.0285 J-0.0153
G2 X2.0062 Y1.1348 I0.0175 J-0.0336
G3 X2.0041 Y1.1336 I0.0209 J-0.0381
G3 X2.0029 Y1.1328 I0.0105 J-0.0168
G3 X1.988 Y1.1116 I0.0238 J-0.0325
G3 Y1.1115 I0.019 J-0.0056
G3 X1.9858 Y1.0999 I0.0598 J-0.0171
G3 X1.9851 Y1.0909 I0.159 J-0.0164
G1 Y1.0908
G3 X1.9848 Y1.0738 I0.3605 J-0.0161
G1 Y0.9998
G1 X1.9791
G1 Y1.0621
G3 X1.9784 Y1.0813 I-0.242 J0.001
G3 X1.9746 Y1.103 I-0.0989 J-0.0062
G1 Y1.1031
G1 Y1.103
G3 X1.9722 Y1.1095 I-0.05 J-0.0147
G3 X1.9804 Y1.1157 I-0.0076 J0.0183
G0 Z0.125
G0 X1.9034 Y1.1345
G0 Z0.0625
G1 F4.0 Z-0.02
G3 F8.0 X1.8897 Y1.1215 I0.0209 J-0.0357
G3 X1.889 Y1.1203 I0.0166 J-0.0109
G3 X1.884 Y1.1065 I0.0395 J-0.022
G3 X1.8826 Y1.0962 I0.0941 J-0.0187
G3 X1.8818 Y1.0778 I0.2005 J-0.0173
G1 Y0.9998
G1 X1.8762
G1 Y1.0894
G3 X1.8761 Y1.0895 I-0.0198 J0.0
G2 X1.8769 Y1.1055 I0.1601 J0.0009
G3 Y1.1058 I-0.0197 J0.0019
G2 X1.8794 Y1.1176 I0.0437 J-0.0033
G2 X1.8905 Y1.1302 I0.0245 J-0.0105
G2 X1.9002 Y1.1339 I0.0167 J-0.0287
G2 X1.9034 Y1.1345 I0.0117 J-0.0538
G1 F4.0 X1.9079 Y1.1269
G3 F8.0 X1.8971 Y1.1167 I0.0164 J-0.0281
G3 X1.8967 Y1.116 I0.0092 J-0.006
G3 X1.8927 Y1.1048 I0.0318 J-0.0177
G3 X1.8913 Y1.0955 I0.0855 J-0.0171
G1 Y1.0954
G3 X1.8906 Y1.0778 I0.1918 J-0.0165
G1 Y0.991
G1 X1.8674
G1 Y1.0894
G1 X1.8673 Y1.0895
G2 X1.8681 Y1.1063 I0.1689 J0.0009
G3 Y1.1065 I-0.011 J0.001
G2 X1.8713 Y1.1208 I0.0525 J-0.004
G2 X1.8861 Y1.1378 I0.0327 J-0.0137
G2 X1.8983 Y1.1425 I0.0212 J-0.0362
G2 X1.9123 Y1.144 I0.0136 J-0.0624
G3 X1.9125 I0.0001 J0.011
G2 X1.9351 Y1.1385 I0.0002 J-0.0487
G2 X1.956 Y1.1209 I-0.0328 J-0.0601
G3 X1.9743 Y1.1226 I0.0086 J0.0068
G2 X1.9898 Y1.1386 I0.0362 J-0.0194
G2 X2.0127 Y1.144 I0.0218 J-0.0413
G3 X2.0131 I0.0003 J0.011
G2 X2.0376 Y1.138 I0.0004 J-0.0514
G2 X2.0577 Y1.1209 I-0.033 J-0.0593
G3 X2.0773 Y1.1278 I0.0086 J0.0068
G1 Y1.1401
G1 X2.097
G1 Y0.991
G1 X2.0738
G1 Y1.0631
G3 X2.0732 Y1.0816 I-0.2495 J0.001
G3 X2.0698 Y1.1015 I-0.0896 J-0.0049
G3 X2.0697 Y1.1018 I-0.0106 J-0.003
G3 X2.0534 Y1.1238 I-0.0404 J-0.0129
G3 X2.0533 I-0.0062 J-0.0091
G3 X2.0285 Y1.1313 I-0.0246 J-0.0365
G3 X2.0088 Y1.1261 I-0.0014 J-0.0347
G3 X2.0081 Y1.1257 I0.0058 J-0.0093
G3 X1.9965 Y1.1091 I0.0186 J-0.0254
G1 X1.9964 Y1.109
G3 X1.9946 Y1.0991 I0.0513 J-0.0147
G3 X1.9939 Y1.0905 I0.1502 J-0.0155
G1 Y1.0904
G3 X1.9936 Y1.0738 I0.3517 J-0.0157
G1 Y0.991
G1 X1.9703
G1 Y1.0622
G3 X1.9697 Y1.0807 I-0.2332 J0.001
G3 X1.9662 Y1.1006 I-0.0901 J-0.0056
G3 X1.95 Y1.1235 I-0.0415 J-0.0122
G1 X1.9499
G3 X1.926 Y1.1313 I-0.0244 J-0.034
G3 X1.9079 Y1.1269 I-0.0017 J-0.0325
G0 Z0.125
G0 X1.7914
G0 Z0.0625
G1 F4.0 Z-0.02
G1 F8.0 Y0.9998
G1 X1.7858
G1 Y1.1313
G1 X1.7914
G1 Y1.1269
G1 F4.0 X1.8002
G1 F8.0 Y0.991
G1 X1.777
G1 Y1.1401
G1 X1.8002
G1 Y1.1269
G0 Z0.125
G0 X1.7914 Y1.1941
G0 Z0.0625
G1 F4.0 Z-0.02
G1 F8.0 X1.7858
G1 Y1.1964
G1 X1.7914
G1 Y1.1941
G1 F4.0 Y1.1853
G1 F8.0 X1.777
G1 Y1.2052
G1 X1.8002
G1 Y1.1853
G1 X1.7914
G0 Z0.125
G0 X1.7007 Y1.1313
G0 Z0.0625
G1 F4.0 Z-0.02
G1 F8.0 Y1.0428
G3 Y1.0427 I0.0198 J0.0
G2 X1.6997 Y1.0262 I-0.1228 J-0.0008
G3 Y1.026 I0.0196 J-0.0025
G2 X1.6962 Y1.0129 I-0.0493 J0.0059
G2 X1.6853 Y1.0012 I-0.0227 J0.0103
G3 X1.6852 Y1.0011 I0.0093 J-0.0175
G2 X1.6704 Y0.9963 I-0.0205 J0.0379
G3 X1.6745 Y0.9987 I-0.0224 J0.0428
G3 X1.6753 Y0.9993 I-0.0109 J0.0165
G3 X1.6918 Y1.0224 I-0.0263 J0.0362
G3 X1.6921 Y1.0237 I-0.0189 J0.0058
G3 X1.6941 Y1.0379 I-0.0818 J0.0188
G3 X1.6947 Y1.0497 I-0.2911 J0.0206
G3 X1.695 Y1.0725 I-0.7145 J0.0213
G1 Y1.1313
G1 X1.7007
G1 F4.0 X1.7095
G1 F8.0 Y1.0428
G2 X1.7084 Y1.025 I-0.1316 J-0.0008
G3 Y1.0249 I0.0109 J-0.0014
G2 X1.7043 Y1.0093 I-0.0581 J0.007
G2 X1.6894 Y0.9934 I-0.0308 J0.0138
G1 X1.6893
G2 X1.6638 Y0.9871 I-0.0247 J0.0457
G3 X1.6636 I-0.0002 J-0.011
G2 X1.6367 Y0.9938 I-0.0001 J0.0574
G3 X1.6365 I-0.0051 J-0.0097
G2 X1.6179 Y1.0092 I0.0247 J0.0489
G3 X1.6199 Y1.0078 I0.0265 J0.0351
G3 X1.6467 Y0.9996 I0.0265 J0.0388
G3 X1.6697 Y1.0061 I0.0012 J0.0395
G3 X1.6701 Y1.0064 I-0.006 J0.0092
G3 X1.6833 Y1.025 I-0.0212 J0.0291
G3 X1.6835 Y1.0257 I-0.0105 J0.0032
G3 X1.6853 Y1.0385 I-0.0733 J0.0169
G3 X1.6859 Y1.05 I-0.2823 J0.02
G3 X1.6862 Y1.0725 I-0.7057 J0.0211
G1 Y1.1401
G1 X1.7095
G1 Y1.1313
G0 Z0.125
G0 X1.5891 Y1.0306
G0 Z0.0625
G1 F4.0 Z-0.02
G3 F8.0 X1.5903 Y1.0259 I0.0784 J0.0179
G3 X1.5909 Y1.0241 I0.0232 J0.0068
G3 X1.591 Y1.0238 I0.0534 J0.0202
G3 X1.5891 Y1.022 I0.0159 J-0.0182
G1 Y1.0306
G1 F4.0 X1.5847
G1 F8.0 Y1.1313
G1 X1.5903
G1 Y1.079
G3 X1.5917 Y1.0425 I0.3969 J-0.0037
G3 X1.5945 Y1.0271 I0.0758 J0.006
G3 X1.595 Y1.0257 I0.019 J0.0056
G3 X1.5964 Y1.0224 I0.0493 J0.0186
G3 X1.5871 Y1.0056 I0.0105 J-0.0168
G1 Y0.9998
G1 X1.5847
G1 Y1.0306
G1 F4.0 X1.5759
G1 F8.0 Y0.991
G1 X1.5959
G1 Y1.0056
G2 X1.6108 Y1.0159 I0.011 J0.0
G2 X1.6032 Y1.0288 I0.0335 J0.0284
G2 X1.603 Y1.0296 I0.0103 J0.0039
G2 X1.6004 Y1.0432 I0.0645 J0.019
G2 X1.5991 Y1.079 I0.3868 J0.032
G1 Y1.1401
G1 X1.5759
G1 Y1.0306
G0 Z0.125
G0 X1.4972 Y1.0999
G0 Z0.0625
G1 F4.0 Z-0.02
G3 F8.0 X1.4958 Y1.1051 I-0.1003 J-0.0232
G3 X1.4956 Y1.1058 I-0.0233 J-0.0067
G3 X1.4946 Y1.1087 I-0.0529 J-0.017
G3 X1.4972 Y1.1111 I-0.0149 J0.019
G1 Y1.0999
G1 F4.0 X1.4929 Y1.0989
G3 F8.0 X1.4916 Y1.1039 I-0.096 J-0.0222
G3 X1.4914 Y1.1045 I-0.019 J-0.0055
G3 X1.4891 Y1.1104 I-0.0488 J-0.0156
G3 X1.4994 Y1.1278 I-0.0095 J0.0174
G1 Y1.1313
G1 X1.5016
G1 Y0.9998
G1 X1.4959
G1 Y1.0631
G3 X1.4953 Y1.0821 I-0.2583 J0.001
G3 X1.4929 Y1.0989 I-0.0984 J-0.0055
G0 Z0.125
G0 X1.3972 Y1.1131
G0 Z0.0625
G1 F4.0 Z-0.02
G3 F8.0 X1.3971 Y1.1128 I0.0428 J-0.0128
G3 Y1.1127 I0.0232 J-0.0068
G3 X1.3948 Y1.1004 I0.064 J-0.0183
G3 X1.3943 Y1.0954 I0.1633 J-0.0168
G3 X1.3921 Y1.1043 I-0.1015 J-0.0203
G3 X1.3911 Y1.1075 I-0.0542 J-0.0159
G3 X1.3972 Y1.1131 I-0.0132 J0.0203
G1 F4.0 X1.3937 Y1.1157
G3 F8.0 X1.3954 Y1.1184 I-0.0157 J0.012
G2 X1.4074 Y1.1309 I0.0285 J-0.0153
G2 X1.4195 Y1.1348 I0.0175 J-0.0336
G3 X1.4174 Y1.1336 I0.0209 J-0.0381
G3 X1.4162 Y1.1328 I0.0105 J-0.0168
G3 X1.4013 Y1.1116 I0.0238 J-0.0325
G3 Y1.1115 I0.019 J-0.0056
G3 X1.3991 Y1.0999 I0.0598 J-0.0171
G3 X1.3985 Y1.0909 I0.159 J-0.0164
G1 Y1.0908
G3 X1.3981 Y1.0738 I0.3605 J-0.0161
G1 Y0.9998
G1 X1.3924
G1 Y1.0621
G3 X1.3917 Y1.0813 I-0.242 J0.001
G3 X1.3879 Y1.103 I-0.0989 J-0.0062
G1 Y1.1031
G1 Y1.103
G3 X1.3856 Y1.1095 I-0.05 J-0.0147
G3 X1.3937 Y1.1157 I-0.0076 J0.0183
G0 Z0.125
G0 X1.3167 Y1.1345
G0 Z0.0625
G1 F4.0 Z-0.02
G3 F8.0 X1.3031 Y1.1215 I0.0209 J-0.0357
G3 X1.3023 Y1.1203 I0.0166 J-0.0109
G3 X1.2974 Y1.1065 I0.0395 J-0.022
G3 X1.2959 Y1.0962 I0.0941 J-0.0187
G3 X1.2951 Y1.0778 I0.2005 J-0.0173
G1 Y0.9998
G1 X1.2895
G1 Y1.0894
G3 Y1.0895 I-0.0198 J0.0
G2 X1.2902 Y1.1055 I0.1601 J0.0009
G3 Y1.1058 I-0.0197 J0.0019
G2 X1.2928 Y1.1176 I0.0437 J-0.0033
G2 X1.3038 Y1.1302 I0.0245 J-0.0105
G2 X1.3135 Y1.1339 I0.0167 J-0.0287
G2 X1.3167 Y1.1345 I0.0117 J-0.0538
G1 F4.0 X1.3212 Y1.1269
G3 F8.0 X1.3104 Y1.1167 I0.0164 J-0.0281
G3 X1.31 Y1.116 I0.0092 J-0.006
G3 X1.306 Y1.1048 I0.0318 J-0.0177
G3 X1.3047 Y1.0955 I0.0855 J-0.0171
G1 Y1.0954
G3 X1.3039 Y1.0778 I0.1918 J-0.0165
G1 Y0.991
G1 X1.2807
G1 Y1.0894
G1 Y1.0895
G2 X1.2814 Y1.1063 I0.1689 J0.0009
G3 Y1.1065 I-0.011 J0.001
G2 X1.2846 Y1.1208 I0.0525 J-0.004
G2 X1.2994 Y1.1378 I0.0327 J-0.0137
G2 X1.3116 Y1.1425 I0.0212 J-0.0362
G2 X1.3257 Y1.144 I0.0136 J-0.0624
G3 X1.3258 I0.0001 J0.011
G2 X1.3484 Y1.1385 I0.0002 J-0.0487
G2 X1.3693 Y1.1209 I-0.0328 J-0.0601
G3 X1.3876 Y1.1226 I0.0086 J0.0068
G2 X1.4031 Y1.1386 I0.0362 J-0.0194
G2 X1.426 Y1.144 I0.0218 J-0.0413
G3 X1.4264 I0.0003 J0.011
G2 X1.4509 Y1.138 I0.0004 J-0.0514
G2 X1.471 Y1.1209 I-0.033 J-0.0593
G3 X1.4906 Y1.1278 I0.0086 J0.0068
G1 Y1.1401
G1 X1.5104
G1 Y0.991
G1 X1.4871
G1 Y1.0631
G3 X1.4865 Y1.0816 I-0.2495 J0.001
G3 X1.4831 Y1.1015 I-0.0896 J-0.0049
G3 X1.483 Y1.1018 I-0.0106 J-0.003
G3 X1.4667 Y1.1238 I-0.0404 J-0.0129
G3 X1.4666 I-0.0062 J-0.0091
G3 X1.4418 Y1.1313 I-0.0246 J-0.0365
G3 X1.4221 Y1.1261 I-0.0014 J-0.0347
G3 X1.4214 Y1.1257 I0.0058 J-0.0093
G3 X1.4098 Y1.1091 I0.0186 J-0.0254
G1 Y1.109
G3 X1.4079 Y1.0991 I0.0513 J-0.0147
G3 X1.4073 Y1.0905 I0.1502 J-0.0155
G1 Y1.0904
G3 X1.4069 Y1.0738 I0.3517 J-0.0157
G1 Y0.991
G1 X1.3836
G1 Y1.0622
G3 X1.383 Y1.0807 I-0.2332 J0.001
G3 X1.3795 Y1.1006 I-0.0901 J-0.0056
G3 X1.3633 Y1.1235 I-0.0415 J-0.0122
G3 X1.3393 Y1.1313 I-0.0244 J-0.034
G3 X1.3212 Y1.1269 I-0.0017 J-0.0325
G0 Z0.125
G0 X2.7077 Y1.0609
G0 Z0.0625
G1 F4.0 Z-0.02
G3 F8.0 X2.7079 Y1.0618 I-0.1114 J0.0224
G3 Y1.0619 I-0.0238 J0.0046
G3 X2.7112 Y1.0996 I-0.1928 J0.0357
G3 X2.71 Y1.1221 I-0.1929 J0.0009
G2 X2.7119 Y1.0963 I-0.1443 J-0.0239
G3 Y1.0957 I0.0242 J-0.0003
G2 X2.7077 Y1.0609 I-0.1318 J-0.0017
G1 F4.0 X2.7034 Y1.0617
G3 F8.0 X2.7036 Y1.0626 I-0.107 J0.0216
G3 Y1.0627 I-0.0194 J0.0038
G3 X2.7068 Y1.0996 I-0.1885 J0.0349
G3 X2.705 Y1.1262 I-0.1885 J0.0009
G3 X2.6975 Y1.1545 I-0.111 J-0.0147
G3 X2.6974 Y1.1546 I-0.0183 J-0.0076
G3 X2.6858 Y1.1734 I-0.0675 J-0.0285
G1 Y1.1735
G3 X2.6595 Y1.193 I-0.0559 J-0.0477
G3 X2.6592 Y1.1932 I-0.008 J-0.0181
G3 X2.6282 Y1.1993 I-0.0304 J-0.0722
G3 X2.5836 Y1.1844 I-0.0016 J-0.0696
G3 X2.5833 Y1.1842 I0.0122 J-0.0156
G3 X2.5658 Y1.1632 I0.0439 J-0.0542
G1 X2.5576 Y1.1651
G2 X2.5578 Y1.1654 I0.0895 J-0.046
G2 X2.5689 Y1.1803 I0.0503 J-0.0259
G2 X2.5942 Y1.1956 I0.0478 J-0.0505
G2 X2.6254 Y1.2005 I0.03 J-0.0909
G3 X2.6259 I0.0002 J0.0198
G2 X2.662 Y1.1941 I0.0013 J-0.0988
G2 X2.6911 Y1.1741 I-0.029 J-0.0734
G2 X2.7106 Y1.1393 I-0.0637 J-0.0586
G2 X2.7163 Y1.0963 I-0.1449 J-0.0411
G3 Y1.0958 I0.0198 J-0.0003
G2 X2.7106 Y1.0548 I-0.1362 J-0.0017
G2 X2.6914 Y1.0215 I-0.0818 J0.0251
G1 X2.6913
G2 X2.6633 Y1.0021 I-0.0584 J0.0543
G2 X2.6287 Y0.9958 I-0.0334 J0.0853
G3 X2.6283 I-0.0002 J-0.0198
G2 X2.6007 Y0.9993 I-0.001 J0.1031
G2 X2.5778 Y1.0104 I0.0177 J0.0655
G2 X2.5605 Y1.0303 I0.0414 J0.0534
G2 X2.5558 Y1.0395 I0.0976 J0.0556
G1 X2.5638 Y1.042
G3 X2.5655 Y1.0381 I0.1098 J0.0461
G3 X2.5829 Y1.0142 I0.0674 J0.0308
G3 X2.5831 Y1.014 I0.0134 J0.0146
G3 X2.6289 Y0.9969 I0.0449 J0.0505
G3 X2.6861 Y1.0232 I0.0016 J0.0721
G3 X2.6978 Y1.0429 I-0.0566 J0.0467
G3 X2.7034 Y1.0617 I-0.1015 J0.0403
G1 F4.0 X2.6948 Y1.0635
G3 F8.0 X2.6949 Y1.0643 I-0.0984 J0.0198
G3 X2.698 Y1.0996 I-0.1799 J0.0333
G3 X2.6963 Y1.1251 I-0.1797 J0.001
G3 X2.6893 Y1.1511 I-0.1022 J-0.0135
G3 X2.6791 Y1.1677 I-0.0594 J-0.0251
G1 Y1.1678
G3 X2.6559 Y1.185 I-0.0492 J-0.042
G3 X2.6558 I-0.0044 J-0.0101
G3 X2.6281 Y1.1905 I-0.027 J-0.0641
G3 X2.589 Y1.1775 I-0.0015 J-0.0608
G3 X2.5889 Y1.1774 I0.0068 J-0.0086
G3 X2.5707 Y1.1529 I0.0384 J-0.0474
G1 X2.5452 Y1.159
G2 X2.5499 Y1.1694 I0.1019 J-0.0399
G1 X2.55 Y1.1695
G2 X2.5628 Y1.1867 I0.0582 J-0.03
G2 X2.5914 Y1.204 I0.0539 J-0.0568
G2 X2.6255 Y1.2092 I0.0329 J-0.0993
G3 X2.6257 Y1.2093 I0.0001 J0.011
G2 X2.6652 Y1.2023 I0.0014 J-0.1076
G2 X2.6976 Y1.1801 I-0.0322 J-0.0816
G2 X2.7191 Y1.1417 I-0.0701 J-0.0645
G2 X2.7251 Y1.0962 I-0.1534 J-0.0435
G3 Y1.0959 I0.011 J-0.0001
G2 X2.719 Y1.0523 I-0.145 J-0.0018
G2 X2.6978 Y1.0155 I-0.0902 J0.0276
G2 X2.6665 Y0.9939 I-0.0648 J0.0603
G2 X2.6286 Y0.987 I-0.0367 J0.0935
G3 X2.6284 I-0.0001 J-0.011
G2 X2.5985 Y0.9908 I-0.0011 J0.1119
G2 X2.5725 Y1.0034 I0.02 J0.074
G2 X2.5529 Y1.0259 I0.0467 J0.0604
G2 X2.5441 Y1.045 I0.1052 J0.06
G1 X2.5691 Y1.0529
G3 X2.5735 Y1.0417 I0.1045 J0.0352
G3 X2.5888 Y1.0207 I0.0594 J0.0272
G3 X2.589 Y1.0206 I0.0074 J0.0081
G3 X2.6289 Y1.0057 I0.0391 J0.0439
G3 X2.6794 Y1.0288 I0.0016 J0.0633
G3 X2.6896 Y1.0462 I-0.0498 J0.0411
G3 X2.6948 Y1.0635 I-0.0933 J0.0371
G0 Z0.125
M5
M30
