( Made using CamBam - http://www.cambam.co.uk )
( 049-indium-from-cambam 11/13/2013 12:56:12 AM )
( T0 : 0.0313 )
G20 G90 G91.1 G64 G40
G0 Z0.125
( T0 : 0.0313 )
T0 M6
( Pocket1 )
G17
M3 S10000
G0 X0.7531 Y2.75
G0 Z0.0625
G1 F4.0 Z-0.0313
G2 F8.0 X0.7484 Y2.7473 I-0.0031 J0.0
G2 Y2.7527 I0.0016 J0.0027
G2 X0.7531 Y2.75 I0.0016 J-0.0027
G1 F4.0 X0.7594
G2 F8.0 X0.7453 Y2.7419 I-0.0094 J0.0
G2 Y2.7581 I0.0047 J0.0081
G2 X0.7594 Y2.75 I0.0047 J-0.0081
G1 F4.0 X0.7719
G2 F8.0 X0.7391 Y2.7311 I-0.0219 J0.0
G2 Y2.7689 I0.0109 J0.0189
G2 X0.7719 Y2.75 I0.0109 J-0.0189
G1 F4.0 X0.7844
G2 F8.0 X0.7328 Y2.7202 I-0.0344 J0.0
G2 Y2.7798 I0.0172 J0.0298
G2 X0.7844 Y2.75 I0.0172 J-0.0298
G1 F4.0 X0.7969
G2 F8.0 X0.7266 Y2.7094 I-0.0469 J0.0
G2 Y2.7906 I0.0234 J0.0406
G2 X0.7969 Y2.75 I0.0234 J-0.0406
G0 Z0.125
G0 X0.7531
G0 Z0.0312
G1 F4.0 Z-0.0625
G2 F8.0 X0.7484 Y2.7473 I-0.0031 J0.0
G2 Y2.7527 I0.0016 J0.0027
G2 X0.7531 Y2.75 I0.0016 J-0.0027
G1 F4.0 X0.7594
G2 F8.0 X0.7453 Y2.7419 I-0.0094 J0.0
G2 Y2.7581 I0.0047 J0.0081
G2 X0.7594 Y2.75 I0.0047 J-0.0081
G1 F4.0 X0.7719
G2 F8.0 X0.7391 Y2.7311 I-0.0219 J0.0
G2 Y2.7689 I0.0109 J0.0189
G2 X0.7719 Y2.75 I0.0109 J-0.0189
G1 F4.0 X0.7844
G2 F8.0 X0.7328 Y2.7202 I-0.0344 J0.0
G2 Y2.7798 I0.0172 J0.0298
G2 X0.7844 Y2.75 I0.0172 J-0.0298
G1 F4.0 X0.7969
G2 F8.0 X0.7266 Y2.7094 I-0.0469 J0.0
G2 Y2.7906 I0.0234 J0.0406
G2 X0.7969 Y2.75 I0.0234 J-0.0406
G0 Z0.125
G0 X0.7531
G0 Z0.0
G1 F4.0 Z-0.0938
G2 F8.0 X0.7484 Y2.7473 I-0.0031 J0.0
G2 Y2.7527 I0.0016 J0.0027
G2 X0.7531 Y2.75 I0.0016 J-0.0027
G1 F4.0 X0.7594
G2 F8.0 X0.7453 Y2.7419 I-0.0094 J0.0
G2 Y2.7581 I0.0047 J0.0081
G2 X0.7594 Y2.75 I0.0047 J-0.0081
G1 F4.0 X0.7719
G2 F8.0 X0.7391 Y2.7311 I-0.0219 J0.0
G2 Y2.7689 I0.0109 J0.0189
G2 X0.7719 Y2.75 I0.0109 J-0.0189
G1 F4.0 X0.7844
G2 F8.0 X0.7328 Y2.7202 I-0.0344 J0.0
G2 Y2.7798 I0.0172 J0.0298
G2 X0.7844 Y2.75 I0.0172 J-0.0298
G1 F4.0 X0.7969
G2 F8.0 X0.7266 Y2.7094 I-0.0469 J0.0
G2 Y2.7906 I0.0234 J0.0406
G2 X0.7969 Y2.75 I0.0234 J-0.0406
G0 Z0.125
G0 X0.7531
G0 Z-0.0323
G1 F4.0 Z-0.126
G2 F8.0 X0.7484 Y2.7473 I-0.0031 J0.0
G2 Y2.7527 I0.0016 J0.0027
G2 X0.7531 Y2.75 I0.0016 J-0.0027
G1 F4.0 X0.7594
G2 F8.0 X0.7453 Y2.7419 I-0.0094 J0.0
G2 Y2.7581 I0.0047 J0.0081
G2 X0.7594 Y2.75 I0.0047 J-0.0081
G1 F4.0 X0.7719
G2 F8.0 X0.7391 Y2.7311 I-0.0219 J0.0
G2 Y2.7689 I0.0109 J0.0189
G2 X0.7719 Y2.75 I0.0109 J-0.0189
G1 F4.0 X0.7844
G2 F8.0 X0.7328 Y2.7202 I-0.0344 J0.0
G2 Y2.7798 I0.0172 J0.0298
G2 X0.7844 Y2.75 I0.0172 J-0.0298
G1 F4.0 X0.7969
G2 F8.0 X0.7266 Y2.7094 I-0.0469 J0.0
G2 Y2.7906 I0.0234 J0.0406
G2 X0.7969 Y2.75 I0.0234 J-0.0406
G0 Z0.125
G0 X3.2469
G0 Z0.0625
G1 F4.0 Z-0.0313
G2 F8.0 X3.2484 Y2.7527 I0.0031 J0.0
G2 X3.2531 Y2.75 I0.0016 J-0.0027
G2 X3.2484 Y2.7473 I-0.0031 J0.0
G2 X3.2469 Y2.75 I0.0016 J0.0027
G1 F4.0 X3.2406
G2 F8.0 X3.2453 Y2.7581 I0.0094 J0.0
G2 X3.2594 Y2.75 I0.0047 J-0.0081
G2 X3.2453 Y2.7419 I-0.0094 J0.0
G2 X3.2406 Y2.75 I0.0047 J0.0081
G1 F4.0 X3.2281
G2 F8.0 X3.2391 Y2.7689 I0.0219 J0.0
G2 X3.2719 Y2.75 I0.0109 J-0.0189
G2 X3.2391 Y2.7311 I-0.0219 J0.0
G2 X3.2281 Y2.75 I0.0109 J0.0189
G1 F4.0 X3.2156
G2 F8.0 X3.2328 Y2.7798 I0.0344 J0.0
G2 X3.2844 Y2.75 I0.0172 J-0.0298
G2 X3.2328 Y2.7202 I-0.0344 J0.0
G2 X3.2156 Y2.75 I0.0172 J0.0298
G1 F4.0 X3.2031
G2 F8.0 X3.2266 Y2.7906 I0.0469 J0.0
G2 X3.2969 Y2.75 I0.0234 J-0.0406
G2 X3.2266 Y2.7094 I-0.0469 J0.0
G2 X3.2031 Y2.75 I0.0234 J0.0406
G0 Z0.125
G0 X3.2469
G0 Z0.0312
G1 F4.0 Z-0.0625
G2 F8.0 X3.2484 Y2.7527 I0.0031 J0.0
G2 X3.2531 Y2.75 I0.0016 J-0.0027
G2 X3.2484 Y2.7473 I-0.0031 J0.0
G2 X3.2469 Y2.75 I0.0016 J0.0027
G1 F4.0 X3.2406
G2 F8.0 X3.2453 Y2.7581 I0.0094 J0.0
G2 X3.2594 Y2.75 I0.0047 J-0.0081
G2 X3.2453 Y2.7419 I-0.0094 J0.0
G2 X3.2406 Y2.75 I0.0047 J0.0081
G1 F4.0 X3.2281
G2 F8.0 X3.2391 Y2.7689 I0.0219 J0.0
G2 X3.2719 Y2.75 I0.0109 J-0.0189
G2 X3.2391 Y2.7311 I-0.0219 J0.0
G2 X3.2281 Y2.75 I0.0109 J0.0189
G1 F4.0 X3.2156
G2 F8.0 X3.2328 Y2.7798 I0.0344 J0.0
G2 X3.2844 Y2.75 I0.0172 J-0.0298
G2 X3.2328 Y2.7202 I-0.0344 J0.0
G2 X3.2156 Y2.75 I0.0172 J0.0298
G1 F4.0 X3.2031
G2 F8.0 X3.2266 Y2.7906 I0.0469 J0.0
G2 X3.2969 Y2.75 I0.0234 J-0.0406
G2 X3.2266 Y2.7094 I-0.0469 J0.0
G2 X3.2031 Y2.75 I0.0234 J0.0406
G0 Z0.125
G0 X3.2469
G0 Z0.0
G1 F4.0 Z-0.0938
G2 F8.0 X3.2484 Y2.7527 I0.0031 J0.0
G2 X3.2531 Y2.75 I0.0016 J-0.0027
G2 X3.2484 Y2.7473 I-0.0031 J0.0
G2 X3.2469 Y2.75 I0.0016 J0.0027
G1 F4.0 X3.2406
G2 F8.0 X3.2453 Y2.7581 I0.0094 J0.0
G2 X3.2594 Y2.75 I0.0047 J-0.0081
G2 X3.2453 Y2.7419 I-0.0094 J0.0
G2 X3.2406 Y2.75 I0.0047 J0.0081
G1 F4.0 X3.2281
G2 F8.0 X3.2391 Y2.7689 I0.0219 J0.0
G2 X3.2719 Y2.75 I0.0109 J-0.0189
G2 X3.2391 Y2.7311 I-0.0219 J0.0
G2 X3.2281 Y2.75 I0.0109 J0.0189
G1 F4.0 X3.2156
G2 F8.0 X3.2328 Y2.7798 I0.0344 J0.0
G2 X3.2844 Y2.75 I0.0172 J-0.0298
G2 X3.2328 Y2.7202 I-0.0344 J0.0
G2 X3.2156 Y2.75 I0.0172 J0.0298
G1 F4.0 X3.2031
G2 F8.0 X3.2266 Y2.7906 I0.0469 J0.0
G2 X3.2969 Y2.75 I0.0234 J-0.0406
G2 X3.2266 Y2.7094 I-0.0469 J0.0
G2 X3.2031 Y2.75 I0.0234 J0.0406
G0 Z0.125
G0 X3.2469
G0 Z-0.0323
G1 F4.0 Z-0.126
G2 F8.0 X3.2484 Y2.7527 I0.0031 J0.0
G2 X3.2531 Y2.75 I0.0016 J-0.0027
G2 X3.2484 Y2.7473 I-0.0031 J0.0
G2 X3.2469 Y2.75 I0.0016 J0.0027
G1 F4.0 X3.2406
G2 F8.0 X3.2453 Y2.7581 I0.0094 J0.0
G2 X3.2594 Y2.75 I0.0047 J-0.0081
G2 X3.2453 Y2.7419 I-0.0094 J0.0
G2 X3.2406 Y2.75 I0.0047 J0.0081
G1 F4.0 X3.2281
G2 F8.0 X3.2391 Y2.7689 I0.0219 J0.0
G2 X3.2719 Y2.75 I0.0109 J-0.0189
G2 X3.2391 Y2.7311 I-0.0219 J0.0
G2 X3.2281 Y2.75 I0.0109 J0.0189
G1 F4.0 X3.2156
G2 F8.0 X3.2328 Y2.7798 I0.0344 J0.0
G2 X3.2844 Y2.75 I0.0172 J-0.0298
G2 X3.2328 Y2.7202 I-0.0344 J0.0
G2 X3.2156 Y2.75 I0.0172 J0.0298
G1 F4.0 X3.2031
G2 F8.0 X3.2266 Y2.7906 I0.0469 J0.0
G2 X3.2969 Y2.75 I0.0234 J-0.0406
G2 X3.2266 Y2.7094 I-0.0469 J0.0
G2 X3.2031 Y2.75 I0.0234 J0.0406
G0 Z0.125
G0 X3.2499 Y0.2531
G0 Z0.0625
G1 F4.0 Z-0.0313
G2 F8.0 X3.2531 Y0.25 I0.0001 J-0.0031
G2 X3.2484 Y0.2473 I-0.0031 J0.0
G2 Y0.2527 I0.0016 J0.0027
G2 X3.2499 Y0.2531 I0.0016 J-0.0027
G1 F4.0 X3.2498 Y0.2594
G2 F8.0 X3.2594 Y0.25 I0.0002 J-0.0094
G2 X3.2453 Y0.2419 I-0.0094 J0.0
G2 Y0.2581 I0.0047 J0.0081
G2 X3.2498 Y0.2594 I0.0047 J-0.0081
G1 F4.0 X3.2496 Y0.2719
G2 F8.0 X3.2719 Y0.25 I0.0004 J-0.0219
G2 X3.2391 Y0.2311 I-0.0219 J0.0
G2 Y0.2689 I0.0109 J0.0189
G2 X3.2496 Y0.2719 I0.0109 J-0.0189
G1 F4.0 X3.2494 Y0.2844
G2 F8.0 X3.2844 Y0.25 I0.0006 J-0.0344
G2 X3.2328 Y0.2202 I-0.0344 J0.0
G2 Y0.2798 I0.0172 J0.0298
G2 X3.2494 Y0.2844 I0.0172 J-0.0298
G1 F4.0 X3.2491 Y0.2969
G2 F8.0 X3.2969 Y0.25 I0.0009 J-0.0469
G2 X3.2266 Y0.2094 I-0.0469 J0.0
G2 Y0.2906 I0.0234 J0.0406
G2 X3.2491 Y0.2969 I0.0234 J-0.0406
G0 Z0.125
G0 X3.2499 Y0.2531
G0 Z0.0312
G1 F4.0 Z-0.0625
G2 F8.0 X3.2531 Y0.25 I0.0001 J-0.0031
G2 X3.2484 Y0.2473 I-0.0031 J0.0
G2 Y0.2527 I0.0016 J0.0027
G2 X3.2499 Y0.2531 I0.0016 J-0.0027
G1 F4.0 X3.2498 Y0.2594
G2 F8.0 X3.2594 Y0.25 I0.0002 J-0.0094
G2 X3.2453 Y0.2419 I-0.0094 J0.0
G2 Y0.2581 I0.0047 J0.0081
G2 X3.2498 Y0.2594 I0.0047 J-0.0081
G1 F4.0 X3.2496 Y0.2719
G2 F8.0 X3.2719 Y0.25 I0.0004 J-0.0219
G2 X3.2391 Y0.2311 I-0.0219 J0.0
G2 Y0.2689 I0.0109 J0.0189
G2 X3.2496 Y0.2719 I0.0109 J-0.0189
G1 F4.0 X3.2494 Y0.2844
G2 F8.0 X3.2844 Y0.25 I0.0006 J-0.0344
G2 X3.2328 Y0.2202 I-0.0344 J0.0
G2 Y0.2798 I0.0172 J0.0298
G2 X3.2494 Y0.2844 I0.0172 J-0.0298
G1 F4.0 X3.2491 Y0.2969
G2 F8.0 X3.2969 Y0.25 I0.0009 J-0.0469
G2 X3.2266 Y0.2094 I-0.0469 J0.0
G2 Y0.2906 I0.0234 J0.0406
G2 X3.2491 Y0.2969 I0.0234 J-0.0406
G0 Z0.125
G0 X3.2499 Y0.2531
G0 Z0.0
G1 F4.0 Z-0.0938
G2 F8.0 X3.2531 Y0.25 I0.0001 J-0.0031
G2 X3.2484 Y0.2473 I-0.0031 J0.0
G2 Y0.2527 I0.0016 J0.0027
G2 X3.2499 Y0.2531 I0.0016 J-0.0027
G1 F4.0 X3.2498 Y0.2594
G2 F8.0 X3.2594 Y0.25 I0.0002 J-0.0094
G2 X3.2453 Y0.2419 I-0.0094 J0.0
G2 Y0.2581 I0.0047 J0.0081
G2 X3.2498 Y0.2594 I0.0047 J-0.0081
G1 F4.0 X3.2496 Y0.2719
G2 F8.0 X3.2719 Y0.25 I0.0004 J-0.0219
G2 X3.2391 Y0.2311 I-0.0219 J0.0
G2 Y0.2689 I0.0109 J0.0189
G2 X3.2496 Y0.2719 I0.0109 J-0.0189
G1 F4.0 X3.2494 Y0.2844
G2 F8.0 X3.2844 Y0.25 I0.0006 J-0.0344
G2 X3.2328 Y0.2202 I-0.0344 J0.0
G2 Y0.2798 I0.0172 J0.0298
G2 X3.2494 Y0.2844 I0.0172 J-0.0298
G1 F4.0 X3.2491 Y0.2969
G2 F8.0 X3.2969 Y0.25 I0.0009 J-0.0469
G2 X3.2266 Y0.2094 I-0.0469 J0.0
G2 Y0.2906 I0.0234 J0.0406
G2 X3.2491 Y0.2969 I0.0234 J-0.0406
G0 Z0.125
G0 X3.2499 Y0.2531
G0 Z-0.0323
G1 F4.0 Z-0.126
G2 F8.0 X3.2531 Y0.25 I0.0001 J-0.0031
G2 X3.2484 Y0.2473 I-0.0031 J0.0
G2 Y0.2527 I0.0016 J0.0027
G2 X3.2499 Y0.2531 I0.0016 J-0.0027
G1 F4.0 X3.2498 Y0.2594
G2 F8.0 X3.2594 Y0.25 I0.0002 J-0.0094
G2 X3.2453 Y0.2419 I-0.0094 J0.0
G2 Y0.2581 I0.0047 J0.0081
G2 X3.2498 Y0.2594 I0.0047 J-0.0081
G1 F4.0 X3.2496 Y0.2719
G2 F8.0 X3.2719 Y0.25 I0.0004 J-0.0219
G2 X3.2391 Y0.2311 I-0.0219 J0.0
G2 Y0.2689 I0.0109 J0.0189
G2 X3.2496 Y0.2719 I0.0109 J-0.0189
G1 F4.0 X3.2494 Y0.2844
G2 F8.0 X3.2844 Y0.25 I0.0006 J-0.0344
G2 X3.2328 Y0.2202 I-0.0344 J0.0
G2 Y0.2798 I0.0172 J0.0298
G2 X3.2494 Y0.2844 I0.0172 J-0.0298
G1 F4.0 X3.2491 Y0.2969
G2 F8.0 X3.2969 Y0.25 I0.0009 J-0.0469
G2 X3.2266 Y0.2094 I-0.0469 J0.0
G2 Y0.2906 I0.0234 J0.0406
G2 X3.2491 Y0.2969 I0.0234 J-0.0406
G0 Z0.125
G0 X0.7531 Y0.2501
G0 Z0.0625
G1 F4.0 Z-0.0313
G1 F8.0 Y0.25
G2 X0.7484 Y0.2473 I-0.0031 J0.0
G2 Y0.2527 I0.0016 J0.0027
G2 X0.7531 Y0.2501 I0.0016 J-0.0027
G1 F4.0 X0.7594 Y0.2502
G2 F8.0 Y0.25 I-0.0094 J-0.0002
G2 X0.7453 Y0.2419 I-0.0094 J0.0
G2 Y0.2581 I0.0047 J0.0081
G2 X0.7594 Y0.2502 I0.0047 J-0.0081
G1 F4.0 X0.7719 Y0.2504
G2 F8.0 Y0.25 I-0.0219 J-0.0004
G2 X0.7391 Y0.2311 I-0.0219 J0.0
G2 Y0.2689 I0.0109 J0.0189
G2 X0.7719 Y0.2504 I0.0109 J-0.0189
G1 F4.0 X0.7844 Y0.2506
G2 F8.0 Y0.25 I-0.0344 J-0.0006
G2 X0.7328 Y0.2202 I-0.0344 J0.0
G2 Y0.2798 I0.0172 J0.0298
G2 X0.7844 Y0.2506 I0.0172 J-0.0298
G1 F4.0 X0.7969 Y0.2509
G2 F8.0 Y0.25 I-0.0469 J-0.0009
G2 X0.7266 Y0.2094 I-0.0469 J0.0
G2 Y0.2906 I0.0234 J0.0406
G2 X0.7969 Y0.2509 I0.0234 J-0.0406
G0 Z0.125
G0 X0.7531 Y0.2501
G0 Z0.0312
G1 F4.0 Z-0.0625
G1 F8.0 Y0.25
G2 X0.7484 Y0.2473 I-0.0031 J0.0
G2 Y0.2527 I0.0016 J0.0027
G2 X0.7531 Y0.2501 I0.0016 J-0.0027
G1 F4.0 X0.7594 Y0.2502
G2 F8.0 Y0.25 I-0.0094 J-0.0002
G2 X0.7453 Y0.2419 I-0.0094 J0.0
G2 Y0.2581 I0.0047 J0.0081
G2 X0.7594 Y0.2502 I0.0047 J-0.0081
G1 F4.0 X0.7719 Y0.2504
G2 F8.0 Y0.25 I-0.0219 J-0.0004
G2 X0.7391 Y0.2311 I-0.0219 J0.0
G2 Y0.2689 I0.0109 J0.0189
G2 X0.7719 Y0.2504 I0.0109 J-0.0189
G1 F4.0 X0.7844 Y0.2506
G2 F8.0 Y0.25 I-0.0344 J-0.0006
G2 X0.7328 Y0.2202 I-0.0344 J0.0
G2 Y0.2798 I0.0172 J0.0298
G2 X0.7844 Y0.2506 I0.0172 J-0.0298
G1 F4.0 X0.7969 Y0.2509
G2 F8.0 Y0.25 I-0.0469 J-0.0009
G2 X0.7266 Y0.2094 I-0.0469 J0.0
G2 Y0.2906 I0.0234 J0.0406
G2 X0.7969 Y0.2509 I0.0234 J-0.0406
G0 Z0.125
G0 X0.7531 Y0.2501
G0 Z0.0
G1 F4.0 Z-0.0938
G1 F8.0 Y0.25
G2 X0.7484 Y0.2473 I-0.0031 J0.0
G2 Y0.2527 I0.0016 J0.0027
G2 X0.7531 Y0.2501 I0.0016 J-0.0027
G1 F4.0 X0.7594 Y0.2502
G2 F8.0 Y0.25 I-0.0094 J-0.0002
G2 X0.7453 Y0.2419 I-0.0094 J0.0
G2 Y0.2581 I0.0047 J0.0081
G2 X0.7594 Y0.2502 I0.0047 J-0.0081
G1 F4.0 X0.7719 Y0.2504
G2 F8.0 Y0.25 I-0.0219 J-0.0004
G2 X0.7391 Y0.2311 I-0.0219 J0.0
G2 Y0.2689 I0.0109 J0.0189
G2 X0.7719 Y0.2504 I0.0109 J-0.0189
G1 F4.0 X0.7844 Y0.2506
G2 F8.0 Y0.25 I-0.0344 J-0.0006
G2 X0.7328 Y0.2202 I-0.0344 J0.0
G2 Y0.2798 I0.0172 J0.0298
G2 X0.7844 Y0.2506 I0.0172 J-0.0298
G1 F4.0 X0.7969 Y0.2509
G2 F8.0 Y0.25 I-0.0469 J-0.0009
G2 X0.7266 Y0.2094 I-0.0469 J0.0
G2 Y0.2906 I0.0234 J0.0406
G2 X0.7969 Y0.2509 I0.0234 J-0.0406
G0 Z0.125
G0 X0.7531 Y0.2501
G0 Z-0.0323
G1 F4.0 Z-0.126
G1 F8.0 Y0.25
G2 X0.7484 Y0.2473 I-0.0031 J0.0
G2 Y0.2527 I0.0016 J0.0027
G2 X0.7531 Y0.2501 I0.0016 J-0.0027
G1 F4.0 X0.7594 Y0.2502
G2 F8.0 Y0.25 I-0.0094 J-0.0002
G2 X0.7453 Y0.2419 I-0.0094 J0.0
G2 Y0.2581 I0.0047 J0.0081
G2 X0.7594 Y0.2502 I0.0047 J-0.0081
G1 F4.0 X0.7719 Y0.2504
G2 F8.0 Y0.25 I-0.0219 J-0.0004
G2 X0.7391 Y0.2311 I-0.0219 J0.0
G2 Y0.2689 I0.0109 J0.0189
G2 X0.7719 Y0.2504 I0.0109 J-0.0189
G1 F4.0 X0.7844 Y0.2506
G2 F8.0 Y0.25 I-0.0344 J-0.0006
G2 X0.7328 Y0.2202 I-0.0344 J0.0
G2 Y0.2798 I0.0172 J0.0298
G2 X0.7844 Y0.2506 I0.0172 J-0.0298
G1 F4.0 X0.7969 Y0.2509
G2 F8.0 Y0.25 I-0.0469 J-0.0009
G2 X0.7266 Y0.2094 I-0.0469 J0.0
G2 Y0.2906 I0.0234 J0.0406
G2 X0.7969 Y0.2509 I0.0234 J-0.0406
( Pocket3 )
S10000
G0 Z0.125
G0 X1.0719 Y0.5719
G0 Z0.0625
G1 F4.0 Z-0.02
G1 F8.0 Y0.5766
G3 X1.0766 Y0.5719 I0.0531 J0.0484
G1 X1.0719
G1 F4.0 X1.0656
G1 F8.0 Y0.5971
G3 X1.0971 Y0.5656 I0.0594 J0.0279
G1 X1.0656
G1 Y0.5719
G0 Z0.125
G0 X1.9522 Y1.4156
G0 Z0.0625
G1 F4.0 Z-0.02
G3 F8.0 X1.9524 Y1.4163 I-0.0562 J0.0195
G3 X1.9526 Y1.4156 I0.0527 J0.0183
G1 X1.9522
G0 Z0.125
G0 X1.9493 Y1.6204
G0 Z0.0625
G1 F4.0 Z-0.02
G3 F8.0 X1.9464 Y1.6296 I-0.1396 J-0.0385
G3 X1.9493 Y1.6328 I-0.0286 J0.0288
G1 Y1.6204
G1 F4.0 X1.9373 Y1.6171
G3 F8.0 X1.9314 Y1.6338 I-0.1276 J-0.0352
G3 X1.9459 Y1.6572 I-0.0136 J0.0246
G2 X1.9504 Y1.7032 I0.4177 J-0.0181
G1 X1.9829 Y1.7012
G3 X1.9806 Y1.6991 I0.038 J-0.0452
G3 X1.9805 Y1.699 I0.0192 J-0.0206
G3 X1.965 Y1.674 I0.0391 J-0.0415
G3 X1.9618 Y1.6509 I0.0739 J-0.0221
G1 Y1.4343
G3 Y1.4338 I0.0281 J0.0
G3 X1.9754 Y1.4031 I0.0433 J0.0009
G1 X1.9304
G3 X1.9423 Y1.4271 I-0.0343 J0.032
G3 X1.9437 Y1.4433 I-0.0805 J0.0153
G1 Y1.5671
G3 X1.9373 Y1.6169 I-0.1824 J0.0018
G1 Y1.617
G1 Y1.6171
G1 F4.0 X1.9252 Y1.6138
G1 F8.0 Y1.6137
G2 X1.9312 Y1.5672 I-0.164 J-0.0447
G1 Y1.4432
G2 X1.93 Y1.4294 I-0.0694 J-0.0008
G2 X1.9211 Y1.4115 I-0.034 J0.0058
G2 X1.9193 Y1.4099 I-0.0114 J0.0107
G2 X1.9012 Y1.4022 I-0.0236 J0.0305
G2 X1.8869 Y1.4011 I-0.0135 J0.0811
G1 X1.8715
G1 Y1.3906
G1 X2.0336
G1 Y1.4011
G1 X2.0189
G2 X2.005 Y1.4022 I-0.0007 J0.0795
G2 X1.9882 Y1.4089 I0.006 J0.0399
G2 X1.9743 Y1.434 I0.0169 J0.0257
G2 Y1.4343 I0.0156 J0.0003
G1 Y1.651
G2 X1.977 Y1.6704 I0.0646 J0.0008
G2 X1.9891 Y1.69 I0.0426 J-0.0128
G1 X1.9892
G2 X2.009 Y1.701 I0.0317 J-0.034
G2 X2.0281 Y1.7034 I0.0182 J-0.0686
G1 X2.0369
G1 Y1.7104
G1 X1.94 Y1.7164
G3 X1.9334 Y1.6578 I0.4236 J-0.0772
G2 X1.9123 Y1.6438 I-0.0156 J0.0007
G2 X1.9252 Y1.6138 I-0.1026 J-0.0619
G0 Z0.125
G0 X1.0766 Y2.4281
G0 Z0.0625
G1 F4.0 Z-0.02
G3 F8.0 X1.0719 Y2.4234 I0.0484 J-0.0531
G1 Y2.4281
G1 X1.0766
G1 F4.0 Y2.4344
G1 F8.0 X1.0971
G3 X1.0656 Y2.4029 I0.0279 J-0.0594
G1 Y2.4344
G1 X1.0766
G0 Z0.125
G0 X2.9234 Y2.4281
G0 Z0.0625
G1 F4.0 Z-0.02
G1 F8.0 X2.9281
G1 Y2.4234
G3 X2.9234 Y2.4281 I-0.0531 J-0.0484
G1 F4.0 X2.9192 Y2.4235
G3 F8.0 X2.9029 Y2.4344 I-0.0442 J-0.0485
G1 X2.9344
G1 Y2.4029
G3 X2.9192 Y2.4235 I-0.0594 J-0.0279
G0 Z0.125
G0 X2.9281 Y0.5766
G0 Z0.0625
G1 F4.0 Z-0.02
G1 F8.0 Y0.5719
G1 X2.9234
G3 X2.9281 Y0.5766 I-0.0484 J0.0531
G1 F4.0 X2.9344
G1 F8.0 Y0.5656
G1 X2.9029
G3 X2.9344 Y0.5971 I-0.0279 J0.0594
G1 Y0.5766
G0 Z0.125
G0 X2.8968 Y0.6073
G0 Z0.0625
G1 F4.0 Z-0.02
G3 F8.0 X2.9031 Y0.625 I-0.0218 J0.0177
G1 Y2.375
G3 X2.875 Y2.4031 I-0.0281 J0.0
G1 X1.125
G3 X1.0969 Y2.375 I0.0 J-0.0281
G1 Y0.625
G3 X1.125 Y0.5969 I0.0281 J0.0
G1 X2.875
G3 X2.8968 Y0.6073 I0.0 J0.0281
G1 F4.0 X2.8871 Y0.6151
G3 F8.0 X2.8906 Y0.625 I-0.0121 J0.0099
G1 Y2.375
G3 X2.875 Y2.3906 I-0.0156 J0.0
G1 X1.125
G3 X1.1094 Y2.375 I0.0 J-0.0156
G1 Y0.625
G3 X1.125 Y0.6094 I0.0156 J0.0
G1 X2.875
G3 X2.8871 Y0.6151 I0.0 J0.0156
G0 Z0.125
G0 X2.9065 Y0.5994
G0 Z0.0625
G1 F4.0 Z-0.02
G2 F8.0 X2.875 Y0.5844 I-0.0315 J0.0256
G1 X1.125
G2 X1.0844 Y0.625 I0.0 J0.0406
G1 Y2.375
G2 X1.125 Y2.4156 I0.0406 J0.0
G1 X2.875
G2 X2.9156 Y2.375 I0.0 J-0.0406
G1 Y0.625
G2 X2.9065 Y0.5994 I-0.0406 J0.0
G1 F4.0 X2.9162 Y0.5915
G2 F8.0 X2.875 Y0.5719 I-0.0412 J0.0335
G1 X1.125
G2 X1.0719 Y0.625 I0.0 J0.0531
G1 Y2.375
G2 X1.125 Y2.4281 I0.0531 J0.0
G1 X2.875
G2 X2.9281 Y2.375 I0.0 J-0.0531
G1 Y0.625
G2 X2.9162 Y0.5915 I-0.0531 J0.0
G0 Z0.125
G0 X2.9469
G0 Z0.0625
G1 F4.0 Z-0.02
G1 F8.0 Y0.5531
G1 X1.0531
G1 Y2.4469
G1 X2.9469
G1 Y0.5915
G1 F4.0 X2.9594
G1 F8.0 Y0.5406
G1 X1.0406
G1 Y2.4594
G1 X2.9594
G1 Y0.5915
G1 F4.0 X2.9719
G1 F8.0 Y0.5281
G1 X1.0281
G1 Y2.4719
G1 X2.9719
G1 Y0.5915
G1 F4.0 X2.9844
G1 F8.0 Y0.5156
G1 X1.0156
G1 Y2.4844
G1 X2.9844
G1 Y0.5915
G0 Z0.125
G0 X2.2248 Y1.4219
G0 Z0.0625
G1 F4.0 Z-0.02
G1 F8.0 X2.2244
G3 X2.2246 Y1.423 I-0.0952 J0.0162
G3 X2.2248 Y1.4219 I0.0697 J0.0124
G0 Z0.125
G0 X2.2247 Y1.8737
G0 Z0.0625
G1 F4.0 Z-0.02
G3 F8.0 Y1.8738 I-0.068 J-0.0128
G3 Y1.8737 I0.0881 J-0.0167
G1 F4.0 X2.2185 Y1.8725
G3 F8.0 X2.2166 Y1.88 I-0.0618 J-0.0116
G1 X2.2326
G3 X2.2313 Y1.875 I0.048 J-0.0148
G3 X2.2297 Y1.8648 I0.0815 J-0.0178
G1 Y1.8647
G3 X2.2291 Y1.8495 I0.1573 J-0.0143
G1 Y1.4477
G3 X2.23 Y1.4305 I0.1498 J-0.001
G3 X2.2329 Y1.4156 I0.0644 J0.0049
G1 X2.2167
G3 X2.2186 Y1.425 I-0.0875 J0.0224
G3 X2.2203 Y1.4477 I-0.1422 J0.0217
G1 Y1.8495
G3 X2.2194 Y1.8656 I-0.1422 J0.001
G3 X2.2185 Y1.8725 I-0.0627 J-0.0048
G1 F4.0 X2.2063 Y1.8702
G3 F8.0 X2.1978 Y1.8901 I-0.0495 J-0.0093
G3 X2.1958 Y1.8925 I-0.0229 J-0.0163
G1 X2.2546
G3 X2.2537 Y1.8917 I0.0192 J-0.0206
G3 X2.2436 Y1.8724 I0.0269 J-0.0264
G3 X2.2422 Y1.8636 I0.0692 J-0.0153
G3 X2.2416 Y1.8495 I0.1449 J-0.0132
G1 Y1.4476
G3 X2.2424 Y1.4317 I0.1373 J-0.001
G3 X2.2519 Y1.4052 I0.052 J0.0037
G3 X2.2536 Y1.4031 I0.0229 J0.0163
G1 X2.1988
G3 X2.2062 Y1.4269 I-0.0695 J0.0349
G3 X2.2078 Y1.4476 I-0.1298 J0.0198
G1 Y1.8495
G3 X2.207 Y1.8645 I-0.1297 J0.0009
G3 X2.2063 Y1.8702 I-0.0503 J-0.0037
G1 F4.0 X2.194 Y1.8679
G3 F8.0 X2.1876 Y1.8828 I-0.0373 J-0.007
G3 X2.1847 Y1.886 I-0.0127 J-0.0091
G3 X2.171 Y1.8923 I-0.0197 J-0.0245
G3 X2.1617 Y1.8938 I-0.0164 J-0.0728
G1 X2.1616
G3 X2.1448 Y1.8945 I-0.0158 J-0.1692
G1 X2.1107
G1 Y1.905
G1 X2.3391
G1 Y1.8945
G1 X2.306
G3 X2.2874 Y1.8933 I-0.0011 J-0.1268
G3 X2.2647 Y1.8847 I0.0051 J-0.0478
G3 X2.2626 Y1.8829 I0.0091 J-0.0127
G3 X2.2558 Y1.8699 I0.018 J-0.0177
G3 X2.2546 Y1.8625 I0.057 J-0.0128
G3 X2.2541 Y1.8496 I0.1324 J-0.0121
G1 Y1.4476
G3 X2.2549 Y1.4328 I0.1248 J-0.001
G3 X2.2621 Y1.4124 I0.0395 J0.0026
G3 X2.2664 Y1.4084 I0.0127 J0.0091
G3 X2.2865 Y1.4018 I0.0225 J0.0347
G3 X2.3013 Y1.4011 I0.0138 J0.1369
G1 X2.3391
G1 Y1.3906
G1 X2.1107
G1 Y1.4011
G1 X2.15
G3 X2.1505 I0.0 J0.0156
G2 X2.171 Y1.3998 I0.0035 J-0.1094
G3 X2.1873 Y1.4081 I0.0024 J0.0154
G3 X2.1939 Y1.4287 I-0.058 J0.0299
G3 X2.1953 Y1.4476 I-0.1174 J0.018
G1 Y1.8495
G3 X2.1945 Y1.8634 I-0.1172 J0.0009
G3 X2.194 Y1.8679 I-0.0378 J-0.0025
G0 Z0.125
G0 X1.6435 Y2.0867
G0 Z0.0625
G1 F4.0 Z-0.02
G1 F8.0 X1.6431
G3 X1.6432 Y2.087 I-0.0243 J0.0141
G1 X1.6435 Y2.0867
G0 Z0.125
G0 X1.5231 Y2.0797
G0 Z0.0625
G1 F4.0 Z-0.02
G3 F8.0 X1.516 Y2.0701 I0.0186 J-0.0211
G3 X1.509 Y2.0797 I-0.0256 J-0.0116
G3 X1.516 Y2.0893 I-0.0186 J0.0211
G3 X1.5231 Y2.0797 I0.0256 J0.0115
G0 Z0.125
G0 X1.5185 Y2.207
G0 Z0.0625
G1 F4.0 Z-0.02
G1 F8.0 Y2.2328
G1 X1.5318 Y2.2173
G3 X1.5185 Y2.207 I0.0099 J-0.0263
G1 F4.0 X1.506
G1 F8.0 Y2.266
G1 X1.5066
G1 X1.6628 Y2.0833
G1 Y2.0742
G1 X1.5417
G3 X1.526 Y2.0585 I0.0 J-0.0156
G1 Y1.9956
G1 X1.506
G1 Y2.0585
G3 X1.4904 Y2.0742 I-0.0156 J0.0
G1 X1.4757
G1 Y2.0852
G1 X1.4904
G3 X1.506 Y2.1008 I0.0 J0.0156
G1 Y2.207
G0 Z0.125
G0 X1.5274 Y2.1974
G0 Z0.0625
G1 F4.0 Z-0.02
G3 F8.0 X1.526 Y2.191 I0.0143 J-0.0064
G1 Y2.1008
G3 X1.5417 Y2.0852 I0.0156 J0.0
G1 X1.6188
G3 X1.6306 Y2.1109 I0.0 J0.0156
G1 X1.5535 Y2.2012
G3 X1.5274 Y2.1974 I-0.0119 J-0.0102
G0 Z0.125
G0 X1.3835 Y2.1922
G0 Z0.0625
G1 F4.0 Z-0.02
G3 F8.0 X1.3808 Y2.2117 I-0.0962 J-0.0035
G3 X1.369 Y2.2359 I-0.0618 J-0.0151
G3 X1.3263 Y2.2561 I-0.0413 J-0.0323
G3 X1.2972 Y2.2502 I-0.0013 J-0.0684
G3 X1.2968 Y2.25 I0.0064 J-0.0143
G3 X1.273 Y2.2269 I0.0224 J-0.047
G3 X1.2664 Y2.2081 I0.0634 J-0.0329
G3 X1.2641 Y2.1848 I0.1122 J-0.0225
G3 X1.2704 Y2.1502 I0.0861 J-0.0022
G3 X1.2705 Y2.15 I0.0145 J0.0059
G3 X1.3012 Y2.1216 I0.0471 J0.0201
G1 X1.3013
G3 X1.3257 Y2.1178 I0.0234 J0.0704
G3 X1.3683 Y2.1383 I0.0007 J0.0531
G3 X1.3806 Y2.163 I-0.0513 J0.0408
G3 X1.3836 Y2.1877 I-0.0936 J0.0239
G3 X1.3835 Y2.1922 I-0.0963 J0.0009
G0 Z0.125
G0 X1.2697 Y2.1192
G0 Z0.0625
G1 F4.0 Z-0.02
G3 F8.0 X1.2654 Y2.1143 I0.0236 J-0.025
G2 X1.2615 Y2.1283 I0.1212 J0.0405
G3 X1.2697 Y2.1192 I0.0561 J0.0418
G1 F4.0 X1.274 Y2.1147
G3 F8.0 X1.2654 Y2.0973 I0.0193 J-0.0204
G2 X1.262 Y2.1052 I0.1911 J0.0855
G2 X1.2525 Y2.1539 I0.1245 J0.0496
G2 X1.2528 Y2.1674 I0.2196 J0.0019
G3 X1.2589 Y2.1455 I0.0974 J0.0152
G3 X1.2591 Y2.1451 I0.026 J0.0106
G3 X1.2798 Y2.1189 I0.0586 J0.025
G3 X1.274 Y2.1147 I0.0135 J-0.0247
G1 F4.0 X1.2826 Y2.1056
G3 F8.0 X1.2792 Y2.0876 I0.0107 J-0.0113
G3 X1.3191 Y2.031 I0.1776 J0.0829
G1 X1.3192 Y2.0309
G3 X1.3568 Y2.0008 I0.1722 J0.1761
G1 X1.3485 Y1.992
G2 X1.3133 Y2.0124 I0.0372 J0.105
G1 X1.3132
G2 X1.2778 Y2.0513 I0.134 J0.1577
G3 X1.2776 Y2.0516 I-0.0128 J-0.009
G2 X1.2504 Y2.1006 I0.1788 J0.1313
G2 X1.24 Y2.1538 I0.1361 J0.0542
G2 X1.2438 Y2.1975 I0.2321 J0.002
G3 Y2.1977 I-0.0154 J0.0028
G2 X1.2581 Y2.2362 I0.1121 J-0.0195
G2 X1.2752 Y2.255 I0.0582 J-0.0358
G2 X1.3076 Y2.2683 I0.0443 J-0.0616
G3 X1.3077 Y2.2684 I-0.0025 J0.0154
G2 X1.3293 Y2.2701 I0.021 J-0.1223
G3 X1.3298 Y2.2702 I0.0001 J0.0156
G2 X1.3845 Y2.2474 I0.0019 J-0.0724
G3 X1.3846 Y2.2473 I0.0114 J0.0107
G2 X1.4015 Y2.2195 I-0.0544 J-0.0522
G2 X1.4067 Y2.1859 I-0.0978 J-0.0324
G3 Y2.1855 I0.0156 J-0.0002
G2 X1.4017 Y2.1522 I-0.1047 J-0.0014
G2 X1.3853 Y2.1253 I-0.0659 J0.0217
G1 Y2.1252
G2 X1.3599 Y2.1088 I-0.0489 J0.0478
G2 X1.3286 Y2.1037 I-0.0301 J0.0857
G3 X1.3283 I-0.0002 J-0.0156
G2 X1.3128 Y2.1048 I-0.0006 J0.1004
G2 X1.2995 Y2.1086 I0.0075 J0.0518
G3 X1.2826 Y2.1056 I-0.0062 J-0.0143
G0 Z0.125
G0 X1.7239 Y1.4164
G0 Z0.0625
G1 F4.0 Z-0.02
G3 F8.0 X1.7242 Y1.4156 I0.057 J0.0215
G1 X1.7237
G3 X1.7239 Y1.4164 I-0.0562 J0.0195
G1 F4.0 X1.7121 Y1.4203
G3 F8.0 X1.7138 Y1.4271 I-0.0446 J0.0148
G3 X1.7152 Y1.4433 I-0.0805 J0.0153
G1 Y1.6064
G3 Y1.6068 I-0.0281 J0.0
G2 X1.7271 Y1.661 I0.122 J0.0016
G3 X1.7274 Y1.6617 I-0.0254 J0.0121
G2 X1.755 Y1.6934 I0.0659 J-0.0293
G2 X1.7998 Y1.7039 I0.0421 J-0.0789
G3 X1.801 I0.0008 J0.0281
G2 X1.8077 Y1.7038 I0.0016 J-0.1124
G3 X1.7815 Y1.6939 I0.0201 J-0.092
G3 X1.7809 Y1.6935 I0.0138 J-0.0245
G3 X1.7468 Y1.6603 I0.0528 J-0.0883
G3 X1.7452 Y1.6574 I0.0237 J-0.0151
G3 X1.7343 Y1.6173 I0.104 J-0.0498
G3 X1.7326 Y1.5829 I0.3019 J-0.0325
G1 Y1.4403
G3 X1.7472 Y1.4031 I0.0484 J-0.0024
G1 X1.7018
G3 X1.7121 Y1.4203 I-0.0343 J0.032
G1 F4.0 X1.7002 Y1.4243
G3 F8.0 X1.7015 Y1.4294 I-0.0327 J0.0109
G3 X1.7027 Y1.4432 I-0.0682 J0.0131
G1 Y1.6064
G3 Y1.6066 I-0.0156 J0.0
G2 X1.7158 Y1.6664 I0.1345 J0.0017
G3 X1.716 Y1.6667 I-0.0141 J0.0067
G2 X1.7487 Y1.7042 I0.0773 J-0.0344
G2 X1.8001 Y1.7164 I0.0484 J-0.0897
G3 X1.8008 I0.0005 J0.0156
G2 X1.8659 Y1.6992 I0.0017 J-0.1249
G3 X1.8661 Y1.6991 I0.0079 J0.0135
G2 X1.9005 Y1.6602 I-0.04 J-0.07
G3 X1.8289 Y1.6935 I-0.0711 J-0.0594
G3 X1.7876 Y1.683 I-0.0011 J-0.0817
G3 X1.7873 Y1.6828 I0.0077 J-0.0136
G3 X1.7574 Y1.6536 I0.0464 J-0.0776
G3 X1.7565 Y1.652 I0.0132 J-0.0084
G3 X1.7467 Y1.6162 I0.0927 J-0.0444
G3 X1.7451 Y1.583 I0.2895 J-0.0313
G1 Y1.44
G3 X1.7581 Y1.4102 I0.0359 J-0.0021
G3 X1.7595 Y1.4091 I0.0099 J0.0121
G3 X1.7798 Y1.4021 I0.0246 J0.0382
G3 X1.7959 Y1.4011 I0.0151 J0.1198
G1 X1.8044
G1 Y1.3906
G1 X1.643
G1 Y1.4011
G1 X1.6588
G3 X1.6728 Y1.4022 I0.0008 J0.0817
G3 X1.691 Y1.4101 I-0.0051 J0.0368
G3 X1.6926 Y1.4115 I-0.0098 J0.0122
G3 X1.7002 Y1.4243 I-0.0251 J0.0236
( Pocket2 )
S10000
G0 Z0.125
G0 X2.2557 Y0.8205
G0 Z0.0625
G1 F4.0 Z-0.02
G1 F8.0 Y0.8285
G3 X2.2605 Y0.8245 I0.103 J0.1202
G3 X2.2557 Y0.8205 I0.0089 J-0.0156
G1 F4.0 X2.2477
G1 F8.0 Y0.8474
G3 X2.2699 Y0.8275 I0.111 J0.1013
G3 X2.2958 Y0.8114 I0.117 J0.1596
G1 Y0.8047
G1 X2.2746 Y0.8175
G3 X2.2594 Y0.8089 I-0.0051 J-0.0086
G1 Y0.69
G1 X2.2477
G1 Y0.8205
G0 Z0.125
G0 X2.114 Y0.8245
G0 Z0.0625
G1 F4.0 Z-0.02
G3 F8.0 X2.1092 Y0.8205 I0.0089 J-0.0156
G1 Y0.8285
G3 X2.114 Y0.8245 I0.103 J0.1202
G1 F4.0 X2.118 Y0.8176
G3 F8.0 X2.1129 Y0.8089 I0.0049 J-0.0087
G1 Y0.69
G1 X2.1012
G1 Y0.8474
G3 X2.1234 Y0.8275 I0.111 J0.1013
G3 X2.1493 Y0.8114 I0.117 J0.1596
G1 Y0.8047
G1 X2.1281 Y0.8175
G3 X2.118 Y0.8176 I-0.0051 J-0.0086
G0 Z0.125
G0 X2.0109 Y0.7568
G0 Z0.0625
G1 F4.0 Z-0.02
G3 F8.0 X2.0098 Y0.7584 I-0.0087 J-0.0049
G1 X1.9639 Y0.8121
G3 X1.9463 Y0.8056 I-0.0076 J-0.0065
G1 Y0.7519
G3 X1.9563 Y0.7419 I0.01 J0.0
G1 X2.0022
G3 X2.0109 Y0.7568 I0.0 J0.01
G0 Z0.125
G0 X1.9434 Y0.7393
G0 Z0.0625
G1 F4.0 Z-0.02
G3 F8.0 X1.941 Y0.7363 I0.0129 J-0.0126
G3 X1.9387 Y0.7393 I-0.0153 J-0.0095
G3 X1.941 Y0.7424 I-0.0129 J0.0126
G3 X1.9434 Y0.7393 I0.0152 J0.0095
G0 Z0.125
G0 X1.9438 Y0.8185
G0 Z0.0625
G1 F4.0 Z-0.02
G1 F8.0 Y0.8271
G1 X1.9484 Y0.8217
G3 X1.9438 Y0.8185 I0.0079 J-0.0161
G1 F4.0 X1.9358
G1 F8.0 Y0.8488
G1 X2.0277 Y0.7412
G1 Y0.7368
G1 X1.9563
G3 X1.9463 Y0.7268 I0.0 J-0.01
G1 Y0.69
G1 X1.9358
G1 Y0.7268
G3 X1.9258 Y0.7368 I-0.01 J0.0
G1 X1.9177
G1 Y0.7419
G1 X1.9258
G3 X1.9358 Y0.7519 I0.0 J0.01
G1 Y0.8185
G0 Z0.125
G0 X1.8583 Y0.6994
G0 Z0.0625
G1 F4.0 Z-0.02
G2 F8.0 X1.8589 Y0.699 I-0.0018 J-0.0028
G3 X1.8592 Y0.6986 I0.0129 J0.0125
G2 X1.8602 Y0.6963 I-0.0022 J-0.0022
G3 Y0.6957 I0.018 J-0.0004
G2 X1.8591 Y0.6931 I-0.0035 J-0.0001
G3 X1.8589 Y0.6929 I0.0127 J-0.0128
G2 X1.8565 Y0.6919 I-0.0024 J0.0023
G3 X1.8559 I-0.0003 J-0.018
G2 X1.8537 Y0.6928 I-0.0001 J0.0029
G3 X1.8532 Y0.6933 I-0.013 J-0.0124
G2 X1.8522 Y0.6957 I0.0023 J0.0024
G3 Y0.6963 I-0.018 J0.0003
G2 X1.8531 Y0.6985 I0.0029 J0.0001
G3 X1.8537 Y0.6991 I-0.0124 J0.013
G2 X1.8559 Y0.7 I0.0021 J-0.002
G3 X1.8565 I0.0003 J0.018
G2 X1.8583 Y0.6994 I0.0001 J-0.0033
G1 F4.0 X1.8627 Y0.7061
G2 F8.0 X1.8646 Y0.7045 I-0.0062 J-0.0095
G3 X1.8648 Y0.7043 I0.0072 J0.007
G2 X1.8682 Y0.6962 I-0.0078 J-0.0079
G3 Y0.6958 I0.01 J-0.0002
G2 X1.8648 Y0.6875 I-0.0115 J-0.0002
G3 X1.8646 Y0.6873 I0.007 J-0.0071
G2 X1.8564 Y0.6839 I-0.0081 J0.0079
G3 X1.856 I-0.0002 J-0.01
G2 X1.8479 Y0.6873 I-0.0002 J0.0109
G3 X1.8477 Y0.6875 I-0.0072 J-0.0069
G2 X1.8442 Y0.6958 I0.0079 J0.0081
G3 Y0.6962 I-0.01 J0.0002
G2 X1.8476 Y0.7043 I0.0109 J0.0002
G3 X1.8479 Y0.7046 I-0.0069 J0.0072
G2 X1.856 Y0.708 I0.0079 J-0.0075
G3 X1.8564 I0.0002 J0.01
G2 X1.8627 Y0.7061 I0.0002 J-0.0113
G0 Z0.125
G0 X1.7785 Y0.721
G0 Z0.0625
G1 F4.0 Z-0.02
G2 F8.0 X1.7768 Y0.714 I-0.0517 J0.0091
G2 X1.7689 Y0.7017 I-0.028 J0.0093
G2 X1.7545 Y0.694 I-0.0238 J0.0268
G2 X1.7494 Y0.6928 I-0.018 J0.0663
G3 X1.7644 Y0.7023 I-0.0131 J0.0369
G3 X1.7646 Y0.7025 I-0.01 J0.0098
G3 X1.7756 Y0.7313 I-0.0295 J0.0278
G3 X1.7667 Y0.7587 I-0.0467 J0.0001
G2 X1.7735 Y0.7502 I-0.0324 J-0.0325
G3 X1.7736 Y0.7499 I0.0119 J0.0073
G2 X1.7793 Y0.731 I-0.0303 J-0.0195
G1 Y0.7309
G2 X1.7785 Y0.721 I-0.0525 J-0.0008
G0 Z0.125
G0 X1.7514 Y0.7735
G0 Z0.0625
G1 F4.0 Z-0.02
G3 F8.0 X1.7449 Y0.7774 I-0.0383 J-0.0555
G3 X1.7409 Y0.7788 I-0.0066 J-0.0123
G3 X1.758 Y0.7919 I-0.0251 J0.0506
G3 X1.7652 Y0.8021 I-0.0352 J0.0326
G3 X1.7691 Y0.8169 I-0.0292 J0.0155
G3 X1.7639 Y0.8359 I-0.0327 J0.0012
G3 X1.7632 Y0.8368 I-0.0117 J-0.0076
G3 X1.7548 Y0.8443 I-0.0237 J-0.0181
G2 X1.7634 Y0.839 I-0.0145 J-0.0332
G3 X1.7635 I0.0089 J0.0108
G2 X1.7705 Y0.8297 I-0.0157 J-0.0192
G2 X1.7729 Y0.8173 I-0.0291 J-0.0119
G2 X1.7686 Y0.8026 I-0.0295 J0.0005
G3 X1.7684 Y0.8022 I0.012 J-0.0072
G2 X1.7568 Y0.7895 I-0.0329 J0.0184
G3 X1.7514 Y0.7735 I0.0079 J-0.0116
G0 Z0.125
G0 X1.7297 Y0.7763
G0 Z0.0625
G1 F4.0 Z-0.02
G3 F8.0 X1.7189 Y0.7691 I0.0644 J-0.1088
G3 X1.7208 Y0.7804 I-0.0116 J0.0079
G3 X1.7259 Y0.7775 I0.0214 J0.0312
G3 X1.7297 Y0.7763 I0.006 J0.0126
G0 Z0.125
G0 X1.7121 Y0.7637
G0 Z0.0625
G1 F4.0 Z-0.02
G3 F8.0 X1.6989 Y0.7478 I0.0421 J-0.0482
G3 X1.6988 Y0.7476 I0.0121 J-0.0071
G3 X1.6938 Y0.729 I0.0339 J-0.0192
G3 X1.7065 Y0.7005 I0.036 J-0.001
G3 X1.7182 Y0.6935 I0.026 J0.0305
G2 X1.7162 Y0.6941 I0.0163 J0.0658
G2 X1.7012 Y0.7021 I0.0107 J0.0379
G2 X1.6928 Y0.7144 I0.0204 J0.0231
G2 X1.69 Y0.7309 I0.0441 J0.0158
G2 X1.6918 Y0.7396 I0.0231 J-0.0003
G1 X1.6919 Y0.7397
G2 X1.6973 Y0.7493 I0.0453 J-0.019
G3 X1.6975 Y0.7496 I-0.0114 J0.0082
G2 X1.705 Y0.7585 I0.0473 J-0.0324
G1 Y0.7586
G2 X1.7121 Y0.7637 I0.0216 J-0.0224
G0 Z0.125
G0 X1.7089 Y0.793
G0 Z0.0625
G1 F4.0 Z-0.02
G2 F8.0 X1.708 Y0.7939 I0.0166 J0.0171
G2 X1.7023 Y0.8013 I0.0356 J0.0333
G3 X1.7022 Y0.8015 I-0.0119 J-0.0074
G2 X1.6981 Y0.8097 I0.0357 J0.0229
G2 X1.6967 Y0.8171 I0.0205 J0.0076
G1 Y0.8172
G2 X1.699 Y0.8298 I0.0341 J0.0005
G2 X1.7057 Y0.8392 I0.0228 J-0.0093
G2 X1.7182 Y0.8459 I0.0209 J-0.0241
G2 X1.7206 Y0.8465 I0.0157 J-0.0579
G3 X1.7115 Y0.8412 I0.0132 J-0.0332
G3 X1.7112 Y0.8409 I0.0088 J-0.0109
G3 X1.7006 Y0.8171 I0.0194 J-0.0228
G3 X1.7031 Y0.8043 I0.0379 J0.0008
G3 X1.7079 Y0.7945 I0.0535 J0.0202
G3 X1.7089 Y0.793 I0.0442 J0.0267
G1 F4.0 X1.7061 Y0.7901
G2 F8.0 X1.7051 Y0.7911 I0.0194 J0.0199
G1 Y0.7912
G2 X1.6989 Y0.7992 I0.0385 J0.036
G3 X1.6988 Y0.7993 I-0.0085 J-0.0053
G2 X1.6944 Y0.8083 I0.039 J0.025
G1 X1.6943 Y0.8084
G2 X1.6927 Y0.8171 I0.0243 J0.009
G2 X1.6952 Y0.8313 I0.0381 J0.0006
G2 X1.7031 Y0.8422 I0.0266 J-0.0107
G2 X1.7172 Y0.8498 I0.0235 J-0.0271
G2 X1.7347 Y0.852 I0.0168 J-0.0618
G3 X1.735 I0.0001 J0.01
G2 X1.7518 Y0.8497 I0.0006 J-0.0577
G2 X1.766 Y0.8421 I-0.0116 J-0.0385
G2 X1.7742 Y0.8312 I-0.0182 J-0.0223
G2 X1.7769 Y0.8172 I-0.0328 J-0.0135
G2 X1.7721 Y0.8005 I-0.0335 J0.0005
G3 X1.7719 Y0.8002 I0.0086 J-0.0052
G2 X1.759 Y0.7862 I-0.0364 J0.0204
G3 X1.7596 Y0.7693 I0.0056 J-0.0083
G2 X1.7769 Y0.7523 I-0.0253 J-0.043
G3 X1.777 Y0.7521 I0.0085 J0.0052
G2 X1.7833 Y0.731 I-0.0337 J-0.0216
G2 X1.7806 Y0.7128 I-0.0565 J-0.0008
G2 X1.7716 Y0.6988 I-0.0318 J0.0106
G2 X1.7556 Y0.6901 I-0.0265 J0.0298
G2 X1.7356 Y0.6876 I-0.0191 J0.0702
G3 X1.7354 I-0.0001 J-0.01
G2 X1.7152 Y0.6902 I-0.0009 J0.0718
G2 X1.6986 Y0.6991 I0.0118 J0.0417
G2 X1.689 Y0.713 I0.0231 J0.0262
G2 X1.686 Y0.731 I0.0479 J0.0172
G2 X1.6882 Y0.7412 I0.0271 J-0.0004
G2 X1.694 Y0.7517 I0.049 J-0.0205
G3 X1.6942 Y0.7519 I-0.0081 J0.0058
G2 X1.7023 Y0.7614 I0.0506 J-0.0347
G2 X1.7116 Y0.7679 I0.0244 J-0.0252
G3 X1.7121 Y0.7857 I-0.0043 J0.009
G2 X1.7061 Y0.7901 I0.0134 J0.0244
G1 F4.0 X1.7126 Y0.7946
G3 F8.0 X1.7178 Y0.7881 I0.0395 J0.0267
G3 X1.7276 Y0.7811 I0.0244 J0.0235
G3 X1.7357 Y0.7809 I0.0043 J0.009
G3 X1.7551 Y0.7946 I-0.02 J0.0486
G3 X1.7617 Y0.804 I-0.0323 J0.0299
G3 X1.7651 Y0.817 I-0.0256 J0.0137
G3 X1.7605 Y0.8338 I-0.0287 J0.0011
G3 X1.7601 Y0.8344 I-0.0084 J-0.0054
G3 X1.7444 Y0.8441 I-0.0205 J-0.0157
G3 X1.735 Y0.845 I-0.0092 J-0.0431
G3 X1.714 Y0.8381 I-0.0012 J-0.0317
G3 X1.7137 Y0.8379 I0.0063 J-0.0078
G3 X1.7046 Y0.8172 I0.0168 J-0.0198
G3 X1.7068 Y0.8057 I0.0339 J0.0007
G3 X1.7113 Y0.7966 I0.0498 J0.0188
G3 X1.7126 Y0.7946 I0.0408 J0.0246
G0 Z0.125
G0 X1.728 Y0.7706
G0 Z0.0625
G1 F4.0 Z-0.02
G3 F8.0 X1.7168 Y0.7624 I0.0662 J-0.103
G3 X1.7024 Y0.7458 I0.0373 J-0.047
G3 X1.7023 Y0.7457 I0.0086 J-0.0051
G3 X1.6978 Y0.7289 I0.0305 J-0.0173
G3 X1.7091 Y0.7035 I0.0321 J-0.0009
G3 X1.722 Y0.6964 I0.0234 J0.0274
G1 X1.7221
G3 X1.7354 Y0.6945 I0.013 J0.0437
G3 X1.7615 Y0.7051 I0.001 J0.0352
G3 X1.7617 Y0.7053 I-0.0072 J0.007
G3 X1.7716 Y0.7313 I-0.0266 J0.0251
G3 X1.7627 Y0.7575 I-0.0427 J0.0001
G3 X1.7625 Y0.7577 I-0.0079 J-0.0061
G3 X1.743 Y0.7739 I-0.0495 J-0.0397
G3 X1.7333 Y0.7738 I-0.0047 J-0.0088
G3 X1.728 Y0.7706 I0.0609 J-0.1062
( Pocket4 )
S10000
G0 Z0.125
G0 X2.4984 Y0.9998
G0 Z0.0625
G1 F4.0 Z-0.02
G1 F8.0 X2.4903
G1 Y1.1964
G1 X2.4984
G1 Y0.9998
G1 F4.0 Y0.991
G1 F8.0 X2.4815
G1 Y1.2052
G1 X2.5072
G1 Y0.991
G1 X2.4984
G0 Z0.125
G0 X2.4015 Y1.0986
G0 Z0.0625
G1 F4.0 Z-0.02
G3 F8.0 X2.4005 Y1.1029 I-0.113 J-0.0247
G3 X2.4001 Y1.1043 I-0.0234 J-0.0061
G3 X2.399 Y1.1073 I-0.0543 J-0.0177
G3 X2.4015 Y1.1097 I-0.0153 J0.0187
G1 Y1.0986
G1 F4.0 X2.3972 Y1.0976
G3 F8.0 X2.3962 Y1.1018 I-0.1087 J-0.0237
G3 X2.3959 Y1.103 I-0.0192 J-0.005
G3 X2.3936 Y1.1088 I-0.0501 J-0.0163
G3 X2.4035 Y1.126 I-0.0099 J0.0171
G1 Y1.1313
G1 X2.4059
G1 Y0.9998
G1 X2.4002
G1 Y1.0575
G3 X2.3997 Y1.0782 I-0.3484 J0.0012
G3 X2.3972 Y1.0976 I-0.1112 J-0.0043
G1 F4.0 X2.3886 Y1.0957
G3 F8.0 X2.3877 Y1.0996 I-0.1001 J-0.0219
G3 X2.3875 Y1.1002 I-0.0106 J-0.0028
G3 X2.3777 Y1.1167 I-0.0417 J-0.0136
G3 X2.3947 Y1.126 I0.0059 J0.0093
G1 Y1.1401
G1 X2.4147
G1 Y0.991
G1 X2.3914
G1 Y1.0575
G3 X2.3909 Y1.0778 I-0.3396 J0.0012
G3 X2.3886 Y1.0957 I-0.1024 J-0.0039
G0 Z0.125
G0 X2.3207 Y1.1348
G0 Z0.0625
G1 F4.0 Z-0.02
G3 F8.0 X2.3164 Y1.1323 I0.0216 J-0.0411
G3 X2.3161 Y1.1321 I0.011 J-0.0164
G3 X2.2991 Y1.1093 I0.0255 J-0.0368
G3 X2.299 Y1.109 I0.0188 J-0.0062
G3 X2.2965 Y1.0963 I0.0608 J-0.0188
G3 X2.2956 Y1.0863 I0.1639 J-0.0182
G3 X2.2952 Y1.0673 I0.3674 J-0.0178
G1 Y0.9998
G1 X2.2895
G1 Y1.0863
G1 Y1.0864
G2 X2.29 Y1.1004 I0.2042 J0.0007
G3 Y1.1005 I-0.0198 J0.0013
G2 X2.2916 Y1.1125 I0.0749 J-0.0043
G2 X2.2967 Y1.1236 I0.0279 J-0.0062
G2 X2.3071 Y1.1311 I0.0195 J-0.016
G3 X2.3077 Y1.1313 I-0.0072 J0.0184
G2 X2.3207 Y1.1348 I0.0187 J-0.0435
G1 F4.0 X2.3196 Y1.1436
G3 F8.0 X2.3042 Y1.1394 I0.0068 J-0.0558
G2 X2.3039 Y1.1393 I-0.0044 J0.0101
G3 X2.2898 Y1.129 I0.0124 J-0.0317
G3 X2.2831 Y1.1144 I0.0297 J-0.0227
G3 X2.2812 Y1.101 I0.0818 J-0.0182
G1 Y1.1009
G3 X2.2807 Y1.0864 I0.2126 J-0.0139
G1 Y1.0863
G1 Y0.991
G1 X2.304
G1 Y1.0673
G2 X2.3044 Y1.0858 I0.3591 J0.0012
G1 Y1.0859
G2 X2.3052 Y1.0954 I0.1559 J-0.0077
G2 X2.3074 Y1.1064 I0.0546 J-0.0053
G2 X2.3075 Y1.1065 I0.0105 J-0.0033
G2 X2.3212 Y1.1249 I0.0342 J-0.0113
G2 X2.3213 Y1.125 I0.0063 J-0.009
G2 X2.3431 Y1.1313 I0.021 J-0.0313
G2 X2.3704 Y1.123 I0.0004 J-0.0473
G2 X2.3746 Y1.1197 I-0.0246 J-0.0364
G3 X2.3538 Y1.1377 I-0.0524 J-0.0396
G3 X2.3274 Y1.144 I-0.0258 J-0.0496
G2 X2.3271 I-0.0001 J0.011
G3 X2.3196 Y1.1436 I-0.0007 J-0.0562
G0 Z0.125
G0 X2.2088 Y1.1022
G0 Z0.0625
G1 F4.0 Z-0.02
G2 F8.0 X2.2106 Y1.0963 I-0.0513 J-0.0191
G1 Y1.0962
G2 X2.2142 Y1.0665 I-0.1115 J-0.0283
G3 Y1.066 I0.0198 J-0.0002
G2 X2.2104 Y1.0362 I-0.1097 J-0.0013
G2 X2.198 Y1.0128 I-0.0577 J0.0155
G2 X2.1817 Y1.0001 I-0.0398 J0.0346
G2 X2.1726 Y0.997 I-0.0188 J0.0397
G3 X2.1772 Y0.9994 I-0.0224 J0.0491
G3 X2.1777 Y0.9997 I-0.0099 J0.0171
G3 X2.1972 Y1.0196 I-0.0305 J0.0494
G3 X2.1974 Y1.02 I-0.017 J0.01
G3 X2.206 Y1.0464 I-0.0633 J0.0351
G3 X2.2075 Y1.0692 I-0.1568 J0.0217
G3 X2.2049 Y1.0936 I-0.1062 J0.001
G3 X2.1924 Y1.1198 I-0.0618 J-0.0134
G3 X2.1763 Y1.1334 I-0.0422 J-0.0337
G2 X2.1986 Y1.1192 I-0.0129 J-0.045
G2 X2.2088 Y1.1022 I-0.0412 J-0.0361
G0 Z0.125
G0 X2.0972 Y1.1121
G0 Z0.0625
G1 F4.0 Z-0.02
G3 F8.0 X2.0911 Y1.096 I0.0624 J-0.0327
G1 Y1.1193
G3 X2.0972 Y1.1121 I0.0211 J0.0119
G0 Z0.125
G0 X2.0911 Y1.0365
G0 Z0.0625
G1 F4.0 Z-0.02
G3 F8.0 X2.095 Y1.025 I0.0684 J0.0171
G3 X2.0911 Y1.0215 I0.0139 J-0.0198
G1 Y1.0365
G1 F4.0 X2.0867
G1 F8.0 Y1.1964
G1 X2.0923
G1 Y1.1311
G3 X2.103 Y1.1136 I0.0198 J0.0
G3 X2.0944 Y1.0904 I0.0565 J-0.0342
G3 X2.0922 Y1.0649 I0.1312 J-0.0242
G3 X2.0948 Y1.0399 I0.1119 J-0.001
G3 X2.1008 Y1.0232 I0.0647 J0.0137
G3 X2.0891 Y1.0051 I0.0081 J-0.018
G1 Y0.9998
G1 X2.0867
G1 Y1.0365
G1 F4.0 X2.0779
G1 F8.0 Y1.2052
G1 X2.1011
G1 Y1.1311
G3 X2.1205 Y1.124 I0.011 J0.0
G2 X2.1392 Y1.1388 I0.0471 J-0.0402
G2 X2.1617 Y1.144 I0.0221 J-0.0447
G3 X2.162 I0.0001 J0.011
G2 X2.2052 Y1.125 I0.0013 J-0.0556
G2 X2.2191 Y1.0985 I-0.0478 J-0.0419
G1 X2.2192 Y1.0984
G2 X2.223 Y1.0663 I-0.1201 J-0.0305
G3 Y1.0661 I0.011 J-0.0001
G2 X2.2189 Y1.0339 I-0.1185 J-0.0014
G2 X2.2047 Y1.007 I-0.0662 J0.0177
G2 X2.1856 Y0.9922 I-0.0465 J0.0403
G2 X2.1625 Y0.9871 I-0.0226 J0.0477
G2 X2.1388 Y0.993 I0.0004 J0.0526
G2 X2.118 Y1.0114 I0.0266 J0.0511
G3 X2.0979 Y1.0051 I-0.0091 J-0.0062
G1 Y0.991
G1 X2.0779
G1 Y1.0365
G0 Z0.125
G0 X2.1033 Y1.042
G0 Z0.0625
G1 F4.0 Z-0.02
G3 F8.0 X2.1034 Y1.0418 I0.1008 J0.0219
G3 X2.1142 Y1.0184 I0.0561 J0.0118
G3 X2.1494 Y1.0009 I0.0353 J0.0269
G3 X2.1728 Y1.007 I0.0007 J0.0452
G3 X2.1731 Y1.0072 I-0.0055 J0.0095
G3 X2.1896 Y1.024 I-0.0259 J0.0419
G3 X2.1898 Y1.0243 I-0.0095 J0.0056
G3 X2.1973 Y1.0476 I-0.0556 J0.0309
G3 X2.1987 Y1.0692 I-0.1481 J0.0206
G3 X2.1964 Y1.0917 I-0.0974 J0.001
G3 X2.1855 Y1.1143 I-0.0532 J-0.0115
G3 X2.1499 Y1.1313 I-0.0353 J-0.0282
G3 X2.1139 Y1.114 I-0.0007 J-0.0446
G3 X2.1138 Y1.1139 I0.0087 J-0.0067
G3 X2.1031 Y1.0889 I0.0457 J-0.0345
G3 X2.101 Y1.0649 I0.1226 J-0.0227
G3 X2.1033 Y1.042 I0.1031 J-0.001
G0 Z0.125
G0 X2.0024
G0 Z0.0625
G1 F4.0 Z-0.02
G1 F8.0 Y0.9998
G1 X1.9968
G1 Y1.1313
G1 X2.0024
G1 Y1.042
G1 F4.0 X2.0112
G1 F8.0 Y0.991
G1 X1.988
G1 Y1.1401
G1 X2.0112
G1 Y1.042
G0 Z0.125
G0 X1.9117
G0 Z0.0625
G1 F4.0 Z-0.02
G2 F8.0 X1.9107 Y1.0262 I-0.1228 J0.0
G3 Y1.026 I0.0196 J-0.0025
G2 X1.9072 Y1.0129 I-0.0493 J0.0059
G2 X1.8963 Y1.0012 I-0.0227 J0.0103
G3 X1.8962 Y1.0011 I0.0093 J-0.0175
G2 X1.8814 Y0.9963 I-0.0205 J0.0379
G3 X1.8855 Y0.9987 I-0.0224 J0.0428
G3 X1.8863 Y0.9993 I-0.0109 J0.0165
G3 X1.9028 Y1.0224 I-0.0263 J0.0362
G3 X1.9031 Y1.0237 I-0.0189 J0.0058
G3 X1.9051 Y1.0379 I-0.0818 J0.0188
G3 X1.9057 Y1.0497 I-0.2911 J0.0206
G3 X1.906 Y1.0725 I-0.7145 J0.0213
G1 Y1.1313
G1 X1.9117
G1 Y1.0428
G3 Y1.0427 I0.0198 J0.0
G2 Y1.042 I-0.1228 J-0.0008
G1 F4.0 X1.9205
G2 F8.0 X1.9194 Y1.025 I-0.1316 J0.0
G3 Y1.0249 I0.0109 J-0.0014
G2 X1.9153 Y1.0093 I-0.0581 J0.007
G2 X1.9004 Y0.9934 I-0.0308 J0.0138
G1 X1.9003
G2 X1.8748 Y0.9871 I-0.0247 J0.0457
G3 X1.8746 I-0.0002 J-0.011
G2 X1.8477 Y0.9938 I-0.0001 J0.0574
G3 X1.8475 I-0.0051 J-0.0097
G2 X1.8289 Y1.0092 I0.0247 J0.0489
G3 X1.8309 Y1.0078 I0.0265 J0.0351
G3 X1.8577 Y0.9996 I0.0265 J0.0388
G3 X1.8807 Y1.0061 I0.0012 J0.0395
G3 X1.8811 Y1.0064 I-0.006 J0.0092
G3 X1.8943 Y1.025 I-0.0212 J0.0291
G3 X1.8945 Y1.0257 I-0.0105 J0.0032
G3 X1.8963 Y1.0385 I-0.0733 J0.0169
G3 X1.8969 Y1.05 I-0.2823 J0.02
G3 X1.8972 Y1.0725 I-0.7057 J0.0211
G1 Y1.1401
G1 X1.9205
G1 Y1.0428
G2 Y1.042 I-0.1316 J-0.0008
G0 Z0.125
G0 X1.802 Y1.0238
G0 Z0.0625
G1 F4.0 Z-0.02
G3 F8.0 X1.8001 Y1.022 I0.0159 J-0.0182
G1 Y1.0306
G3 X1.8013 Y1.0259 I0.0784 J0.0179
G3 X1.8019 Y1.0241 I0.0232 J0.0068
G3 X1.802 Y1.0238 I0.0534 J0.0202
G1 F4.0 X1.8061 Y1.0254
G3 F8.0 X1.8074 Y1.0224 I0.0492 J0.0189
G3 X1.7981 Y1.0056 I0.0105 J-0.0168
G1 Y0.9998
G1 X1.7957
G1 Y1.1313
G1 X1.8013
G1 Y1.079
G3 X1.8027 Y1.0425 I0.3969 J-0.0037
G3 X1.8055 Y1.0271 I0.0758 J0.006
G3 X1.806 Y1.0257 I0.019 J0.0056
G3 X1.8061 Y1.0254 I0.0493 J0.0186
G1 F4.0 X1.8143 Y1.0286
G2 F8.0 X1.8142 Y1.0288 I0.041 J0.0157
G2 X1.814 Y1.0296 I0.0103 J0.0039
G2 X1.8115 Y1.0432 I0.0645 J0.019
G2 X1.8101 Y1.079 I0.3868 J0.032
G1 Y1.1401
G1 X1.7869
G1 Y0.991
G1 X1.8069
G1 Y1.0056
G2 X1.8218 Y1.0159 I0.011 J0.0
G2 X1.8143 Y1.0286 I0.0335 J0.0284
G0 Z0.125
G0 X1.7082 Y1.0999
G0 Z0.0625
G1 F4.0 Z-0.02
G3 F8.0 X1.7068 Y1.1051 I-0.1003 J-0.0232
G3 X1.7066 Y1.1058 I-0.0233 J-0.0067
G3 X1.7056 Y1.1087 I-0.0529 J-0.017
G3 X1.7082 Y1.1111 I-0.0149 J0.019
G1 Y1.0999
G1 F4.0 X1.7126
G1 F8.0 Y0.9998
G1 X1.7069
G1 Y1.0631
G3 X1.7063 Y1.0821 I-0.2583 J0.001
G3 X1.7026 Y1.1039 I-0.0984 J-0.0055
G3 X1.7024 Y1.1045 I-0.019 J-0.0055
G3 X1.7001 Y1.1104 I-0.0488 J-0.0156
G3 X1.7104 Y1.1278 I-0.0095 J0.0174
G1 Y1.1313
G1 X1.7126
G1 Y1.0999
G0 Z0.125
G0 X1.6082 Y1.1131
G0 Z0.0625
G1 F4.0 Z-0.02
G3 F8.0 X1.6081 Y1.1128 I0.0428 J-0.0128
G3 Y1.1127 I0.0232 J-0.0068
G3 X1.6058 Y1.1004 I0.064 J-0.0183
G3 X1.6053 Y1.0954 I0.1633 J-0.0168
G3 X1.6031 Y1.1043 I-0.1015 J-0.0203
G3 X1.6021 Y1.1075 I-0.0542 J-0.0159
G3 X1.6082 Y1.1131 I-0.0132 J0.0203
G1 F4.0 X1.6047 Y1.1157
G3 F8.0 X1.6064 Y1.1184 I-0.0157 J0.012
G2 X1.6184 Y1.1309 I0.0285 J-0.0153
G2 X1.6305 Y1.1348 I0.0175 J-0.0336
G3 X1.6284 Y1.1336 I0.0209 J-0.0381
G3 X1.6272 Y1.1328 I0.0105 J-0.0168
G3 X1.6123 Y1.1116 I0.0238 J-0.0325
G3 Y1.1115 I0.019 J-0.0056
G3 X1.6101 Y1.0999 I0.0598 J-0.0171
G3 X1.6095 Y1.0909 I0.159 J-0.0164
G1 Y1.0908
G3 X1.6091 Y1.0738 I0.3605 J-0.0161
G1 Y0.9998
G1 X1.6034
G1 Y1.0621
G3 X1.6028 Y1.0813 I-0.242 J0.001
G3 X1.5989 Y1.103 I-0.0989 J-0.0062
G1 Y1.1031
G1 Y1.103
G3 X1.5966 Y1.1095 I-0.05 J-0.0147
G3 X1.6047 Y1.1157 I-0.0076 J0.0183
G0 Z0.125
G0 X1.5277 Y1.1345
G0 Z0.0625
G1 F4.0 Z-0.02
G3 F8.0 X1.5141 Y1.1215 I0.0209 J-0.0357
G3 X1.5133 Y1.1203 I0.0166 J-0.0109
G3 X1.5084 Y1.1065 I0.0395 J-0.022
G3 X1.5069 Y1.0962 I0.0941 J-0.0187
G3 X1.5061 Y1.0778 I0.2005 J-0.0173
G1 Y0.9998
G1 X1.5005
G1 Y1.0894
G3 Y1.0895 I-0.0198 J0.0
G2 X1.5012 Y1.1055 I0.1601 J0.0009
G3 Y1.1058 I-0.0197 J0.0019
G2 X1.5038 Y1.1176 I0.0437 J-0.0033
G2 X1.5148 Y1.1302 I0.0245 J-0.0105
G2 X1.5245 Y1.1339 I0.0167 J-0.0287
G2 X1.5277 Y1.1345 I0.0117 J-0.0538
G1 F4.0 X1.5322 Y1.1269
G3 F8.0 X1.5214 Y1.1167 I0.0164 J-0.0281
G3 X1.521 Y1.116 I0.0092 J-0.006
G3 X1.517 Y1.1048 I0.0318 J-0.0177
G3 X1.5157 Y1.0955 I0.0855 J-0.0171
G1 Y1.0954
G3 X1.5149 Y1.0778 I0.1918 J-0.0165
G1 Y0.991
G1 X1.4917
G1 Y1.0894
G1 Y1.0895
G2 X1.4924 Y1.1063 I0.1689 J0.0009
G3 Y1.1065 I-0.011 J0.001
G2 X1.4956 Y1.1208 I0.0525 J-0.004
G2 X1.5104 Y1.1378 I0.0327 J-0.0137
G2 X1.5226 Y1.1425 I0.0212 J-0.0362
G2 X1.5367 Y1.144 I0.0136 J-0.0624
G3 X1.5368 I0.0001 J0.011
G2 X1.5594 Y1.1385 I0.0002 J-0.0487
G2 X1.5803 Y1.1209 I-0.0328 J-0.0601
G3 X1.5986 Y1.1226 I0.0086 J0.0068
G2 X1.6141 Y1.1386 I0.0362 J-0.0194
G2 X1.637 Y1.144 I0.0218 J-0.0413
G3 X1.6374 I0.0003 J0.011
G2 X1.6619 Y1.138 I0.0004 J-0.0514
G2 X1.682 Y1.1209 I-0.033 J-0.0593
G3 X1.7016 Y1.1278 I0.0086 J0.0068
G1 Y1.1401
G1 X1.7214
G1 Y0.991
G1 X1.6981
G1 Y1.0631
G3 X1.6975 Y1.0816 I-0.2495 J0.001
G3 X1.6941 Y1.1015 I-0.0896 J-0.0049
G3 X1.694 Y1.1018 I-0.0106 J-0.003
G3 X1.6777 Y1.1238 I-0.0404 J-0.0129
G3 X1.6776 I-0.0062 J-0.0091
G3 X1.6528 Y1.1313 I-0.0246 J-0.0365
G3 X1.6331 Y1.1261 I-0.0014 J-0.0347
G3 X1.6324 Y1.1257 I0.0058 J-0.0093
G3 X1.6208 Y1.1091 I0.0186 J-0.0254
G1 Y1.109
G3 X1.6189 Y1.0991 I0.0513 J-0.0147
G3 X1.6183 Y1.0905 I0.1502 J-0.0155
G1 Y1.0904
G3 X1.6179 Y1.0738 I0.3517 J-0.0157
G1 Y0.991
G1 X1.5946
G1 Y1.0622
G3 X1.594 Y1.0807 I-0.2332 J0.001
G3 X1.5905 Y1.1006 I-0.0901 J-0.0056
G3 X1.5743 Y1.1235 I-0.0415 J-0.0122
G3 X1.5503 Y1.1313 I-0.0244 J-0.034
G3 X1.5322 Y1.1269 I-0.0017 J-0.0325
G0 Z0.125
G0 X1.9968 Y1.1941
G0 Z0.0625
G1 F4.0 Z-0.02
G1 F8.0 Y1.1964
G1 X2.0024
G1 Y1.1941
G1 X1.9968
G1 F4.0 X1.988
G1 F8.0 Y1.2052
G1 X2.0112
G1 Y1.1853
G1 X1.988
G1 Y1.1941
G0 Z0.125
M5
M30
