( Made using CamBam - http://www.cambam.co.uk )
( 050-tin 11/13/2013 10:38:06 AM )
( T0 : 0.0313 )
G20 G90 G91.1 G64 G40
G0 Z0.125
( T0 : 0.0313 )
T0 M6
( Pocket1 )
G17
M3 S10000
G0 X0.7531 Y2.75
G0 Z0.0625
G1 F4.0 Z-0.0313
G2 F8.0 X0.7484 Y2.7473 I-0.0031 J0.0
G2 Y2.7527 I0.0016 J0.0027
G2 X0.7531 Y2.75 I0.0016 J-0.0027
G1 F4.0 X0.7594
G2 F8.0 X0.7453 Y2.7419 I-0.0094 J0.0
G2 Y2.7581 I0.0047 J0.0081
G2 X0.7594 Y2.75 I0.0047 J-0.0081
G1 F4.0 X0.7719
G2 F8.0 X0.7391 Y2.7311 I-0.0219 J0.0
G2 Y2.7689 I0.0109 J0.0189
G2 X0.7719 Y2.75 I0.0109 J-0.0189
G1 F4.0 X0.7844
G2 F8.0 X0.7328 Y2.7202 I-0.0344 J0.0
G2 Y2.7798 I0.0172 J0.0298
G2 X0.7844 Y2.75 I0.0172 J-0.0298
G1 F4.0 X0.7969
G2 F8.0 X0.7266 Y2.7094 I-0.0469 J0.0
G2 Y2.7906 I0.0234 J0.0406
G2 X0.7969 Y2.75 I0.0234 J-0.0406
G0 Z0.125
G0 X0.7531
G0 Z0.0312
G1 F4.0 Z-0.0625
G2 F8.0 X0.7484 Y2.7473 I-0.0031 J0.0
G2 Y2.7527 I0.0016 J0.0027
G2 X0.7531 Y2.75 I0.0016 J-0.0027
G1 F4.0 X0.7594
G2 F8.0 X0.7453 Y2.7419 I-0.0094 J0.0
G2 Y2.7581 I0.0047 J0.0081
G2 X0.7594 Y2.75 I0.0047 J-0.0081
G1 F4.0 X0.7719
G2 F8.0 X0.7391 Y2.7311 I-0.0219 J0.0
G2 Y2.7689 I0.0109 J0.0189
G2 X0.7719 Y2.75 I0.0109 J-0.0189
G1 F4.0 X0.7844
G2 F8.0 X0.7328 Y2.7202 I-0.0344 J0.0
G2 Y2.7798 I0.0172 J0.0298
G2 X0.7844 Y2.75 I0.0172 J-0.0298
G1 F4.0 X0.7969
G2 F8.0 X0.7266 Y2.7094 I-0.0469 J0.0
G2 Y2.7906 I0.0234 J0.0406
G2 X0.7969 Y2.75 I0.0234 J-0.0406
G0 Z0.125
G0 X0.7531
G0 Z0.0
G1 F4.0 Z-0.0938
G2 F8.0 X0.7484 Y2.7473 I-0.0031 J0.0
G2 Y2.7527 I0.0016 J0.0027
G2 X0.7531 Y2.75 I0.0016 J-0.0027
G1 F4.0 X0.7594
G2 F8.0 X0.7453 Y2.7419 I-0.0094 J0.0
G2 Y2.7581 I0.0047 J0.0081
G2 X0.7594 Y2.75 I0.0047 J-0.0081
G1 F4.0 X0.7719
G2 F8.0 X0.7391 Y2.7311 I-0.0219 J0.0
G2 Y2.7689 I0.0109 J0.0189
G2 X0.7719 Y2.75 I0.0109 J-0.0189
G1 F4.0 X0.7844
G2 F8.0 X0.7328 Y2.7202 I-0.0344 J0.0
G2 Y2.7798 I0.0172 J0.0298
G2 X0.7844 Y2.75 I0.0172 J-0.0298
G1 F4.0 X0.7969
G2 F8.0 X0.7266 Y2.7094 I-0.0469 J0.0
G2 Y2.7906 I0.0234 J0.0406
G2 X0.7969 Y2.75 I0.0234 J-0.0406
G0 Z0.125
G0 X0.7531
G0 Z-0.0323
G1 F4.0 Z-0.126
G2 F8.0 X0.7484 Y2.7473 I-0.0031 J0.0
G2 Y2.7527 I0.0016 J0.0027
G2 X0.7531 Y2.75 I0.0016 J-0.0027
G1 F4.0 X0.7594
G2 F8.0 X0.7453 Y2.7419 I-0.0094 J0.0
G2 Y2.7581 I0.0047 J0.0081
G2 X0.7594 Y2.75 I0.0047 J-0.0081
G1 F4.0 X0.7719
G2 F8.0 X0.7391 Y2.7311 I-0.0219 J0.0
G2 Y2.7689 I0.0109 J0.0189
G2 X0.7719 Y2.75 I0.0109 J-0.0189
G1 F4.0 X0.7844
G2 F8.0 X0.7328 Y2.7202 I-0.0344 J0.0
G2 Y2.7798 I0.0172 J0.0298
G2 X0.7844 Y2.75 I0.0172 J-0.0298
G1 F4.0 X0.7969
G2 F8.0 X0.7266 Y2.7094 I-0.0469 J0.0
G2 Y2.7906 I0.0234 J0.0406
G2 X0.7969 Y2.75 I0.0234 J-0.0406
G0 Z0.125
G0 X3.2469
G0 Z0.0625
G1 F4.0 Z-0.0313
G2 F8.0 X3.2484 Y2.7527 I0.0031 J0.0
G2 X3.2531 Y2.75 I0.0016 J-0.0027
G2 X3.2484 Y2.7473 I-0.0031 J0.0
G2 X3.2469 Y2.75 I0.0016 J0.0027
G1 F4.0 X3.2406
G2 F8.0 X3.2453 Y2.7581 I0.0094 J0.0
G2 X3.2594 Y2.75 I0.0047 J-0.0081
G2 X3.2453 Y2.7419 I-0.0094 J0.0
G2 X3.2406 Y2.75 I0.0047 J0.0081
G1 F4.0 X3.2281
G2 F8.0 X3.2391 Y2.7689 I0.0219 J0.0
G2 X3.2719 Y2.75 I0.0109 J-0.0189
G2 X3.2391 Y2.7311 I-0.0219 J0.0
G2 X3.2281 Y2.75 I0.0109 J0.0189
G1 F4.0 X3.2156
G2 F8.0 X3.2328 Y2.7798 I0.0344 J0.0
G2 X3.2844 Y2.75 I0.0172 J-0.0298
G2 X3.2328 Y2.7202 I-0.0344 J0.0
G2 X3.2156 Y2.75 I0.0172 J0.0298
G1 F4.0 X3.2031
G2 F8.0 X3.2266 Y2.7906 I0.0469 J0.0
G2 X3.2969 Y2.75 I0.0234 J-0.0406
G2 X3.2266 Y2.7094 I-0.0469 J0.0
G2 X3.2031 Y2.75 I0.0234 J0.0406
G0 Z0.125
G0 X3.2469
G0 Z0.0312
G1 F4.0 Z-0.0625
G2 F8.0 X3.2484 Y2.7527 I0.0031 J0.0
G2 X3.2531 Y2.75 I0.0016 J-0.0027
G2 X3.2484 Y2.7473 I-0.0031 J0.0
G2 X3.2469 Y2.75 I0.0016 J0.0027
G1 F4.0 X3.2406
G2 F8.0 X3.2453 Y2.7581 I0.0094 J0.0
G2 X3.2594 Y2.75 I0.0047 J-0.0081
G2 X3.2453 Y2.7419 I-0.0094 J0.0
G2 X3.2406 Y2.75 I0.0047 J0.0081
G1 F4.0 X3.2281
G2 F8.0 X3.2391 Y2.7689 I0.0219 J0.0
G2 X3.2719 Y2.75 I0.0109 J-0.0189
G2 X3.2391 Y2.7311 I-0.0219 J0.0
G2 X3.2281 Y2.75 I0.0109 J0.0189
G1 F4.0 X3.2156
G2 F8.0 X3.2328 Y2.7798 I0.0344 J0.0
G2 X3.2844 Y2.75 I0.0172 J-0.0298
G2 X3.2328 Y2.7202 I-0.0344 J0.0
G2 X3.2156 Y2.75 I0.0172 J0.0298
G1 F4.0 X3.2031
G2 F8.0 X3.2266 Y2.7906 I0.0469 J0.0
G2 X3.2969 Y2.75 I0.0234 J-0.0406
G2 X3.2266 Y2.7094 I-0.0469 J0.0
G2 X3.2031 Y2.75 I0.0234 J0.0406
G0 Z0.125
G0 X3.2469
G0 Z0.0
G1 F4.0 Z-0.0938
G2 F8.0 X3.2484 Y2.7527 I0.0031 J0.0
G2 X3.2531 Y2.75 I0.0016 J-0.0027
G2 X3.2484 Y2.7473 I-0.0031 J0.0
G2 X3.2469 Y2.75 I0.0016 J0.0027
G1 F4.0 X3.2406
G2 F8.0 X3.2453 Y2.7581 I0.0094 J0.0
G2 X3.2594 Y2.75 I0.0047 J-0.0081
G2 X3.2453 Y2.7419 I-0.0094 J0.0
G2 X3.2406 Y2.75 I0.0047 J0.0081
G1 F4.0 X3.2281
G2 F8.0 X3.2391 Y2.7689 I0.0219 J0.0
G2 X3.2719 Y2.75 I0.0109 J-0.0189
G2 X3.2391 Y2.7311 I-0.0219 J0.0
G2 X3.2281 Y2.75 I0.0109 J0.0189
G1 F4.0 X3.2156
G2 F8.0 X3.2328 Y2.7798 I0.0344 J0.0
G2 X3.2844 Y2.75 I0.0172 J-0.0298
G2 X3.2328 Y2.7202 I-0.0344 J0.0
G2 X3.2156 Y2.75 I0.0172 J0.0298
G1 F4.0 X3.2031
G2 F8.0 X3.2266 Y2.7906 I0.0469 J0.0
G2 X3.2969 Y2.75 I0.0234 J-0.0406
G2 X3.2266 Y2.7094 I-0.0469 J0.0
G2 X3.2031 Y2.75 I0.0234 J0.0406
G0 Z0.125
G0 X3.2469
G0 Z-0.0323
G1 F4.0 Z-0.126
G2 F8.0 X3.2484 Y2.7527 I0.0031 J0.0
G2 X3.2531 Y2.75 I0.0016 J-0.0027
G2 X3.2484 Y2.7473 I-0.0031 J0.0
G2 X3.2469 Y2.75 I0.0016 J0.0027
G1 F4.0 X3.2406
G2 F8.0 X3.2453 Y2.7581 I0.0094 J0.0
G2 X3.2594 Y2.75 I0.0047 J-0.0081
G2 X3.2453 Y2.7419 I-0.0094 J0.0
G2 X3.2406 Y2.75 I0.0047 J0.0081
G1 F4.0 X3.2281
G2 F8.0 X3.2391 Y2.7689 I0.0219 J0.0
G2 X3.2719 Y2.75 I0.0109 J-0.0189
G2 X3.2391 Y2.7311 I-0.0219 J0.0
G2 X3.2281 Y2.75 I0.0109 J0.0189
G1 F4.0 X3.2156
G2 F8.0 X3.2328 Y2.7798 I0.0344 J0.0
G2 X3.2844 Y2.75 I0.0172 J-0.0298
G2 X3.2328 Y2.7202 I-0.0344 J0.0
G2 X3.2156 Y2.75 I0.0172 J0.0298
G1 F4.0 X3.2031
G2 F8.0 X3.2266 Y2.7906 I0.0469 J0.0
G2 X3.2969 Y2.75 I0.0234 J-0.0406
G2 X3.2266 Y2.7094 I-0.0469 J0.0
G2 X3.2031 Y2.75 I0.0234 J0.0406
G0 Z0.125
G0 X3.2499 Y0.2531
G0 Z0.0625
G1 F4.0 Z-0.0313
G2 F8.0 X3.2531 Y0.25 I0.0001 J-0.0031
G2 X3.2484 Y0.2473 I-0.0031 J0.0
G2 Y0.2527 I0.0016 J0.0027
G2 X3.2499 Y0.2531 I0.0016 J-0.0027
G1 F4.0 X3.2498 Y0.2594
G2 F8.0 X3.2594 Y0.25 I0.0002 J-0.0094
G2 X3.2453 Y0.2419 I-0.0094 J0.0
G2 Y0.2581 I0.0047 J0.0081
G2 X3.2498 Y0.2594 I0.0047 J-0.0081
G1 F4.0 X3.2496 Y0.2719
G2 F8.0 X3.2719 Y0.25 I0.0004 J-0.0219
G2 X3.2391 Y0.2311 I-0.0219 J0.0
G2 Y0.2689 I0.0109 J0.0189
G2 X3.2496 Y0.2719 I0.0109 J-0.0189
G1 F4.0 X3.2494 Y0.2844
G2 F8.0 X3.2844 Y0.25 I0.0006 J-0.0344
G2 X3.2328 Y0.2202 I-0.0344 J0.0
G2 Y0.2798 I0.0172 J0.0298
G2 X3.2494 Y0.2844 I0.0172 J-0.0298
G1 F4.0 X3.2491 Y0.2969
G2 F8.0 X3.2969 Y0.25 I0.0009 J-0.0469
G2 X3.2266 Y0.2094 I-0.0469 J0.0
G2 Y0.2906 I0.0234 J0.0406
G2 X3.2491 Y0.2969 I0.0234 J-0.0406
G0 Z0.125
G0 X3.2499 Y0.2531
G0 Z0.0312
G1 F4.0 Z-0.0625
G2 F8.0 X3.2531 Y0.25 I0.0001 J-0.0031
G2 X3.2484 Y0.2473 I-0.0031 J0.0
G2 Y0.2527 I0.0016 J0.0027
G2 X3.2499 Y0.2531 I0.0016 J-0.0027
G1 F4.0 X3.2498 Y0.2594
G2 F8.0 X3.2594 Y0.25 I0.0002 J-0.0094
G2 X3.2453 Y0.2419 I-0.0094 J0.0
G2 Y0.2581 I0.0047 J0.0081
G2 X3.2498 Y0.2594 I0.0047 J-0.0081
G1 F4.0 X3.2496 Y0.2719
G2 F8.0 X3.2719 Y0.25 I0.0004 J-0.0219
G2 X3.2391 Y0.2311 I-0.0219 J0.0
G2 Y0.2689 I0.0109 J0.0189
G2 X3.2496 Y0.2719 I0.0109 J-0.0189
G1 F4.0 X3.2494 Y0.2844
G2 F8.0 X3.2844 Y0.25 I0.0006 J-0.0344
G2 X3.2328 Y0.2202 I-0.0344 J0.0
G2 Y0.2798 I0.0172 J0.0298
G2 X3.2494 Y0.2844 I0.0172 J-0.0298
G1 F4.0 X3.2491 Y0.2969
G2 F8.0 X3.2969 Y0.25 I0.0009 J-0.0469
G2 X3.2266 Y0.2094 I-0.0469 J0.0
G2 Y0.2906 I0.0234 J0.0406
G2 X3.2491 Y0.2969 I0.0234 J-0.0406
G0 Z0.125
G0 X3.2499 Y0.2531
G0 Z0.0
G1 F4.0 Z-0.0938
G2 F8.0 X3.2531 Y0.25 I0.0001 J-0.0031
G2 X3.2484 Y0.2473 I-0.0031 J0.0
G2 Y0.2527 I0.0016 J0.0027
G2 X3.2499 Y0.2531 I0.0016 J-0.0027
G1 F4.0 X3.2498 Y0.2594
G2 F8.0 X3.2594 Y0.25 I0.0002 J-0.0094
G2 X3.2453 Y0.2419 I-0.0094 J0.0
G2 Y0.2581 I0.0047 J0.0081
G2 X3.2498 Y0.2594 I0.0047 J-0.0081
G1 F4.0 X3.2496 Y0.2719
G2 F8.0 X3.2719 Y0.25 I0.0004 J-0.0219
G2 X3.2391 Y0.2311 I-0.0219 J0.0
G2 Y0.2689 I0.0109 J0.0189
G2 X3.2496 Y0.2719 I0.0109 J-0.0189
G1 F4.0 X3.2494 Y0.2844
G2 F8.0 X3.2844 Y0.25 I0.0006 J-0.0344
G2 X3.2328 Y0.2202 I-0.0344 J0.0
G2 Y0.2798 I0.0172 J0.0298
G2 X3.2494 Y0.2844 I0.0172 J-0.0298
G1 F4.0 X3.2491 Y0.2969
G2 F8.0 X3.2969 Y0.25 I0.0009 J-0.0469
G2 X3.2266 Y0.2094 I-0.0469 J0.0
G2 Y0.2906 I0.0234 J0.0406
G2 X3.2491 Y0.2969 I0.0234 J-0.0406
G0 Z0.125
G0 X3.2499 Y0.2531
G0 Z-0.0323
G1 F4.0 Z-0.126
G2 F8.0 X3.2531 Y0.25 I0.0001 J-0.0031
G2 X3.2484 Y0.2473 I-0.0031 J0.0
G2 Y0.2527 I0.0016 J0.0027
G2 X3.2499 Y0.2531 I0.0016 J-0.0027
G1 F4.0 X3.2498 Y0.2594
G2 F8.0 X3.2594 Y0.25 I0.0002 J-0.0094
G2 X3.2453 Y0.2419 I-0.0094 J0.0
G2 Y0.2581 I0.0047 J0.0081
G2 X3.2498 Y0.2594 I0.0047 J-0.0081
G1 F4.0 X3.2496 Y0.2719
G2 F8.0 X3.2719 Y0.25 I0.0004 J-0.0219
G2 X3.2391 Y0.2311 I-0.0219 J0.0
G2 Y0.2689 I0.0109 J0.0189
G2 X3.2496 Y0.2719 I0.0109 J-0.0189
G1 F4.0 X3.2494 Y0.2844
G2 F8.0 X3.2844 Y0.25 I0.0006 J-0.0344
G2 X3.2328 Y0.2202 I-0.0344 J0.0
G2 Y0.2798 I0.0172 J0.0298
G2 X3.2494 Y0.2844 I0.0172 J-0.0298
G1 F4.0 X3.2491 Y0.2969
G2 F8.0 X3.2969 Y0.25 I0.0009 J-0.0469
G2 X3.2266 Y0.2094 I-0.0469 J0.0
G2 Y0.2906 I0.0234 J0.0406
G2 X3.2491 Y0.2969 I0.0234 J-0.0406
G0 Z0.125
G0 X0.7531 Y0.2501
G0 Z0.0625
G1 F4.0 Z-0.0313
G1 F8.0 Y0.25
G2 X0.7484 Y0.2473 I-0.0031 J0.0
G2 Y0.2527 I0.0016 J0.0027
G2 X0.7531 Y0.2501 I0.0016 J-0.0027
G1 F4.0 X0.7594 Y0.2502
G2 F8.0 Y0.25 I-0.0094 J-0.0002
G2 X0.7453 Y0.2419 I-0.0094 J0.0
G2 Y0.2581 I0.0047 J0.0081
G2 X0.7594 Y0.2502 I0.0047 J-0.0081
G1 F4.0 X0.7719 Y0.2504
G2 F8.0 Y0.25 I-0.0219 J-0.0004
G2 X0.7391 Y0.2311 I-0.0219 J0.0
G2 Y0.2689 I0.0109 J0.0189
G2 X0.7719 Y0.2504 I0.0109 J-0.0189
G1 F4.0 X0.7844 Y0.2506
G2 F8.0 Y0.25 I-0.0344 J-0.0006
G2 X0.7328 Y0.2202 I-0.0344 J0.0
G2 Y0.2798 I0.0172 J0.0298
G2 X0.7844 Y0.2506 I0.0172 J-0.0298
G1 F4.0 X0.7969 Y0.2509
G2 F8.0 Y0.25 I-0.0469 J-0.0009
G2 X0.7266 Y0.2094 I-0.0469 J0.0
G2 Y0.2906 I0.0234 J0.0406
G2 X0.7969 Y0.2509 I0.0234 J-0.0406
G0 Z0.125
G0 X0.7531 Y0.2501
G0 Z0.0312
G1 F4.0 Z-0.0625
G1 F8.0 Y0.25
G2 X0.7484 Y0.2473 I-0.0031 J0.0
G2 Y0.2527 I0.0016 J0.0027
G2 X0.7531 Y0.2501 I0.0016 J-0.0027
G1 F4.0 X0.7594 Y0.2502
G2 F8.0 Y0.25 I-0.0094 J-0.0002
G2 X0.7453 Y0.2419 I-0.0094 J0.0
G2 Y0.2581 I0.0047 J0.0081
G2 X0.7594 Y0.2502 I0.0047 J-0.0081
G1 F4.0 X0.7719 Y0.2504
G2 F8.0 Y0.25 I-0.0219 J-0.0004
G2 X0.7391 Y0.2311 I-0.0219 J0.0
G2 Y0.2689 I0.0109 J0.0189
G2 X0.7719 Y0.2504 I0.0109 J-0.0189
G1 F4.0 X0.7844 Y0.2506
G2 F8.0 Y0.25 I-0.0344 J-0.0006
G2 X0.7328 Y0.2202 I-0.0344 J0.0
G2 Y0.2798 I0.0172 J0.0298
G2 X0.7844 Y0.2506 I0.0172 J-0.0298
G1 F4.0 X0.7969 Y0.2509
G2 F8.0 Y0.25 I-0.0469 J-0.0009
G2 X0.7266 Y0.2094 I-0.0469 J0.0
G2 Y0.2906 I0.0234 J0.0406
G2 X0.7969 Y0.2509 I0.0234 J-0.0406
G0 Z0.125
G0 X0.7531 Y0.2501
G0 Z0.0
G1 F4.0 Z-0.0938
G1 F8.0 Y0.25
G2 X0.7484 Y0.2473 I-0.0031 J0.0
G2 Y0.2527 I0.0016 J0.0027
G2 X0.7531 Y0.2501 I0.0016 J-0.0027
G1 F4.0 X0.7594 Y0.2502
G2 F8.0 Y0.25 I-0.0094 J-0.0002
G2 X0.7453 Y0.2419 I-0.0094 J0.0
G2 Y0.2581 I0.0047 J0.0081
G2 X0.7594 Y0.2502 I0.0047 J-0.0081
G1 F4.0 X0.7719 Y0.2504
G2 F8.0 Y0.25 I-0.0219 J-0.0004
G2 X0.7391 Y0.2311 I-0.0219 J0.0
G2 Y0.2689 I0.0109 J0.0189
G2 X0.7719 Y0.2504 I0.0109 J-0.0189
G1 F4.0 X0.7844 Y0.2506
G2 F8.0 Y0.25 I-0.0344 J-0.0006
G2 X0.7328 Y0.2202 I-0.0344 J0.0
G2 Y0.2798 I0.0172 J0.0298
G2 X0.7844 Y0.2506 I0.0172 J-0.0298
G1 F4.0 X0.7969 Y0.2509
G2 F8.0 Y0.25 I-0.0469 J-0.0009
G2 X0.7266 Y0.2094 I-0.0469 J0.0
G2 Y0.2906 I0.0234 J0.0406
G2 X0.7969 Y0.2509 I0.0234 J-0.0406
G0 Z0.125
G0 X0.7531 Y0.2501
G0 Z-0.0323
G1 F4.0 Z-0.126
G1 F8.0 Y0.25
G2 X0.7484 Y0.2473 I-0.0031 J0.0
G2 Y0.2527 I0.0016 J0.0027
G2 X0.7531 Y0.2501 I0.0016 J-0.0027
G1 F4.0 X0.7594 Y0.2502
G2 F8.0 Y0.25 I-0.0094 J-0.0002
G2 X0.7453 Y0.2419 I-0.0094 J0.0
G2 Y0.2581 I0.0047 J0.0081
G2 X0.7594 Y0.2502 I0.0047 J-0.0081
G1 F4.0 X0.7719 Y0.2504
G2 F8.0 Y0.25 I-0.0219 J-0.0004
G2 X0.7391 Y0.2311 I-0.0219 J0.0
G2 Y0.2689 I0.0109 J0.0189
G2 X0.7719 Y0.2504 I0.0109 J-0.0189
G1 F4.0 X0.7844 Y0.2506
G2 F8.0 Y0.25 I-0.0344 J-0.0006
G2 X0.7328 Y0.2202 I-0.0344 J0.0
G2 Y0.2798 I0.0172 J0.0298
G2 X0.7844 Y0.2506 I0.0172 J-0.0298
G1 F4.0 X0.7969 Y0.2509
G2 F8.0 Y0.25 I-0.0469 J-0.0009
G2 X0.7266 Y0.2094 I-0.0469 J0.0
G2 Y0.2906 I0.0234 J0.0406
G2 X0.7969 Y0.2509 I0.0234 J-0.0406
( Pocket3 )
S10000
G0 Z0.125
G0 X1.0719 Y0.5719
G0 Z0.0625
G1 F4.0 Z-0.02
G1 F8.0 Y0.5766
G3 X1.0766 Y0.5719 I0.0531 J0.0484
G1 X1.0719
G1 F4.0 X1.0656
G1 F8.0 Y0.5971
G3 X1.0971 Y0.5656 I0.0594 J0.0279
G1 X1.0656
G1 Y0.5719
G0 Z0.125
G0 X1.856 Y1.3906
G0 Z0.0625
G1 F4.0 Z-0.02
G3 F8.0 X1.8598 Y1.4037 I-0.056 J0.0235
G3 X1.8601 Y1.4055 I-0.0963 J0.0182
G3 X1.8644 Y1.3906 I0.0562 J0.0081
G1 X1.856
G0 Z0.125
G0 X1.8596 Y1.5852
G0 Z0.0625
G1 F4.0 Z-0.02
G3 F8.0 X1.8543 Y1.6109 I-0.2033 J-0.0283
G1 Y1.611
G3 X1.8507 Y1.6224 I-0.1464 J-0.0403
G3 X1.8596 Y1.6342 I-0.0274 J0.03
G1 Y1.5852
G0 Z0.125
G0 X1.866 Y1.679
G0 Z0.0625
G1 F4.0 Z-0.02
G2 F8.0 X1.8672 Y1.6889 I0.4328 J-0.0473
G1 X1.8709 Y1.6886
G3 X1.866 Y1.679 I0.061 J-0.0372
G1 F4.0 X1.8536 Y1.6804
G2 F8.0 X1.8565 Y1.702 I0.4452 J-0.0486
G1 X1.8978 Y1.6995
G3 X1.8915 Y1.6944 I0.0354 J-0.0498
G3 X1.8914 Y1.6943 I0.0192 J-0.0206
G3 X1.8754 Y1.6684 I0.0404 J-0.0429
G3 X1.8721 Y1.6443 I0.077 J-0.023
G1 Y1.4133
G3 Y1.4127 I0.0281 J0.0
G3 X1.8898 Y1.3781 I0.0443 J0.0009
G1 X1.8318
G3 X1.8351 Y1.3811 I-0.0172 J0.0223
G3 X1.8475 Y1.406 I-0.0351 J0.033
G3 X1.849 Y1.4228 I-0.084 J0.016
G1 Y1.5549
G3 X1.8422 Y1.6076 I-0.1927 J0.0019
G3 X1.8353 Y1.627 I-0.1343 J-0.037
G3 X1.8513 Y1.6511 I-0.0121 J0.0254
G2 X1.8536 Y1.6804 I0.4474 J-0.0194
G1 F4.0 X1.8411 Y1.6817
G3 F8.0 X1.8389 Y1.6517 I0.4576 J-0.05
G2 X1.8145 Y1.6394 I-0.0156 J0.0007
G2 X1.8302 Y1.6043 I-0.1066 J-0.0687
G2 X1.8365 Y1.555 I-0.1739 J-0.0474
G1 Y1.4227
G2 X1.8352 Y1.4082 I-0.073 J-0.0008
G2 X1.826 Y1.3897 I-0.0352 J0.006
G2 X1.8242 Y1.388 I-0.0114 J0.0107
G2 X1.8054 Y1.3801 I-0.0245 J0.0317
G2 X1.7904 Y1.3789 I-0.0142 J0.0855
G1 X1.7729
G1 Y1.3656
G1 X1.9479
G1 Y1.3789
G1 X1.9311
G2 X1.9165 Y1.3801 I-0.0008 J0.0838
G2 X1.8989 Y1.387 I0.0063 J0.0415
G2 X1.8846 Y1.413 I0.0175 J0.0266
G2 Y1.4133 I0.0156 J0.0003
G1 Y1.6444
G2 X1.8874 Y1.6648 I0.0679 J0.0009
G2 X1.9 Y1.6852 I0.0444 J-0.0134
G1 X1.9001
G2 X1.9208 Y1.6967 I0.0331 J-0.0355
G2 X1.9409 Y1.6992 I0.0192 J-0.0721
G1 X1.9514
G1 Y1.7087
G1 X1.8461 Y1.7152
G3 X1.8411 Y1.6817 I0.4527 J-0.0835
G0 Z0.125
G0 X1.0766 Y2.4281
G0 Z0.0625
G1 F4.0 Z-0.02
G3 F8.0 X1.0719 Y2.4234 I0.0484 J-0.0531
G1 Y2.4281
G1 X1.0766
G1 F4.0 Y2.4344
G1 F8.0 X1.0971
G3 X1.0656 Y2.4029 I0.0279 J-0.0594
G1 Y2.4344
G1 X1.0766
G0 Z0.125
G0 X2.9234 Y2.4281
G0 Z0.0625
G1 F4.0 Z-0.02
G1 F8.0 X2.9281
G1 Y2.4234
G3 X2.9234 Y2.4281 I-0.0531 J-0.0484
G1 F4.0 X2.9192 Y2.4235
G3 F8.0 X2.9029 Y2.4344 I-0.0442 J-0.0485
G1 X2.9344
G1 Y2.4029
G3 X2.9192 Y2.4235 I-0.0594 J-0.0279
G0 Z0.125
G0 X2.9281 Y0.5766
G0 Z0.0625
G1 F4.0 Z-0.02
G1 F8.0 Y0.5719
G1 X2.9234
G3 X2.9281 Y0.5766 I-0.0484 J0.0531
G1 F4.0 X2.9344
G1 F8.0 Y0.5656
G1 X2.9029
G3 X2.9344 Y0.5971 I-0.0279 J0.0594
G1 Y0.5766
G0 Z0.125
G0 X2.8968 Y0.6073
G0 Z0.0625
G1 F4.0 Z-0.02
G3 F8.0 X2.9031 Y0.625 I-0.0218 J0.0177
G1 Y2.375
G3 X2.875 Y2.4031 I-0.0281 J0.0
G1 X1.125
G3 X1.0969 Y2.375 I0.0 J-0.0281
G1 Y0.625
G3 X1.125 Y0.5969 I0.0281 J0.0
G1 X2.875
G3 X2.8968 Y0.6073 I0.0 J0.0281
G1 F4.0 X2.8871 Y0.6151
G3 F8.0 X2.8906 Y0.625 I-0.0121 J0.0099
G1 Y2.375
G3 X2.875 Y2.3906 I-0.0156 J0.0
G1 X1.125
G3 X1.1094 Y2.375 I0.0 J-0.0156
G1 Y0.625
G3 X1.125 Y0.6094 I0.0156 J0.0
G1 X2.875
G3 X2.8871 Y0.6151 I0.0 J0.0156
G0 Z0.125
G0 X2.9065 Y0.5994
G0 Z0.0625
G1 F4.0 Z-0.02
G2 F8.0 X2.875 Y0.5844 I-0.0315 J0.0256
G1 X1.125
G2 X1.0844 Y0.625 I0.0 J0.0406
G1 Y2.375
G2 X1.125 Y2.4156 I0.0406 J0.0
G1 X2.875
G2 X2.9156 Y2.375 I0.0 J-0.0406
G1 Y0.625
G2 X2.9065 Y0.5994 I-0.0406 J0.0
G1 F4.0 X2.9162 Y0.5915
G2 F8.0 X2.875 Y0.5719 I-0.0412 J0.0335
G1 X1.125
G2 X1.0719 Y0.625 I0.0 J0.0531
G1 Y2.375
G2 X1.125 Y2.4281 I0.0531 J0.0
G1 X2.875
G2 X2.9281 Y2.375 I0.0 J-0.0531
G1 Y0.625
G2 X2.9162 Y0.5915 I-0.0531 J0.0
G0 Z0.125
G0 X2.9469
G0 Z0.0625
G1 F4.0 Z-0.02
G1 F8.0 Y0.5531
G1 X1.0531
G1 Y2.4469
G1 X2.9469
G1 Y0.5915
G1 F4.0 X2.9594
G1 F8.0 Y0.5406
G1 X1.0406
G1 Y2.4594
G1 X2.9594
G1 Y0.5915
G1 F4.0 X2.9719
G1 F8.0 Y0.5281
G1 X1.0281
G1 Y2.4719
G1 X2.9719
G1 Y0.5915
G1 F4.0 X2.9844
G1 F8.0 Y0.5156
G1 X1.0156
G1 Y2.4844
G1 X2.9844
G1 Y0.5915
G0 Z0.125
G0 X2.399 Y1.4296
G0 Z0.0625
G1 F4.0 Z-0.02
G3 F8.0 X2.3954 Y1.4328 I-0.0328 J-0.0335
G3 X2.399 Y1.4379 I-0.2075 J0.1517
G1 Y1.4296
G1 F4.0 X2.3946 Y1.4251
G3 F8.0 X2.3865 Y1.4313 I-0.0284 J-0.029
G3 X2.4053 Y1.4594 I-0.1986 J0.1532
G1 Y1.4119
G1 X2.3985 Y1.4207
G3 X2.3946 Y1.4251 I-0.0323 J-0.0246
G1 F4.0 X2.3859 Y1.4162
G3 F8.0 X2.3642 Y1.4241 I-0.0197 J-0.0201
G3 X2.4061 Y1.4887 I-0.1763 J0.1603
G3 X2.4178 Y1.5189 I-0.3269 J0.1437
G1 Y1.3749
G1 X2.3886 Y1.4132
G3 X2.3859 Y1.4162 I-0.0224 J-0.0171
G0 Z0.125
G0 X2.3042 Y1.6598
G0 Z0.0625
G1 F4.0 Z-0.02
G2 F8.0 X2.246 Y1.6433 I-0.1984 J0.5915
G3 X2.1877 Y1.6289 I0.3461 J-1.5185
G3 X2.1257 Y1.608 I0.1062 J-0.4182
G3 X2.124 Y1.6073 I0.0183 J-0.0432
G3 X2.0937 Y1.5891 I0.0731 J-0.1559
G3 X2.0822 Y1.5793 I0.0733 J-0.098
G2 X2.1228 Y1.6169 I0.0893 J-0.0556
G2 X2.1802 Y1.639 I0.1371 J-0.2709
G3 X2.1808 Y1.6391 I-0.0123 J0.0452
G2 X2.2466 Y1.6557 I0.2766 J-0.9607
G3 X2.2939 Y1.6669 I-0.1897 J0.9093
G3 X2.3461 Y1.6852 I-0.0694 J0.2809
G3 X2.3473 Y1.6858 I-0.0197 J0.0425
G3 X2.3759 Y1.7052 I-0.0585 J0.1171
G2 X2.3586 Y1.686 I-0.0693 J0.0451
G2 X2.3376 Y1.6732 I-0.0673 J0.0868
G3 X2.3373 Y1.673 I0.0198 J-0.0425
G2 X2.3092 Y1.6615 I-0.121 J0.2545
G2 X2.3042 Y1.6598 I-0.2034 J0.5898
G1 F4.0 X2.3062 Y1.6539
G2 F8.0 X2.2474 Y1.6373 I-0.2004 J0.5974
G3 X2.1893 Y1.6228 I0.3448 J-1.5124
G3 X2.1281 Y1.6023 I0.1046 J-0.4122
G3 X2.1267 Y1.6016 I0.0158 J-0.0374
G3 X2.0975 Y1.5841 I0.0705 J-0.1503
G3 X2.0703 Y1.5553 I0.0695 J-0.093
G3 X2.0701 Y1.5551 I0.0338 J-0.0225
G3 X2.0634 Y1.5434 I0.0979 J-0.0642
G2 X2.0766 Y1.5821 I0.1097 J-0.0158
G2 X2.1199 Y1.6225 I0.0949 J-0.0584
G2 X2.1785 Y1.645 I0.14 J-0.2765
G3 X2.1791 Y1.6452 I-0.0107 J0.0392
G2 X2.2453 Y1.6618 I0.2784 J-0.9667
G3 X2.2924 Y1.6729 I-0.1884 J0.9031
G3 X2.3434 Y1.6909 I-0.0679 J0.2748
G3 X2.3445 Y1.6914 I-0.0171 J0.0369
G3 X2.3944 Y1.7366 I-0.0557 J0.1115
G3 X2.395 Y1.7376 I-0.0344 J0.0216
G2 X2.3889 Y1.7165 I-0.1262 J0.0252
G2 X2.3625 Y1.6811 I-0.0823 J0.0338
G2 X2.3403 Y1.6675 I-0.0712 J0.0917
G3 X2.34 Y1.6674 I0.0171 J-0.0368
G2 X2.3112 Y1.6556 I-0.1237 J0.2602
G2 X2.3062 Y1.6539 I-0.2054 J0.5957
G1 F4.0 X2.3102 Y1.642
G2 F8.0 X2.2502 Y1.6251 I-0.2043 J0.6092
G3 X2.1924 Y1.6107 I0.342 J-1.5002
G3 X2.133 Y1.5907 I0.1014 J-0.4001
G3 X2.132 Y1.5903 I0.011 J-0.0259
G3 X2.105 Y1.5741 I0.0652 J-0.139
G3 X2.0807 Y1.5484 I0.062 J-0.083
G3 X2.0806 Y1.5482 I0.0234 J-0.0156
G3 X2.0635 Y1.4894 I0.0874 J-0.0573
G3 X2.0735 Y1.4386 I0.1278 J-0.001
G2 X2.061 Y1.4627 I0.1232 J0.0796
G2 X2.0498 Y1.5239 I0.1519 J0.0593
G3 Y1.5248 I-0.0281 J0.0003
G2 X2.0658 Y1.5884 I0.1233 J0.0027
G2 X2.1142 Y1.6336 I0.1057 J-0.0648
G2 X2.1752 Y1.6571 I0.1457 J-0.2876
G3 X2.1756 Y1.6572 I-0.0074 J0.0271
G2 X2.2427 Y1.674 I0.2818 J-0.9787
G3 X2.2893 Y1.685 I-0.1858 J0.8909
G3 X2.3382 Y1.7022 I-0.0648 J0.2627
G3 X2.3389 Y1.7026 I-0.0118 J0.0255
G3 X2.3838 Y1.7432 I-0.0501 J0.1003
G3 X2.3844 Y1.7443 I-0.0238 J0.015
G3 X2.399 Y1.8021 I-0.0978 J0.0554
G3 X2.3931 Y1.8406 I-0.118 J0.0015
G2 X2.4 Y1.8251 I-0.1209 J-0.0634
G2 X2.41 Y1.766 I-0.1588 J-0.0571
G3 Y1.7652 I0.0281 J-0.0003
G2 X2.4005 Y1.7119 I-0.1412 J-0.0023
G2 X2.3702 Y1.6713 I-0.0939 J0.0384
G2 X2.3455 Y1.6562 I-0.0789 J0.1015
G3 X2.3453 Y1.6561 I0.0119 J-0.0255
G2 X2.3153 Y1.6438 I-0.129 J0.2714
G2 X2.3102 Y1.642 I-0.2095 J0.6075
G0 Z0.125
G0 X2.0952 Y1.8354
G0 Z0.0625
G1 F4.0 Z-0.02
G1 F8.0 X2.0955 Y1.8641
G3 X2.1069 Y1.8541 I0.032 J0.025
G3 X2.1029 Y1.848 I0.1713 J-0.1187
G3 X2.0952 Y1.8354 I0.2518 J-0.1627
G1 F4.0 X2.0827 Y1.8356
G1 F8.0 X2.0834 Y1.9056
G1 X2.1039 Y1.8739
G3 X2.1279 Y1.8609 I0.0237 J0.0152
G3 X2.1134 Y1.8413 I0.1504 J-0.1256
G3 X2.0925 Y1.8027 I0.2413 J-0.1559
G3 X2.0924 Y1.8025 I0.0257 J-0.0115
G3 X2.0821 Y1.7771 I0.4406 J-0.1938
G1 X2.0827 Y1.8356
G1 F4.0 X2.0702 Y1.8357
G1 F8.0 X2.0711 Y1.9227
G1 X2.0874
G1 X2.1144 Y1.8806
G3 X2.1386 Y1.878 I0.0131 J0.0084
G2 X2.1958 Y1.916 I0.123 J-0.1234
G2 X2.2607 Y1.9281 I0.0641 J-0.1628
G3 X2.2609 I0.0001 J0.0156
G2 X2.3243 Y1.9173 I0.0021 J-0.1784
G2 X2.3774 Y1.8828 I-0.053 J-0.1394
G1 Y1.8827
G2 X2.4118 Y1.8294 I-0.1053 J-0.1055
G2 X2.4225 Y1.7658 I-0.1706 J-0.0614
G3 Y1.7654 I0.0156 J-0.0002
G2 X2.4121 Y1.7073 I-0.1537 J-0.0025
G2 X2.378 Y1.6615 I-0.1055 J0.043
G2 X2.3508 Y1.6448 I-0.0867 J0.1113
G3 X2.3507 I0.0066 J-0.0142
G2 X2.3194 Y1.6319 I-0.1344 J0.2827
G2 X2.253 Y1.6129 I-0.2136 J0.6193
G3 X2.1956 Y1.5986 I0.3392 J-1.488
G3 X2.1379 Y1.5792 I0.0983 J-0.388
G3 X2.1373 Y1.579 I0.0061 J-0.0144
G3 X2.1125 Y1.5641 I0.0599 J-0.1277
G3 X2.0911 Y1.5415 I0.0545 J-0.073
G1 X2.091 Y1.5414
G3 X2.076 Y1.4894 I0.077 J-0.0505
G3 X2.1147 Y1.4021 I0.1153 J-0.0011
G3 X2.1609 Y1.375 I0.086 J0.0938
G3 X2.161 I0.0049 J0.0148
G3 X2.2124 Y1.3672 I0.0496 J0.1542
G3 X2.2838 Y1.3816 I0.0007 J0.1813
G3 X2.284 I-0.0061 J0.0144
G3 X2.3441 Y1.4215 I-0.0834 J0.1914
G3 X2.3442 I-0.0107 J0.0113
G3 X2.3946 Y1.4937 I-0.1564 J0.1629
G3 X2.4167 Y1.5629 I-0.3154 J0.1387
G1 X2.4303
G1 Y1.359
G1 X2.4142
G1 X2.3786 Y1.4056
G3 X2.3555 Y1.4075 I-0.0124 J-0.0095
G2 X2.2908 Y1.3676 I-0.1286 J0.1362
G2 X2.2148 Y1.3551 I-0.0736 J0.2099
G3 X2.2145 I-0.0002 J-0.0156
G2 X2.1453 Y1.3664 I-0.0024 J0.203
G2 X2.0869 Y1.403 I0.055 J0.1525
G3 X2.0868 Y1.4031 I-0.0109 J-0.0112
G2 X2.0494 Y1.4581 I0.11 J0.1151
G2 X2.0373 Y1.524 I0.1636 J0.064
G3 Y1.5246 I-0.0156 J0.0002
G2 X2.0551 Y1.5948 I0.1358 J0.003
G2 X2.1085 Y1.6447 I0.1164 J-0.0711
G2 X2.1719 Y1.6691 I0.1514 J-0.2987
G3 X2.1722 Y1.6692 I-0.0041 J0.0151
G2 X2.2402 Y1.6863 I0.2853 J-0.9907
G3 X2.2862 Y1.6972 I-0.1832 J0.8787
G3 X2.3329 Y1.7136 I-0.0617 J0.2506
G3 X2.3334 Y1.7138 I-0.0066 J0.0142
G3 X2.3732 Y1.7499 I-0.0445 J0.0891
G3 X2.3736 Y1.7505 I-0.0132 J0.0083
G3 X2.3865 Y1.802 I-0.0869 J0.0493
G3 X2.3518 Y1.8818 I-0.1055 J0.0015
G3 X2.3106 Y1.9068 I-0.0782 J-0.0825
G3 X2.3105 I-0.0051 J-0.0148
G3 X2.2642 Y1.9141 I-0.0447 J-0.1339
G3 X2.2032 Y1.902 I-0.0008 J-0.157
G3 X2.203 I0.006 J-0.0144
G3 X2.1515 Y1.8679 I0.068 J-0.1588
G3 X2.1239 Y1.8345 I0.1267 J-0.1326
G3 X2.1039 Y1.7976 I0.2308 J-0.1491
G1 X2.1038 Y1.7975
G3 X2.0807 Y1.732 I0.4292 J-0.1888
G1 X2.0691
G1 X2.0702 Y1.8357
G0 Z0.125
G0 X1.6218 Y2.1602
G0 Z0.0625
G1 F4.0 Z-0.02
G3 F8.0 X1.6211 Y2.1606 I-0.0613 J-0.1053
G3 X1.6181 Y2.1622 I-0.0412 J-0.072
G3 X1.6218 Y2.1666 I-0.0194 J0.0204
G1 Y2.1602
G0 Z0.125
G0 Y2.2523
G0 Z0.0625
G1 F4.0 Z-0.02
G3 F8.0 X1.6209 Y2.2535 I-0.0231 J-0.016
G1 X1.6218
G1 Y2.2523
G1 F4.0 X1.6115 Y2.2452
G3 F8.0 X1.5987 Y2.252 I-0.0129 J-0.0089
G1 X1.5038
G1 Y2.266
G1 X1.6343
G1 Y2.1413
G1 X1.6306 Y2.1388
G3 X1.6149 Y2.1497 I-0.0701 J-0.0839
G3 X1.5806 Y2.1591 I-0.035 J-0.0611
G3 X1.5551 Y2.1558 I-0.0014 J-0.0892
G3 X1.5294 Y2.1395 I0.0138 J-0.0502
G3 X1.5289 Y2.1389 I0.0119 J-0.0102
G3 X1.5164 Y2.1109 I0.0509 J-0.0397
G3 X1.5139 Y2.0849 I0.1253 J-0.0249
G3 X1.52 Y2.0457 I0.1133 J-0.0025
G3 X1.5519 Y2.0111 I0.055 J0.0186
G3 X1.5523 Y2.0109 I0.0062 J0.0143
G3 X1.5815 Y2.0056 I0.0277 J0.0694
G3 X1.6014 Y2.0088 I-0.0009 J0.0694
G3 X1.6184 Y2.0158 I-0.0308 J0.0994
G3 X1.6185 I-0.0072 J0.0139
G3 X1.6312 Y2.0232 I-0.0847 J0.1608
G1 X1.6386 Y2.0077
G2 X1.617 Y1.9973 I-0.055 J0.086
G2 X1.5812 Y1.9915 I-0.0351 J0.1044
G3 X1.581 I-0.0001 J-0.0156
G2 X1.5583 Y1.9932 I-0.0007 J0.15
G1 X1.5582
G2 X1.5372 Y1.9987 I0.0144 J0.0981
G3 X1.5371 I-0.0056 J-0.0146
G2 X1.5056 Y2.0238 I0.0228 J0.0609
G2 X1.4944 Y2.05 I0.0733 J0.0469
G2 X1.4898 Y2.0903 I0.159 J0.0383
G3 Y2.0907 I-0.0156 J0.0002
G2 X1.4943 Y2.1249 I0.121 J0.0016
G2 X1.5096 Y2.1525 I0.0655 J-0.0184
G2 X1.5344 Y2.1684 I0.0436 J-0.0407
G2 X1.566 Y2.1731 I0.0302 J-0.0931
G3 X1.5666 I0.0002 J0.0156
G2 X1.5926 Y2.1682 I0.0015 J-0.0628
G3 X1.6143 Y2.1826 I0.0061 J0.0144
G1 Y2.2363
G3 X1.6115 Y2.2452 I-0.0156 J0.0
G0 Z0.125
G0 X1.4026 Y2.1886
G0 Z0.0625
G1 F4.0 Z-0.02
G2 F8.0 X1.4028 Y2.1881 I-0.1303 J-0.0353
G2 X1.4088 Y2.1395 I-0.1787 J-0.047
G3 Y2.1392 I0.0219 J-0.0002
G2 X1.4065 Y2.0937 I-0.4029 J-0.0018
G3 X1.4064 Y2.0936 I0.0217 J-0.0024
G2 X1.3975 Y2.051 I-0.2085 J0.0217
G2 X1.3861 Y2.0272 I-0.0965 J0.0314
G2 X1.3602 Y2.0048 I-0.0516 J0.0336
G2 X1.3421 Y1.9993 I-0.0347 J0.0815
G3 X1.3622 Y2.0093 I-0.0161 J0.0578
G3 X1.3629 Y2.0099 I-0.0132 J0.0174
G3 X1.384 Y2.0394 I-0.0455 J0.0548
G3 X1.3914 Y2.0645 I-0.1329 J0.0526
G3 X1.395 Y2.0888 I-0.2459 J0.0493
G3 X1.3972 Y2.1357 I-0.4573 J0.0444
G3 X1.3951 Y2.1747 I-0.3396 J0.0017
G3 X1.3858 Y2.2156 I-0.1723 J-0.0177
G3 X1.3691 Y2.2439 I-0.0824 J-0.0296
G3 X1.3688 Y2.2442 I-0.0164 J-0.0145
G3 X1.3492 Y2.2586 I-0.0463 J-0.0423
G2 X1.3557 Y2.2557 I-0.0274 J-0.0682
G2 X1.3827 Y2.231 I-0.039 J-0.0698
G3 X1.3829 Y2.2308 I0.0181 J0.0123
G2 X1.4026 Y2.1886 I-0.1106 J-0.0775
G0 Z0.125
G0 X1.303 Y2.2625
G0 Z0.0625
G1 F4.0 Z-0.02
G3 F8.0 X1.2631 Y2.2288 I0.0161 J-0.0597
G3 X1.2547 Y2.2036 I0.0965 J-0.0461
G3 X1.2511 Y2.1802 I0.2146 J-0.0448
G1 Y2.1801
G3 X1.2491 Y2.1354 I0.4429 J-0.0422
G3 X1.2502 Y2.0995 I0.5508 J-0.0015
G3 X1.2549 Y2.0623 I0.2792 J0.0162
G3 X1.2633 Y2.0354 I0.1183 J0.0225
G1 X1.2634
G3 X1.2885 Y2.0066 I0.0601 J0.0272
G3 X1.2893 Y2.0062 I0.0116 J0.0185
G3 X1.3044 Y1.9998 I0.0343 J0.0604
G2 X1.2882 Y2.0058 I0.0172 J0.0706
G2 X1.2623 Y2.0303 I0.0358 J0.0637
G1 Y2.0304
G2 X1.2429 Y2.078 I0.1179 J0.0758
G1 Y2.0781
G2 X1.2375 Y2.1326 I0.2491 J0.0522
G3 Y2.1329 I-0.0219 J0.0002
G2 X1.2408 Y2.1806 I0.3166 J0.0021
G3 Y2.1807 I-0.0216 J0.0031
G2 X1.2532 Y2.2236 I0.1532 J-0.0211
G2 X1.2683 Y2.2453 I0.0704 J-0.0328
G2 X1.2983 Y2.2615 I0.0432 J-0.0441
G3 X1.2984 Y2.2616 I-0.0047 J0.0214
G2 X1.303 Y2.2625 I0.0212 J-0.0943
G1 F4.0 X1.302 Y2.2686
G2 F8.0 X1.3203 Y2.2701 I0.0176 J-0.1014
G3 X1.3206 I0.0001 J0.0156
G2 X1.3586 Y2.2612 I0.0012 J-0.0797
G2 X1.3879 Y2.2345 I-0.0419 J-0.0753
G3 X1.388 Y2.2343 I0.0129 J0.0088
G2 X1.4088 Y2.1897 I-0.1157 J-0.0811
G2 X1.4151 Y2.1395 I-0.1848 J-0.0486
G3 Y2.1393 I0.0156 J-0.0001
G2 X1.4127 Y2.093 I-0.4091 J-0.0018
G2 X1.4034 Y2.0491 I-0.2147 J0.0223
G2 X1.3914 Y2.0238 I-0.1025 J0.0333
G2 X1.3628 Y1.9991 I-0.0568 J0.037
G2 X1.3236 Y1.9915 I-0.0372 J0.0872
G3 X1.323 I-0.0003 J-0.0156
G2 X1.2853 Y2.0003 I-0.0014 J0.0789
G2 X1.2571 Y2.027 I0.0387 J0.0693
G1 X1.257
G2 X1.2368 Y2.0768 I0.1232 J0.0792
G1 X1.2367
G2 X1.2312 Y2.1326 I0.2552 J0.0535
G3 Y2.1329 I-0.0156 J0.0001
G2 X1.2346 Y2.1815 I0.3229 J0.0021
G3 Y2.1816 I-0.0155 J0.0022
G2 X1.2475 Y2.2262 I0.1594 J-0.022
G2 X1.2639 Y2.2498 I0.076 J-0.0354
G2 X1.297 Y2.2676 I0.0476 J-0.0486
G1 X1.2971 Y2.2677
G2 X1.302 Y2.2686 I0.0225 J-0.1004
G1 F4.0 X1.3051 Y2.2566
G3 F8.0 X1.2687 Y2.2262 I0.0141 J-0.0538
G3 X1.2608 Y2.2023 I0.0909 J-0.0435
G3 X1.2573 Y2.1796 I0.2085 J-0.0436
G1 Y2.1795
G3 X1.2553 Y2.1354 I0.4367 J-0.0416
G3 X1.2564 Y2.0999 I0.5446 J-0.0015
G3 X1.261 Y2.0635 I0.273 J0.0158
G3 X1.269 Y2.038 I0.1122 J0.0213
G3 X1.2918 Y2.0119 I0.0544 J0.0246
G3 X1.2924 Y2.0116 I0.0083 J0.0133
G3 X1.3249 Y2.0033 I0.0312 J0.0549
G3 X1.3584 Y2.0142 I0.001 J0.0538
G3 X1.3589 Y2.0147 I-0.0094 J0.0125
G3 X1.3782 Y2.0416 I-0.0415 J0.05
G3 X1.3853 Y2.0657 I-0.1271 J0.0503
G3 X1.3888 Y2.0894 I-0.2398 J0.0481
G3 X1.391 Y2.1357 I-0.4511 J0.0438
G3 X1.3889 Y2.174 I-0.3334 J0.0017
G3 X1.38 Y2.2135 I-0.1661 J-0.017
G3 X1.3644 Y2.2398 I-0.0765 J-0.0275
G3 X1.3642 Y2.24 I-0.0117 J-0.0103
G3 X1.3216 Y2.2583 I-0.0417 J-0.0381
G3 X1.3051 Y2.2566 I-0.0024 J-0.0556
G0 Z0.125
G0 X1.6162 Y1.4046
G0 Z0.0625
G1 F4.0 Z-0.02
G3 F8.0 X1.6209 Y1.3906 I0.061 J0.0125
G1 X1.6122
G3 X1.6161 Y1.4037 I-0.056 J0.0235
G3 X1.6162 Y1.4046 I-0.0963 J0.0182
G1 F4.0 X1.6285 Y1.4071
G3 F8.0 X1.6456 Y1.3787 I0.0488 J0.01
G3 X1.6463 Y1.3781 I0.0179 J0.0217
G1 X1.5881
G3 X1.5886 Y1.3785 I-0.0316 J0.0401
G3 X1.5914 Y1.3811 I-0.0177 J0.0219
G3 X1.6038 Y1.406 I-0.0351 J0.033
G3 X1.6053 Y1.4228 I-0.084 J0.016
G1 Y1.5969
G3 Y1.5972 I-0.0281 J0.0
G2 X1.6182 Y1.6558 I0.132 J0.0017
G3 X1.6185 Y1.6565 I-0.0254 J0.0121
G2 X1.6487 Y1.6913 I0.072 J-0.0321
G2 X1.6974 Y1.7027 I0.0459 J-0.0857
G3 X1.6986 I0.0008 J0.0281
G2 X1.721 Y1.701 I0.0017 J-0.1217
G3 X1.6788 Y1.6885 I0.0062 J-0.0984
G3 X1.6782 Y1.6881 I0.0138 J-0.0245
G3 X1.6425 Y1.6534 I0.0554 J-0.0926
G3 X1.6408 Y1.6504 I0.0237 J-0.0151
G3 X1.6294 Y1.6083 I0.1093 J-0.0524
G3 X1.6275 Y1.5718 I0.3202 J-0.0345
G1 Y1.4196
G3 X1.6285 Y1.4071 I0.0497 J-0.0025
G1 F4.0 X1.6407 Y1.4096
G3 F8.0 X1.6535 Y1.3883 I0.0365 J0.0075
G3 X1.655 Y1.3873 I0.0099 J0.0121
G3 X1.6762 Y1.3799 I0.0257 J0.0398
G3 X1.6932 Y1.3789 I0.016 J0.1268
G1 X1.7033
G1 Y1.3656
G1 X1.5291
G1 Y1.3789
G1 X1.547
G3 X1.5618 Y1.38 I0.0008 J0.0861
G3 X1.5807 Y1.3882 I-0.0053 J0.0382
G3 X1.5823 Y1.3897 I-0.0098 J0.0122
G3 X1.5915 Y1.4082 I-0.026 J0.0245
G3 X1.5928 Y1.4227 I-0.0717 J0.0138
G1 Y1.5969
G3 Y1.5971 I-0.0156 J0.0
G2 X1.6069 Y1.6612 I0.1445 J0.0019
G3 X1.607 Y1.6616 I-0.0141 J0.0067
G2 X1.6424 Y1.7021 I0.0834 J-0.0372
G2 X1.6978 Y1.7152 I0.0522 J-0.0966
G3 X1.6985 I0.0005 J0.0156
G2 X1.7684 Y1.6967 I0.0019 J-0.1342
G3 X1.7686 Y1.6966 I0.0079 J0.0135
G2 X1.8081 Y1.6484 I-0.0431 J-0.0756
G3 X1.8066 Y1.6503 I-0.1002 J-0.0777
G3 X1.7284 Y1.6887 I-0.0777 J-0.0594
G3 X1.6849 Y1.6776 I-0.0012 J-0.0861
G3 X1.6846 Y1.6774 I0.0077 J-0.0136
G3 X1.653 Y1.6467 I0.0489 J-0.0818
G3 X1.6521 Y1.645 I0.0132 J-0.0084
G3 X1.6418 Y1.6071 I0.098 J-0.047
G3 X1.64 Y1.5718 I0.3077 J-0.0333
G1 Y1.4193
G3 X1.6407 Y1.4096 I0.0372 J-0.0022
( Pocket2 )
S10000
G0 Z0.125
G0 X2.2654 Y0.8246
G0 Z0.0625
G1 F4.0 Z-0.02
G1 F8.0 Y0.8356
G3 X2.2719 Y0.8302 I0.1077 J0.1238
G3 X2.2654 Y0.8246 I0.0083 J-0.0162
G1 F4.0 X2.2696 Y0.8216
G3 F8.0 X2.2672 Y0.8141 I0.0106 J-0.0076
G1 Y0.693
G1 X2.2602
G1 Y0.8476
G3 X2.2791 Y0.8313 I0.1129 J0.1118
G3 X2.305 Y0.8151 I0.1232 J0.1681
G1 Y0.8143
G1 X2.2869 Y0.8252
G3 X2.2696 Y0.8216 I-0.0067 J-0.0111
G0 Z0.125
G0 X2.1195 Y0.8302
G0 Z0.0625
G1 F4.0 Z-0.02
G3 F8.0 X2.113 Y0.8246 I0.0083 J-0.0162
G1 Y0.8356
G3 X2.1195 Y0.8302 I0.1077 J0.1238
G1 F4.0 X2.1219 Y0.8256
G3 F8.0 X2.1148 Y0.8141 I0.0059 J-0.0116
G1 Y0.693
G1 X2.1078
G1 Y0.8476
G3 X2.1268 Y0.8313 I0.1129 J0.1118
G3 X2.1527 Y0.8151 I0.1232 J0.1681
G1 Y0.8143
G1 X2.1345 Y0.8252
G3 X2.1219 Y0.8256 I-0.0067 J-0.0111
G0 Z0.125
G0 X2.0132 Y0.8238
G0 Z0.0625
G1 F4.0 Z-0.02
G2 F8.0 Y0.8228 I-0.0343 J-0.0006
G2 X2.0085 Y0.8067 I-0.0322 J0.0005
G3 X2.0083 Y0.8063 I0.0111 J-0.0067
G2 X1.9957 Y0.7926 I-0.0356 J0.0199
G3 X1.9965 Y0.7706 I0.0073 J-0.0107
G2 X2.0135 Y0.7538 I-0.025 J-0.0425
G3 X2.0137 Y0.7536 I0.0111 J0.0068
G2 X2.0199 Y0.733 I-0.0328 J-0.0211
G2 X2.0172 Y0.7149 I-0.0561 J-0.0008
G2 X2.0085 Y0.7014 I-0.0306 J0.0102
G2 X1.9929 Y0.693 I-0.0258 J0.0291
G2 X1.9729 Y0.6905 I-0.0191 J0.0705
G3 X1.9726 I-0.0002 J-0.013
G2 X1.9523 Y0.6931 I-0.0009 J0.072
G2 X1.9361 Y0.7019 I0.0116 J0.0409
G2 X1.9268 Y0.7153 I0.0223 J0.0252
G2 X1.9239 Y0.733 I0.0473 J0.017
G2 X1.9259 Y0.7426 I0.0255 J-0.0004
G1 Y0.7427
G2 X1.9317 Y0.753 I0.0485 J-0.0203
G3 X1.9319 Y0.7533 I-0.0106 J0.0076
G2 X1.94 Y0.7628 I0.0505 J-0.0346
G2 X1.949 Y0.7691 I0.0236 J-0.0244
G3 X1.9496 Y0.7922 I-0.0056 J0.0117
G2 X1.943 Y0.7974 I0.0127 J0.0231
G2 X1.9369 Y0.8053 I0.0381 J0.0357
G3 X1.9368 Y0.8055 I-0.011 J-0.0069
G2 X1.9324 Y0.8144 I0.0384 J0.0246
G2 X1.9309 Y0.8226 I0.0228 J0.0084
G2 X1.9333 Y0.8364 I0.037 J0.0005
G2 X1.9407 Y0.8468 I0.0252 J-0.0102
G2 X1.9544 Y0.8541 I0.0227 J-0.0262
G2 X1.9719 Y0.8563 I0.0168 J-0.0618
G3 X1.9722 I0.0002 J0.013
G2 X1.989 Y0.854 I0.0006 J-0.0575
G2 X2.0027 Y0.8466 I-0.0113 J-0.0375
G3 X2.0028 Y0.8465 I0.0083 J0.01
G2 X2.0106 Y0.8363 I-0.0173 J-0.0212
G2 X2.0132 Y0.8238 I-0.0317 J-0.013
G1 F4.0 X2.0062
G3 F8.0 X2.0009 Y0.8413 I-0.0324 J-0.0001
G3 X2.0004 Y0.8421 I-0.0109 J-0.0071
G3 X1.9825 Y0.8532 I-0.0234 J-0.0179
G3 X1.9723 Y0.8542 I-0.01 J-0.0474
G3 X1.9487 Y0.8464 I-0.0013 J-0.0356
G3 X1.9484 Y0.8462 I0.0081 J-0.0101
G3 X1.938 Y0.8226 I0.0192 J-0.0226
G3 X1.9405 Y0.8098 I0.0379 J0.0008
G3 X1.9454 Y0.7999 I0.0542 J0.0204
G3 X1.9525 Y0.7907 I0.0446 J0.027
G3 X1.9634 Y0.7828 I0.0272 J0.0262
G3 X1.974 Y0.7825 I0.0056 J0.0117
G3 X1.995 Y0.7975 I-0.0218 J0.0529
G3 X2.0023 Y0.8077 I-0.0355 J0.0329
G3 X2.0061 Y0.8224 I-0.029 J0.0154
G3 X2.0062 Y0.8238 I-0.0324 J0.0012
G0 Z0.125
G0 X1.9822 Y0.7797
G0 Z0.0625
G1 F4.0 Z-0.02
G3 F8.0 X1.9818 Y0.7799 I-0.0328 J-0.0602
G3 X1.9692 Y0.7798 I-0.0061 J-0.0115
G3 X1.9517 Y0.7678 I0.0646 J-0.1128
G3 X1.936 Y0.7497 I0.0405 J-0.0509
G3 X1.9359 Y0.7496 I0.0112 J-0.0066
G3 X1.9309 Y0.7309 I0.0339 J-0.0192
G3 X1.9436 Y0.7025 I0.0359 J-0.001
G3 X1.958 Y0.6946 I0.026 J0.0305
G3 X1.9726 Y0.6925 I0.0143 J0.0479
G3 X2.0017 Y0.7043 I0.0011 J0.0392
G3 X2.0019 Y0.7045 I-0.0093 J0.0091
G3 X2.0129 Y0.7333 I-0.0296 J0.0278
G3 X2.003 Y0.7622 I-0.047 J0.0001
G3 X2.0029 Y0.7624 I-0.0103 J-0.008
G3 X1.9822 Y0.7797 I-0.0535 J-0.0429
G0 Z0.125
G0 X1.8545 Y0.6991
G0 Z0.0625
G1 F4.0 Z-0.02
G2 F8.0 X1.8551 Y0.697 I-0.0032 J-0.002
G3 Y0.6963 I0.0182 J-0.0004
G2 X1.8539 Y0.6933 I-0.0042 J-0.0001
G3 X1.8536 Y0.693 I0.0128 J-0.0129
G2 X1.8507 Y0.6919 I-0.0028 J0.0027
G3 X1.8501 Y0.6918 I-0.0003 J-0.0182
G2 X1.8475 Y0.6929 I-0.0001 J0.0035
G3 X1.847 Y0.6934 I-0.0132 J-0.0126
G2 X1.8458 Y0.6963 I0.0027 J0.0028
G3 Y0.697 I-0.0182 J0.0003
G2 X1.8469 Y0.6996 I0.0035 J0.0001
G3 X1.8475 Y0.7002 I-0.0126 J0.0132
G2 X1.8501 Y0.7013 I0.0026 J-0.0024
G3 X1.8507 I0.0003 J0.0182
G2 X1.8536 Y0.7001 I0.0001 J-0.0039
G3 X1.854 Y0.6997 I0.0131 J0.0127
G2 X1.8545 Y0.6991 I-0.0026 J-0.0027
G1 F4.0 X1.8589 Y0.7018
G2 F8.0 X1.8603 Y0.6969 I-0.0076 J-0.0048
G3 Y0.6964 I0.013 J-0.0003
G2 X1.8575 Y0.6896 I-0.0094 J-0.0002
G3 X1.8574 Y0.6894 I0.0092 J-0.0092
G2 X1.8507 Y0.6867 I-0.0066 J0.0064
G3 X1.8502 I-0.0002 J-0.013
G2 X1.8437 Y0.6894 I-0.0002 J0.0087
G3 X1.8434 Y0.6897 I-0.0094 J-0.009
G2 X1.8406 Y0.6964 I0.0064 J0.0066
G3 Y0.6969 I-0.013 J0.0002
G2 X1.8433 Y0.7033 I0.0087 J0.0002
G3 X1.8437 Y0.7038 I-0.009 J0.0094
G2 X1.8502 Y0.7065 I0.0063 J-0.006
G3 X1.8507 I0.0002 J0.013
G2 X1.8574 Y0.7037 I0.0001 J-0.0091
G3 X1.8576 Y0.7035 I0.0093 J0.009
G2 X1.8589 Y0.7018 I-0.0062 J-0.0064
G0 Z0.125
G0 X1.6798 Y0.8426
G0 Z0.0625
G1 F4.0 Z-0.02
G1 F8.0 X1.6766 Y0.8485
G1 X1.6834
G3 X1.6798 Y0.8426 I0.0134 J-0.0123
G1 F4.0 X1.6846 Y0.8408
G3 F8.0 X1.6854 Y0.83 I0.0122 J-0.0045
G2 X1.7148 Y0.7733 I-1.301 J-0.7107
G2 X1.741 Y0.7154 I-0.8479 J-0.418
G2 X1.7497 Y0.693 I-0.5321 J-0.2188
G1 X1.7412
G3 X1.7331 Y0.7154 I-0.4397 J-0.1469
G3 X1.7176 Y0.7527 I-0.7857 J-0.3044
G3 X1.6997 Y0.7916 I-1.0712 J-0.4697
G3 X1.6821 Y0.827 I-1.2467 J-0.5968
G3 X1.682 Y0.8271 I-0.0116 J-0.0059
G1 X1.6679 Y0.8537
G1 X1.769
G1 Y0.8493
G1 X1.6968
G3 X1.6846 Y0.8408 I0.0 J-0.013
( Pocket4 )
S10000
G0 Z0.125
G0 X2.1471 Y1.0031
G0 Z0.0625
G1 F4.0 Z-0.02
G1 F8.0 X2.1456
G1 Y1.1763
G3 X2.1383 Y1.1931 I-0.0231 J0.0
G1 X2.1544
G3 X2.1471 Y1.1763 I0.0158 J-0.0169
G1 Y1.0031
G1 F4.0 Y0.9989
G1 F8.0 X2.1414
G1 Y1.1763
G3 X2.1225 Y1.1952 I-0.0189 J0.0
G1 X2.0715
G1 Y1.1973
G1 X2.2214
G1 Y1.1952
G1 X2.1702
G3 X2.1513 Y1.1763 I0.0 J-0.0189
G1 Y0.9989
G1 X2.1471
G1 F4.0 Y0.9905
G1 F8.0 X2.133
G1 Y1.1763
G3 X2.1225 Y1.1868 I-0.0105 J0.0
G1 X2.0631
G1 Y1.2057
G1 X2.2298
G1 Y1.1868
G1 X2.1702
G3 X2.1597 Y1.1763 I0.0 J-0.0105
G1 Y0.9905
G1 X2.1471
G0 Z0.125
G0 X2.0033 Y0.9989
G0 Z0.0625
G1 F4.0 Z-0.02
G1 F8.0 X1.9958
G1 Y1.1322
G1 X2.0033
G1 Y0.9989
G1 F4.0 Y0.9905
G1 F8.0 X1.9874
G1 Y1.1406
G1 X2.0117
G1 Y0.9905
G1 X2.0033
G0 Z0.125
G0 X1.9077 Y1.0842
G0 Z0.0625
G1 F4.0 Z-0.02
G3 F8.0 X1.9045 Y1.1026 I-0.1141 J-0.0103
G3 X1.9041 Y1.104 I-0.0224 J-0.0058
G3 X1.9028 Y1.1076 I-0.0532 J-0.0174
G3 X1.9077 Y1.1128 I-0.014 J0.0184
G1 Y1.0842
G1 F4.0 X1.9119
G1 F8.0 Y0.9989
G1 X1.9044
G1 Y1.0575
G3 X1.9039 Y1.0782 I-0.3475 J0.0012
G3 X1.9004 Y1.1016 I-0.1103 J-0.0043
G3 X1.9001 Y1.1027 I-0.0183 J-0.0047
G3 X1.8975 Y1.1092 I-0.0492 J-0.0161
G3 X1.9076 Y1.126 I-0.0087 J0.0168
G1 Y1.1322
G1 X1.9119
G1 Y1.0842
G0 Z0.125
G0 X1.81 Y1.1264
G0 Z0.0625
G1 F4.0 Z-0.02
G3 F8.0 X1.8011 Y1.1103 I0.0367 J-0.0311
G3 X1.8009 Y1.1099 I0.0219 J-0.0072
G3 X1.7982 Y1.0967 I0.0639 J-0.0198
G3 X1.7981 Y1.095 I0.1671 J-0.0186
G2 X1.7983 Y1.1001 I0.2008 J-0.0079
G3 X1.7984 Y1.1003 I-0.0231 J0.0015
G2 X1.7999 Y1.1118 I0.0716 J-0.0041
G1 X1.8
G2 X1.8044 Y1.1215 I0.0247 J-0.0055
G2 X1.81 Y1.1264 I0.0169 J-0.014
G1 F4.0 X1.8132 Y1.1236
G3 F8.0 X1.805 Y1.109 I0.0335 J-0.0284
G3 X1.8049 Y1.1087 I0.018 J-0.0059
G3 X1.8024 Y1.0962 I0.0599 J-0.0186
G3 X1.8016 Y1.0862 I0.163 J-0.0181
G3 X1.8012 Y1.0673 I0.3665 J-0.0177
G1 Y0.9989
G1 X1.7937
G1 Y1.0863
G1 Y1.0864
G2 X1.7942 Y1.1004 I0.2051 J0.0007
G3 Y1.1006 I-0.0189 J0.0012
G2 X1.7958 Y1.1127 I0.0758 J-0.0043
G2 X1.8011 Y1.1241 I0.0288 J-0.0064
G2 X1.8118 Y1.1319 I0.0202 J-0.0166
G3 X1.8124 Y1.1322 I-0.0069 J0.0176
G2 X1.8307 Y1.1361 I0.0191 J-0.0443
G3 X1.822 Y1.1315 I0.0167 J-0.0424
G3 X1.8217 Y1.1314 I0.0105 J-0.0157
G3 X1.8132 Y1.1236 I0.025 J-0.0361
G1 F4.0 X1.8196 Y1.1182
G3 F8.0 X1.813 Y1.1064 I0.0271 J-0.0229
G3 Y1.1062 I0.01 J-0.0033
G3 X1.8108 Y1.0954 I0.0519 J-0.0161
G3 X1.81 Y1.0858 I0.1546 J-0.0173
G3 X1.8096 Y1.0673 I0.3582 J-0.0173
G1 Y0.9905
G1 X1.7853
G1 Y1.0863
G1 Y1.0864
G2 X1.7858 Y1.101 I0.2135 J0.0007
G2 X1.7876 Y1.1145 I0.0842 J-0.0048
G2 X1.7945 Y1.1293 I0.037 J-0.0082
G2 X1.8088 Y1.1397 I0.0268 J-0.0218
G3 X1.8091 Y1.1399 I-0.0038 J0.0098
G2 X1.8322 Y1.1445 I0.0224 J-0.052
G3 X1.8325 I0.0001 J0.0105
G2 X1.8591 Y1.1381 I0.0007 J-0.0564
G2 X1.8803 Y1.1197 I-0.0319 J-0.058
G3 X1.8992 Y1.126 I0.0084 J0.0063
G1 Y1.1406
G1 X1.9203
G1 Y0.9905
G1 X1.896
G1 Y1.0575
G3 X1.8955 Y1.0778 I-0.3391 J0.0012
G3 X1.8923 Y1.0995 I-0.1019 J-0.0039
G3 X1.8921 Y1.1001 I-0.0102 J-0.0026
G3 X1.8752 Y1.1226 I-0.0413 J-0.0135
G3 X1.8482 Y1.1308 I-0.0266 J-0.0385
G3 X1.8267 Y1.1246 I-0.0009 J-0.0371
G3 X1.8265 Y1.1245 I0.0059 J-0.0087
G3 X1.8196 Y1.1182 I0.0202 J-0.0292
G0 Z0.125
G0 X1.9958 Y1.1932
G0 Z0.0625
G1 F4.0 Z-0.02
G1 F8.0 Y1.1973
G1 X2.0033
G1 Y1.1932
G1 X1.9958
G1 F4.0 X1.9874
G1 F8.0 Y1.2057
G1 X2.0117
G1 Y1.1848
G1 X1.9874
G1 Y1.1932
G0 Z0.125
M5
M30
