( Made using CamBam - http://www.cambam.co.uk )
( 051-antimony 11/26/2013 6:44:11 PM )
( T0 : 0.0313 )
G20 G90 G91.1 G64 G40
G0 Z0.125
( T0 : 0.0313 )
T0 M6
( Pocket1 )
G17
M3 S10000
G0 X0.7531 Y2.75
G0 Z0.0625
G1 F4.0 Z-0.0313
G2 F8.0 X0.7484 Y2.7473 I-0.0031 J0.0
G2 Y2.7527 I0.0016 J0.0027
G2 X0.7531 Y2.75 I0.0016 J-0.0027
G1 F4.0 X0.7594
G2 F8.0 X0.7453 Y2.7419 I-0.0094 J0.0
G2 Y2.7581 I0.0047 J0.0081
G2 X0.7594 Y2.75 I0.0047 J-0.0081
G1 F4.0 X0.7719
G2 F8.0 X0.7391 Y2.7311 I-0.0219 J0.0
G2 Y2.7689 I0.0109 J0.0189
G2 X0.7719 Y2.75 I0.0109 J-0.0189
G1 F4.0 X0.7844
G2 F8.0 X0.7328 Y2.7202 I-0.0344 J0.0
G2 Y2.7798 I0.0172 J0.0298
G2 X0.7844 Y2.75 I0.0172 J-0.0298
G1 F4.0 X0.7969
G2 F8.0 X0.7266 Y2.7094 I-0.0469 J0.0
G2 Y2.7906 I0.0234 J0.0406
G2 X0.7969 Y2.75 I0.0234 J-0.0406
G0 Z0.125
G0 X0.7531
G0 Z0.0312
G1 F4.0 Z-0.0625
G2 F8.0 X0.7484 Y2.7473 I-0.0031 J0.0
G2 Y2.7527 I0.0016 J0.0027
G2 X0.7531 Y2.75 I0.0016 J-0.0027
G1 F4.0 X0.7594
G2 F8.0 X0.7453 Y2.7419 I-0.0094 J0.0
G2 Y2.7581 I0.0047 J0.0081
G2 X0.7594 Y2.75 I0.0047 J-0.0081
G1 F4.0 X0.7719
G2 F8.0 X0.7391 Y2.7311 I-0.0219 J0.0
G2 Y2.7689 I0.0109 J0.0189
G2 X0.7719 Y2.75 I0.0109 J-0.0189
G1 F4.0 X0.7844
G2 F8.0 X0.7328 Y2.7202 I-0.0344 J0.0
G2 Y2.7798 I0.0172 J0.0298
G2 X0.7844 Y2.75 I0.0172 J-0.0298
G1 F4.0 X0.7969
G2 F8.0 X0.7266 Y2.7094 I-0.0469 J0.0
G2 Y2.7906 I0.0234 J0.0406
G2 X0.7969 Y2.75 I0.0234 J-0.0406
G0 Z0.125
G0 X0.7531
G0 Z0.0
G1 F4.0 Z-0.0938
G2 F8.0 X0.7484 Y2.7473 I-0.0031 J0.0
G2 Y2.7527 I0.0016 J0.0027
G2 X0.7531 Y2.75 I0.0016 J-0.0027
G1 F4.0 X0.7594
G2 F8.0 X0.7453 Y2.7419 I-0.0094 J0.0
G2 Y2.7581 I0.0047 J0.0081
G2 X0.7594 Y2.75 I0.0047 J-0.0081
G1 F4.0 X0.7719
G2 F8.0 X0.7391 Y2.7311 I-0.0219 J0.0
G2 Y2.7689 I0.0109 J0.0189
G2 X0.7719 Y2.75 I0.0109 J-0.0189
G1 F4.0 X0.7844
G2 F8.0 X0.7328 Y2.7202 I-0.0344 J0.0
G2 Y2.7798 I0.0172 J0.0298
G2 X0.7844 Y2.75 I0.0172 J-0.0298
G1 F4.0 X0.7969
G2 F8.0 X0.7266 Y2.7094 I-0.0469 J0.0
G2 Y2.7906 I0.0234 J0.0406
G2 X0.7969 Y2.75 I0.0234 J-0.0406
G0 Z0.125
G0 X0.7531
G0 Z-0.0323
G1 F4.0 Z-0.126
G2 F8.0 X0.7484 Y2.7473 I-0.0031 J0.0
G2 Y2.7527 I0.0016 J0.0027
G2 X0.7531 Y2.75 I0.0016 J-0.0027
G1 F4.0 X0.7594
G2 F8.0 X0.7453 Y2.7419 I-0.0094 J0.0
G2 Y2.7581 I0.0047 J0.0081
G2 X0.7594 Y2.75 I0.0047 J-0.0081
G1 F4.0 X0.7719
G2 F8.0 X0.7391 Y2.7311 I-0.0219 J0.0
G2 Y2.7689 I0.0109 J0.0189
G2 X0.7719 Y2.75 I0.0109 J-0.0189
G1 F4.0 X0.7844
G2 F8.0 X0.7328 Y2.7202 I-0.0344 J0.0
G2 Y2.7798 I0.0172 J0.0298
G2 X0.7844 Y2.75 I0.0172 J-0.0298
G1 F4.0 X0.7969
G2 F8.0 X0.7266 Y2.7094 I-0.0469 J0.0
G2 Y2.7906 I0.0234 J0.0406
G2 X0.7969 Y2.75 I0.0234 J-0.0406
G0 Z0.125
G0 X3.2469
G0 Z0.0625
G1 F4.0 Z-0.0313
G2 F8.0 X3.2484 Y2.7527 I0.0031 J0.0
G2 X3.2531 Y2.75 I0.0016 J-0.0027
G2 X3.2484 Y2.7473 I-0.0031 J0.0
G2 X3.2469 Y2.75 I0.0016 J0.0027
G1 F4.0 X3.2406
G2 F8.0 X3.2453 Y2.7581 I0.0094 J0.0
G2 X3.2594 Y2.75 I0.0047 J-0.0081
G2 X3.2453 Y2.7419 I-0.0094 J0.0
G2 X3.2406 Y2.75 I0.0047 J0.0081
G1 F4.0 X3.2281
G2 F8.0 X3.2391 Y2.7689 I0.0219 J0.0
G2 X3.2719 Y2.75 I0.0109 J-0.0189
G2 X3.2391 Y2.7311 I-0.0219 J0.0
G2 X3.2281 Y2.75 I0.0109 J0.0189
G1 F4.0 X3.2156
G2 F8.0 X3.2328 Y2.7798 I0.0344 J0.0
G2 X3.2844 Y2.75 I0.0172 J-0.0298
G2 X3.2328 Y2.7202 I-0.0344 J0.0
G2 X3.2156 Y2.75 I0.0172 J0.0298
G1 F4.0 X3.2031
G2 F8.0 X3.2266 Y2.7906 I0.0469 J0.0
G2 X3.2969 Y2.75 I0.0234 J-0.0406
G2 X3.2266 Y2.7094 I-0.0469 J0.0
G2 X3.2031 Y2.75 I0.0234 J0.0406
G0 Z0.125
G0 X3.2469
G0 Z0.0312
G1 F4.0 Z-0.0625
G2 F8.0 X3.2484 Y2.7527 I0.0031 J0.0
G2 X3.2531 Y2.75 I0.0016 J-0.0027
G2 X3.2484 Y2.7473 I-0.0031 J0.0
G2 X3.2469 Y2.75 I0.0016 J0.0027
G1 F4.0 X3.2406
G2 F8.0 X3.2453 Y2.7581 I0.0094 J0.0
G2 X3.2594 Y2.75 I0.0047 J-0.0081
G2 X3.2453 Y2.7419 I-0.0094 J0.0
G2 X3.2406 Y2.75 I0.0047 J0.0081
G1 F4.0 X3.2281
G2 F8.0 X3.2391 Y2.7689 I0.0219 J0.0
G2 X3.2719 Y2.75 I0.0109 J-0.0189
G2 X3.2391 Y2.7311 I-0.0219 J0.0
G2 X3.2281 Y2.75 I0.0109 J0.0189
G1 F4.0 X3.2156
G2 F8.0 X3.2328 Y2.7798 I0.0344 J0.0
G2 X3.2844 Y2.75 I0.0172 J-0.0298
G2 X3.2328 Y2.7202 I-0.0344 J0.0
G2 X3.2156 Y2.75 I0.0172 J0.0298
G1 F4.0 X3.2031
G2 F8.0 X3.2266 Y2.7906 I0.0469 J0.0
G2 X3.2969 Y2.75 I0.0234 J-0.0406
G2 X3.2266 Y2.7094 I-0.0469 J0.0
G2 X3.2031 Y2.75 I0.0234 J0.0406
G0 Z0.125
G0 X3.2469
G0 Z0.0
G1 F4.0 Z-0.0938
G2 F8.0 X3.2484 Y2.7527 I0.0031 J0.0
G2 X3.2531 Y2.75 I0.0016 J-0.0027
G2 X3.2484 Y2.7473 I-0.0031 J0.0
G2 X3.2469 Y2.75 I0.0016 J0.0027
G1 F4.0 X3.2406
G2 F8.0 X3.2453 Y2.7581 I0.0094 J0.0
G2 X3.2594 Y2.75 I0.0047 J-0.0081
G2 X3.2453 Y2.7419 I-0.0094 J0.0
G2 X3.2406 Y2.75 I0.0047 J0.0081
G1 F4.0 X3.2281
G2 F8.0 X3.2391 Y2.7689 I0.0219 J0.0
G2 X3.2719 Y2.75 I0.0109 J-0.0189
G2 X3.2391 Y2.7311 I-0.0219 J0.0
G2 X3.2281 Y2.75 I0.0109 J0.0189
G1 F4.0 X3.2156
G2 F8.0 X3.2328 Y2.7798 I0.0344 J0.0
G2 X3.2844 Y2.75 I0.0172 J-0.0298
G2 X3.2328 Y2.7202 I-0.0344 J0.0
G2 X3.2156 Y2.75 I0.0172 J0.0298
G1 F4.0 X3.2031
G2 F8.0 X3.2266 Y2.7906 I0.0469 J0.0
G2 X3.2969 Y2.75 I0.0234 J-0.0406
G2 X3.2266 Y2.7094 I-0.0469 J0.0
G2 X3.2031 Y2.75 I0.0234 J0.0406
G0 Z0.125
G0 X3.2469
G0 Z-0.0323
G1 F4.0 Z-0.126
G2 F8.0 X3.2484 Y2.7527 I0.0031 J0.0
G2 X3.2531 Y2.75 I0.0016 J-0.0027
G2 X3.2484 Y2.7473 I-0.0031 J0.0
G2 X3.2469 Y2.75 I0.0016 J0.0027
G1 F4.0 X3.2406
G2 F8.0 X3.2453 Y2.7581 I0.0094 J0.0
G2 X3.2594 Y2.75 I0.0047 J-0.0081
G2 X3.2453 Y2.7419 I-0.0094 J0.0
G2 X3.2406 Y2.75 I0.0047 J0.0081
G1 F4.0 X3.2281
G2 F8.0 X3.2391 Y2.7689 I0.0219 J0.0
G2 X3.2719 Y2.75 I0.0109 J-0.0189
G2 X3.2391 Y2.7311 I-0.0219 J0.0
G2 X3.2281 Y2.75 I0.0109 J0.0189
G1 F4.0 X3.2156
G2 F8.0 X3.2328 Y2.7798 I0.0344 J0.0
G2 X3.2844 Y2.75 I0.0172 J-0.0298
G2 X3.2328 Y2.7202 I-0.0344 J0.0
G2 X3.2156 Y2.75 I0.0172 J0.0298
G1 F4.0 X3.2031
G2 F8.0 X3.2266 Y2.7906 I0.0469 J0.0
G2 X3.2969 Y2.75 I0.0234 J-0.0406
G2 X3.2266 Y2.7094 I-0.0469 J0.0
G2 X3.2031 Y2.75 I0.0234 J0.0406
G0 Z0.125
G0 X3.2499 Y0.2531
G0 Z0.0625
G1 F4.0 Z-0.0313
G2 F8.0 X3.2531 Y0.25 I0.0001 J-0.0031
G2 X3.2484 Y0.2473 I-0.0031 J0.0
G2 Y0.2527 I0.0016 J0.0027
G2 X3.2499 Y0.2531 I0.0016 J-0.0027
G1 F4.0 X3.2498 Y0.2594
G2 F8.0 X3.2594 Y0.25 I0.0002 J-0.0094
G2 X3.2453 Y0.2419 I-0.0094 J0.0
G2 Y0.2581 I0.0047 J0.0081
G2 X3.2498 Y0.2594 I0.0047 J-0.0081
G1 F4.0 X3.2496 Y0.2719
G2 F8.0 X3.2719 Y0.25 I0.0004 J-0.0219
G2 X3.2391 Y0.2311 I-0.0219 J0.0
G2 Y0.2689 I0.0109 J0.0189
G2 X3.2496 Y0.2719 I0.0109 J-0.0189
G1 F4.0 X3.2494 Y0.2844
G2 F8.0 X3.2844 Y0.25 I0.0006 J-0.0344
G2 X3.2328 Y0.2202 I-0.0344 J0.0
G2 Y0.2798 I0.0172 J0.0298
G2 X3.2494 Y0.2844 I0.0172 J-0.0298
G1 F4.0 X3.2491 Y0.2969
G2 F8.0 X3.2969 Y0.25 I0.0009 J-0.0469
G2 X3.2266 Y0.2094 I-0.0469 J0.0
G2 Y0.2906 I0.0234 J0.0406
G2 X3.2491 Y0.2969 I0.0234 J-0.0406
G0 Z0.125
G0 X3.2499 Y0.2531
G0 Z0.0312
G1 F4.0 Z-0.0625
G2 F8.0 X3.2531 Y0.25 I0.0001 J-0.0031
G2 X3.2484 Y0.2473 I-0.0031 J0.0
G2 Y0.2527 I0.0016 J0.0027
G2 X3.2499 Y0.2531 I0.0016 J-0.0027
G1 F4.0 X3.2498 Y0.2594
G2 F8.0 X3.2594 Y0.25 I0.0002 J-0.0094
G2 X3.2453 Y0.2419 I-0.0094 J0.0
G2 Y0.2581 I0.0047 J0.0081
G2 X3.2498 Y0.2594 I0.0047 J-0.0081
G1 F4.0 X3.2496 Y0.2719
G2 F8.0 X3.2719 Y0.25 I0.0004 J-0.0219
G2 X3.2391 Y0.2311 I-0.0219 J0.0
G2 Y0.2689 I0.0109 J0.0189
G2 X3.2496 Y0.2719 I0.0109 J-0.0189
G1 F4.0 X3.2494 Y0.2844
G2 F8.0 X3.2844 Y0.25 I0.0006 J-0.0344
G2 X3.2328 Y0.2202 I-0.0344 J0.0
G2 Y0.2798 I0.0172 J0.0298
G2 X3.2494 Y0.2844 I0.0172 J-0.0298
G1 F4.0 X3.2491 Y0.2969
G2 F8.0 X3.2969 Y0.25 I0.0009 J-0.0469
G2 X3.2266 Y0.2094 I-0.0469 J0.0
G2 Y0.2906 I0.0234 J0.0406
G2 X3.2491 Y0.2969 I0.0234 J-0.0406
G0 Z0.125
G0 X3.2499 Y0.2531
G0 Z0.0
G1 F4.0 Z-0.0938
G2 F8.0 X3.2531 Y0.25 I0.0001 J-0.0031
G2 X3.2484 Y0.2473 I-0.0031 J0.0
G2 Y0.2527 I0.0016 J0.0027
G2 X3.2499 Y0.2531 I0.0016 J-0.0027
G1 F4.0 X3.2498 Y0.2594
G2 F8.0 X3.2594 Y0.25 I0.0002 J-0.0094
G2 X3.2453 Y0.2419 I-0.0094 J0.0
G2 Y0.2581 I0.0047 J0.0081
G2 X3.2498 Y0.2594 I0.0047 J-0.0081
G1 F4.0 X3.2496 Y0.2719
G2 F8.0 X3.2719 Y0.25 I0.0004 J-0.0219
G2 X3.2391 Y0.2311 I-0.0219 J0.0
G2 Y0.2689 I0.0109 J0.0189
G2 X3.2496 Y0.2719 I0.0109 J-0.0189
G1 F4.0 X3.2494 Y0.2844
G2 F8.0 X3.2844 Y0.25 I0.0006 J-0.0344
G2 X3.2328 Y0.2202 I-0.0344 J0.0
G2 Y0.2798 I0.0172 J0.0298
G2 X3.2494 Y0.2844 I0.0172 J-0.0298
G1 F4.0 X3.2491 Y0.2969
G2 F8.0 X3.2969 Y0.25 I0.0009 J-0.0469
G2 X3.2266 Y0.2094 I-0.0469 J0.0
G2 Y0.2906 I0.0234 J0.0406
G2 X3.2491 Y0.2969 I0.0234 J-0.0406
G0 Z0.125
G0 X3.2499 Y0.2531
G0 Z-0.0323
G1 F4.0 Z-0.126
G2 F8.0 X3.2531 Y0.25 I0.0001 J-0.0031
G2 X3.2484 Y0.2473 I-0.0031 J0.0
G2 Y0.2527 I0.0016 J0.0027
G2 X3.2499 Y0.2531 I0.0016 J-0.0027
G1 F4.0 X3.2498 Y0.2594
G2 F8.0 X3.2594 Y0.25 I0.0002 J-0.0094
G2 X3.2453 Y0.2419 I-0.0094 J0.0
G2 Y0.2581 I0.0047 J0.0081
G2 X3.2498 Y0.2594 I0.0047 J-0.0081
G1 F4.0 X3.2496 Y0.2719
G2 F8.0 X3.2719 Y0.25 I0.0004 J-0.0219
G2 X3.2391 Y0.2311 I-0.0219 J0.0
G2 Y0.2689 I0.0109 J0.0189
G2 X3.2496 Y0.2719 I0.0109 J-0.0189
G1 F4.0 X3.2494 Y0.2844
G2 F8.0 X3.2844 Y0.25 I0.0006 J-0.0344
G2 X3.2328 Y0.2202 I-0.0344 J0.0
G2 Y0.2798 I0.0172 J0.0298
G2 X3.2494 Y0.2844 I0.0172 J-0.0298
G1 F4.0 X3.2491 Y0.2969
G2 F8.0 X3.2969 Y0.25 I0.0009 J-0.0469
G2 X3.2266 Y0.2094 I-0.0469 J0.0
G2 Y0.2906 I0.0234 J0.0406
G2 X3.2491 Y0.2969 I0.0234 J-0.0406
G0 Z0.125
G0 X0.7531 Y0.2501
G0 Z0.0625
G1 F4.0 Z-0.0313
G1 F8.0 Y0.25
G2 X0.7484 Y0.2473 I-0.0031 J0.0
G2 Y0.2527 I0.0016 J0.0027
G2 X0.7531 Y0.2501 I0.0016 J-0.0027
G1 F4.0 X0.7594 Y0.2502
G2 F8.0 Y0.25 I-0.0094 J-0.0002
G2 X0.7453 Y0.2419 I-0.0094 J0.0
G2 Y0.2581 I0.0047 J0.0081
G2 X0.7594 Y0.2502 I0.0047 J-0.0081
G1 F4.0 X0.7719 Y0.2504
G2 F8.0 Y0.25 I-0.0219 J-0.0004
G2 X0.7391 Y0.2311 I-0.0219 J0.0
G2 Y0.2689 I0.0109 J0.0189
G2 X0.7719 Y0.2504 I0.0109 J-0.0189
G1 F4.0 X0.7844 Y0.2506
G2 F8.0 Y0.25 I-0.0344 J-0.0006
G2 X0.7328 Y0.2202 I-0.0344 J0.0
G2 Y0.2798 I0.0172 J0.0298
G2 X0.7844 Y0.2506 I0.0172 J-0.0298
G1 F4.0 X0.7969 Y0.2509
G2 F8.0 Y0.25 I-0.0469 J-0.0009
G2 X0.7266 Y0.2094 I-0.0469 J0.0
G2 Y0.2906 I0.0234 J0.0406
G2 X0.7969 Y0.2509 I0.0234 J-0.0406
G0 Z0.125
G0 X0.7531 Y0.2501
G0 Z0.0312
G1 F4.0 Z-0.0625
G1 F8.0 Y0.25
G2 X0.7484 Y0.2473 I-0.0031 J0.0
G2 Y0.2527 I0.0016 J0.0027
G2 X0.7531 Y0.2501 I0.0016 J-0.0027
G1 F4.0 X0.7594 Y0.2502
G2 F8.0 Y0.25 I-0.0094 J-0.0002
G2 X0.7453 Y0.2419 I-0.0094 J0.0
G2 Y0.2581 I0.0047 J0.0081
G2 X0.7594 Y0.2502 I0.0047 J-0.0081
G1 F4.0 X0.7719 Y0.2504
G2 F8.0 Y0.25 I-0.0219 J-0.0004
G2 X0.7391 Y0.2311 I-0.0219 J0.0
G2 Y0.2689 I0.0109 J0.0189
G2 X0.7719 Y0.2504 I0.0109 J-0.0189
G1 F4.0 X0.7844 Y0.2506
G2 F8.0 Y0.25 I-0.0344 J-0.0006
G2 X0.7328 Y0.2202 I-0.0344 J0.0
G2 Y0.2798 I0.0172 J0.0298
G2 X0.7844 Y0.2506 I0.0172 J-0.0298
G1 F4.0 X0.7969 Y0.2509
G2 F8.0 Y0.25 I-0.0469 J-0.0009
G2 X0.7266 Y0.2094 I-0.0469 J0.0
G2 Y0.2906 I0.0234 J0.0406
G2 X0.7969 Y0.2509 I0.0234 J-0.0406
G0 Z0.125
G0 X0.7531 Y0.2501
G0 Z0.0
G1 F4.0 Z-0.0938
G1 F8.0 Y0.25
G2 X0.7484 Y0.2473 I-0.0031 J0.0
G2 Y0.2527 I0.0016 J0.0027
G2 X0.7531 Y0.2501 I0.0016 J-0.0027
G1 F4.0 X0.7594 Y0.2502
G2 F8.0 Y0.25 I-0.0094 J-0.0002
G2 X0.7453 Y0.2419 I-0.0094 J0.0
G2 Y0.2581 I0.0047 J0.0081
G2 X0.7594 Y0.2502 I0.0047 J-0.0081
G1 F4.0 X0.7719 Y0.2504
G2 F8.0 Y0.25 I-0.0219 J-0.0004
G2 X0.7391 Y0.2311 I-0.0219 J0.0
G2 Y0.2689 I0.0109 J0.0189
G2 X0.7719 Y0.2504 I0.0109 J-0.0189
G1 F4.0 X0.7844 Y0.2506
G2 F8.0 Y0.25 I-0.0344 J-0.0006
G2 X0.7328 Y0.2202 I-0.0344 J0.0
G2 Y0.2798 I0.0172 J0.0298
G2 X0.7844 Y0.2506 I0.0172 J-0.0298
G1 F4.0 X0.7969 Y0.2509
G2 F8.0 Y0.25 I-0.0469 J-0.0009
G2 X0.7266 Y0.2094 I-0.0469 J0.0
G2 Y0.2906 I0.0234 J0.0406
G2 X0.7969 Y0.2509 I0.0234 J-0.0406
G0 Z0.125
G0 X0.7531 Y0.2501
G0 Z-0.0323
G1 F4.0 Z-0.126
G1 F8.0 Y0.25
G2 X0.7484 Y0.2473 I-0.0031 J0.0
G2 Y0.2527 I0.0016 J0.0027
G2 X0.7531 Y0.2501 I0.0016 J-0.0027
G1 F4.0 X0.7594 Y0.2502
G2 F8.0 Y0.25 I-0.0094 J-0.0002
G2 X0.7453 Y0.2419 I-0.0094 J0.0
G2 Y0.2581 I0.0047 J0.0081
G2 X0.7594 Y0.2502 I0.0047 J-0.0081
G1 F4.0 X0.7719 Y0.2504
G2 F8.0 Y0.25 I-0.0219 J-0.0004
G2 X0.7391 Y0.2311 I-0.0219 J0.0
G2 Y0.2689 I0.0109 J0.0189
G2 X0.7719 Y0.2504 I0.0109 J-0.0189
G1 F4.0 X0.7844 Y0.2506
G2 F8.0 Y0.25 I-0.0344 J-0.0006
G2 X0.7328 Y0.2202 I-0.0344 J0.0
G2 Y0.2798 I0.0172 J0.0298
G2 X0.7844 Y0.2506 I0.0172 J-0.0298
G1 F4.0 X0.7969 Y0.2509
G2 F8.0 Y0.25 I-0.0469 J-0.0009
G2 X0.7266 Y0.2094 I-0.0469 J0.0
G2 Y0.2906 I0.0234 J0.0406
G2 X0.7969 Y0.2509 I0.0234 J-0.0406
( Pocket3 )
S10000
G0 Z0.125
G0 X1.0719 Y0.5719
G0 Z0.0625
G1 F4.0 Z-0.02
G1 F8.0 Y0.5766
G3 X1.0766 Y0.5719 I0.0531 J0.0484
G1 X1.0719
G1 F4.0 X1.0656
G1 F8.0 Y0.5971
G3 X1.0971 Y0.5656 I0.0594 J0.0279
G1 X1.0656
G1 Y0.5719
G0 Z0.125
G0 X1.0719 Y2.4234
G0 Z0.0625
G1 F4.0 Z-0.02
G1 F8.0 Y2.4281
G1 X1.0766
G3 X1.0719 Y2.4234 I0.0484 J-0.0531
G1 F4.0 X1.0765 Y2.4192
G3 F8.0 X1.0656 Y2.4029 I0.0485 J-0.0442
G1 Y2.4344
G1 X1.0971
G3 X1.0765 Y2.4192 I0.0279 J-0.0594
G0 Z0.125
G0 X2.9234 Y2.4281
G0 Z0.0625
G1 F4.0 Z-0.02
G1 F8.0 X2.9281
G1 Y2.4234
G3 X2.9234 Y2.4281 I-0.0531 J-0.0484
G1 F4.0 X2.9192 Y2.4235
G3 F8.0 X2.9029 Y2.4344 I-0.0442 J-0.0485
G1 X2.9344
G1 Y2.4029
G3 X2.9192 Y2.4235 I-0.0594 J-0.0279
G0 Z0.125
G0 X2.9281 Y0.5766
G0 Z0.0625
G1 F4.0 Z-0.02
G1 F8.0 Y0.5719
G1 X2.9234
G3 X2.9281 Y0.5766 I-0.0484 J0.0531
G1 F4.0 X2.9344
G1 F8.0 Y0.5656
G1 X2.9029
G3 X2.9344 Y0.5971 I-0.0279 J0.0594
G1 Y0.5766
G0 Z0.125
G0 X2.8968 Y0.6073
G0 Z0.0625
G1 F4.0 Z-0.02
G3 F8.0 X2.9031 Y0.625 I-0.0218 J0.0177
G1 Y2.375
G3 X2.875 Y2.4031 I-0.0281 J0.0
G1 X1.125
G3 X1.0969 Y2.375 I0.0 J-0.0281
G1 Y0.625
G3 X1.125 Y0.5969 I0.0281 J0.0
G1 X2.875
G3 X2.8968 Y0.6073 I0.0 J0.0281
G1 F4.0 X2.8871 Y0.6151
G3 F8.0 X2.8906 Y0.625 I-0.0121 J0.0099
G1 Y2.375
G3 X2.875 Y2.3906 I-0.0156 J0.0
G1 X1.125
G3 X1.1094 Y2.375 I0.0 J-0.0156
G1 Y0.625
G3 X1.125 Y0.6094 I0.0156 J0.0
G1 X2.875
G3 X2.8871 Y0.6151 I0.0 J0.0156
G0 Z0.125
G0 X2.9065 Y0.5994
G0 Z0.0625
G1 F4.0 Z-0.02
G2 F8.0 X2.875 Y0.5844 I-0.0315 J0.0256
G1 X1.125
G2 X1.0844 Y0.625 I0.0 J0.0406
G1 Y2.375
G2 X1.125 Y2.4156 I0.0406 J0.0
G1 X2.875
G2 X2.9156 Y2.375 I0.0 J-0.0406
G1 Y0.625
G2 X2.9065 Y0.5994 I-0.0406 J0.0
G1 F4.0 X2.9162 Y0.5915
G2 F8.0 X2.875 Y0.5719 I-0.0412 J0.0335
G1 X1.125
G2 X1.0719 Y0.625 I0.0 J0.0531
G1 Y2.375
G2 X1.125 Y2.4281 I0.0531 J0.0
G1 X2.875
G2 X2.9281 Y2.375 I0.0 J-0.0531
G1 Y0.625
G2 X2.9162 Y0.5915 I-0.0531 J0.0
G0 Z0.125
G0 X2.9469
G0 Z0.0625
G1 F4.0 Z-0.02
G1 F8.0 Y0.5531
G1 X1.0531
G1 Y2.4469
G1 X2.9469
G1 Y0.5915
G1 F4.0 X2.9594
G1 F8.0 Y0.5406
G1 X1.0406
G1 Y2.4594
G1 X2.9594
G1 Y0.5915
G1 F4.0 X2.9719
G1 F8.0 Y0.5281
G1 X1.0281
G1 Y2.4719
G1 X2.9719
G1 Y0.5915
G1 F4.0 X2.9844
G1 F8.0 Y0.5156
G1 X1.0156
G1 Y2.4844
G1 X2.9844
G1 Y0.5915
G0 Z0.125
G0 X2.3771 Y1.4296
G0 Z0.0625
G1 F4.0 Z-0.02
G3 F8.0 X2.3735 Y1.4328 I-0.0328 J-0.0335
G3 X2.3771 Y1.4379 I-0.2075 J0.1517
G1 Y1.4296
G1 F4.0 X2.3728 Y1.4251
G3 F8.0 X2.3646 Y1.4313 I-0.0284 J-0.029
G3 X2.3834 Y1.4594 I-0.1986 J0.1532
G1 Y1.4119
G1 X2.3766 Y1.4207
G3 X2.3728 Y1.4251 I-0.0323 J-0.0246
G1 F4.0 X2.364 Y1.4162
G3 F8.0 X2.3423 Y1.4241 I-0.0197 J-0.0201
G3 X2.3842 Y1.4887 I-0.1763 J0.1603
G3 X2.3959 Y1.5189 I-0.3269 J0.1437
G1 Y1.3749
G1 X2.3667 Y1.4132
G3 X2.364 Y1.4162 I-0.0224 J-0.0171
G0 Z0.125
G0 X2.2823 Y1.6598
G0 Z0.0625
G1 F4.0 Z-0.02
G2 F8.0 X2.2241 Y1.6433 I-0.1984 J0.5915
G3 X2.1658 Y1.6289 I0.3461 J-1.5185
G3 X2.1038 Y1.608 I0.1062 J-0.4182
G3 X2.1022 Y1.6073 I0.0183 J-0.0432
G3 X2.0719 Y1.5891 I0.0731 J-0.1559
G3 X2.0603 Y1.5793 I0.0733 J-0.098
G2 X2.1009 Y1.6169 I0.0893 J-0.0556
G2 X2.1583 Y1.639 I0.1371 J-0.2709
G3 X2.1589 Y1.6391 I-0.0123 J0.0452
G2 X2.2248 Y1.6557 I0.2766 J-0.9607
G3 X2.2721 Y1.6669 I-0.1897 J0.9093
G3 X2.3242 Y1.6852 I-0.0694 J0.2809
G3 X2.3254 Y1.6858 I-0.0197 J0.0425
G3 X2.354 Y1.7052 I-0.0585 J0.1171
G2 X2.3367 Y1.686 I-0.0693 J0.0451
G2 X2.3157 Y1.6732 I-0.0673 J0.0868
G3 X2.3154 Y1.673 I0.0198 J-0.0425
G2 X2.2873 Y1.6615 I-0.121 J0.2545
G2 X2.2823 Y1.6598 I-0.2034 J0.5898
G1 F4.0 X2.2843 Y1.6539
G2 F8.0 X2.2255 Y1.6373 I-0.2004 J0.5974
G3 X2.1674 Y1.6228 I0.3448 J-1.5124
G3 X2.1062 Y1.6023 I0.1046 J-0.4122
G3 X2.1048 Y1.6016 I0.0158 J-0.0374
G3 X2.0756 Y1.5841 I0.0705 J-0.1503
G3 X2.0484 Y1.5553 I0.0695 J-0.093
G3 X2.0483 Y1.5551 I0.0338 J-0.0225
G3 X2.0415 Y1.5434 I0.0979 J-0.0642
G2 X2.0547 Y1.5821 I0.1097 J-0.0158
G2 X2.0981 Y1.6225 I0.0949 J-0.0584
G2 X2.1566 Y1.645 I0.14 J-0.2765
G3 X2.1572 Y1.6452 I-0.0107 J0.0392
G2 X2.2235 Y1.6618 I0.2784 J-0.9667
G3 X2.2705 Y1.6729 I-0.1884 J0.9031
G3 X2.3216 Y1.6909 I-0.0679 J0.2748
G3 X2.3227 Y1.6914 I-0.0171 J0.0369
G3 X2.3725 Y1.7366 I-0.0557 J0.1115
G3 X2.3731 Y1.7376 I-0.0344 J0.0216
G2 X2.367 Y1.7165 I-0.1262 J0.0252
G2 X2.3406 Y1.6811 I-0.0823 J0.0338
G2 X2.3184 Y1.6675 I-0.0712 J0.0917
G3 X2.3181 Y1.6674 I0.0171 J-0.0368
G2 X2.2893 Y1.6556 I-0.1237 J0.2602
G2 X2.2843 Y1.6539 I-0.2054 J0.5957
G1 F4.0 X2.2883 Y1.642
G2 F8.0 X2.2283 Y1.6251 I-0.2043 J0.6092
G3 X2.1706 Y1.6107 I0.342 J-1.5002
G3 X2.1111 Y1.5907 I0.1014 J-0.4001
G3 X2.1101 Y1.5903 I0.011 J-0.0259
G3 X2.0831 Y1.5741 I0.0652 J-0.139
G3 X2.0588 Y1.5484 I0.062 J-0.083
G3 X2.0587 Y1.5482 I0.0234 J-0.0156
G3 X2.0416 Y1.4894 I0.0874 J-0.0573
G3 X2.0517 Y1.4386 I0.1278 J-0.001
G2 X2.0391 Y1.4627 I0.1232 J0.0796
G2 X2.0279 Y1.5239 I0.1519 J0.0593
G3 Y1.5248 I-0.0281 J0.0003
G2 X2.044 Y1.5884 I0.1233 J0.0027
G2 X2.0923 Y1.6336 I0.1057 J-0.0648
G2 X2.1534 Y1.6571 I0.1457 J-0.2876
G3 X2.1537 Y1.6572 I-0.0074 J0.0271
G2 X2.2209 Y1.674 I0.2818 J-0.9787
G3 X2.2674 Y1.685 I-0.1858 J0.8909
G3 X2.3163 Y1.7022 I-0.0648 J0.2627
G3 X2.3171 Y1.7026 I-0.0118 J0.0255
G3 X2.3619 Y1.7432 I-0.0501 J0.1003
G3 X2.3626 Y1.7443 I-0.0238 J0.015
G3 X2.3772 Y1.8021 I-0.0978 J0.0554
G3 X2.3712 Y1.8406 I-0.118 J0.0015
G2 X2.3781 Y1.8251 I-0.1209 J-0.0634
G2 X2.3881 Y1.766 I-0.1588 J-0.0571
G3 Y1.7652 I0.0281 J-0.0003
G2 X2.3786 Y1.7119 I-0.1412 J-0.0023
G2 X2.3484 Y1.6713 I-0.0939 J0.0384
G2 X2.3237 Y1.6562 I-0.0789 J0.1015
G3 X2.3234 Y1.6561 I0.0119 J-0.0255
G2 X2.2934 Y1.6438 I-0.129 J0.2714
G2 X2.2883 Y1.642 I-0.2095 J0.6075
G0 Z0.125
G0 X2.0733 Y1.8354
G0 Z0.0625
G1 F4.0 Z-0.02
G1 F8.0 X2.0736 Y1.8641
G3 X2.0851 Y1.8541 I0.032 J0.025
G3 X2.081 Y1.848 I0.1713 J-0.1187
G3 X2.0733 Y1.8354 I0.2518 J-0.1627
G1 F4.0 X2.0608 Y1.8356
G1 F8.0 X2.0616 Y1.9056
G1 X2.082 Y1.8739
G3 X2.106 Y1.8609 I0.0237 J0.0152
G3 X2.0916 Y1.8413 I0.1504 J-0.1256
G3 X2.0706 Y1.8027 I0.2413 J-0.1559
G3 X2.0705 Y1.8025 I0.0257 J-0.0115
G3 X2.0602 Y1.7771 I0.4406 J-0.1938
G1 X2.0608 Y1.8356
G1 F4.0 X2.0483 Y1.8357
G1 F8.0 X2.0492 Y1.9227
G1 X2.0655
G1 X2.0925 Y1.8806
G3 X2.1167 Y1.878 I0.0131 J0.0084
G2 X2.174 Y1.916 I0.123 J-0.1234
G2 X2.2388 Y1.9281 I0.0641 J-0.1628
G3 X2.2391 I0.0001 J0.0156
G2 X2.3024 Y1.9173 I0.0021 J-0.1784
G2 X2.3555 Y1.8828 I-0.053 J-0.1394
G1 X2.3556 Y1.8827
G2 X2.3899 Y1.8294 I-0.1053 J-0.1055
G2 X2.4006 Y1.7658 I-0.1706 J-0.0614
G3 Y1.7654 I0.0156 J-0.0002
G2 X2.3902 Y1.7073 I-0.1537 J-0.0025
G2 X2.3561 Y1.6615 I-0.1055 J0.043
G2 X2.3289 Y1.6448 I-0.0867 J0.1113
G3 X2.3288 I0.0066 J-0.0142
G2 X2.2975 Y1.6319 I-0.1344 J0.2827
G2 X2.2311 Y1.6129 I-0.2136 J0.6193
G3 X2.1737 Y1.5986 I0.3392 J-1.488
G3 X2.116 Y1.5792 I0.0983 J-0.388
G3 X2.1154 Y1.579 I0.0061 J-0.0144
G3 X2.0906 Y1.5641 I0.0599 J-0.1277
G3 X2.0692 Y1.5415 I0.0545 J-0.073
G1 Y1.5414
G3 X2.0541 Y1.4894 I0.077 J-0.0505
G3 X2.0929 Y1.4021 I0.1153 J-0.0011
G3 X2.139 Y1.375 I0.086 J0.0938
G3 X2.1391 I0.0049 J0.0148
G3 X2.1905 Y1.3672 I0.0496 J0.1542
G3 X2.262 Y1.3816 I0.0007 J0.1813
G3 X2.2621 I-0.0061 J0.0144
G3 X2.3223 Y1.4215 I-0.0834 J0.1914
G3 X2.3728 Y1.4937 I-0.1564 J0.1629
G3 X2.3948 Y1.5629 I-0.3154 J0.1387
G1 X2.4084
G1 Y1.359
G1 X2.3923
G1 X2.3568 Y1.4056
G3 X2.3336 Y1.4075 I-0.0124 J-0.0095
G2 X2.2689 Y1.3676 I-0.1286 J0.1362
G2 X2.1929 Y1.3551 I-0.0736 J0.2099
G3 X2.1926 I-0.0002 J-0.0156
G2 X2.1234 Y1.3664 I-0.0024 J0.203
G2 X2.065 Y1.403 I0.055 J0.1525
G3 X2.0649 Y1.4031 I-0.0109 J-0.0112
G2 X2.0275 Y1.4581 I0.11 J0.1151
G2 X2.0154 Y1.524 I0.1636 J0.064
G3 Y1.5246 I-0.0156 J0.0002
G2 X2.0332 Y1.5948 I0.1358 J0.003
G2 X2.0866 Y1.6447 I0.1164 J-0.0711
G2 X2.1501 Y1.6691 I0.1514 J-0.2987
G3 X2.1503 Y1.6692 I-0.0041 J0.0151
G2 X2.2183 Y1.6863 I0.2853 J-0.9907
G3 X2.2643 Y1.6972 I-0.1832 J0.8787
G3 X2.3111 Y1.7136 I-0.0617 J0.2506
G3 X2.3115 Y1.7138 I-0.0066 J0.0142
G3 X2.3513 Y1.7499 I-0.0445 J0.0891
G3 X2.3517 Y1.7505 I-0.0132 J0.0083
G3 X2.3647 Y1.802 I-0.0869 J0.0493
G3 X2.33 Y1.8818 I-0.1055 J0.0015
G3 X2.2887 Y1.9068 I-0.0782 J-0.0825
G3 X2.2886 I-0.0051 J-0.0148
G3 X2.2423 Y1.9141 I-0.0447 J-0.1339
G3 X2.1813 Y1.902 I-0.0008 J-0.157
G3 X2.1811 I0.006 J-0.0144
G3 X2.1296 Y1.8679 I0.068 J-0.1588
G3 X2.1021 Y1.8345 I0.1267 J-0.1326
G3 X2.082 Y1.7976 I0.2308 J-0.1491
G1 Y1.7975
G3 X2.0588 Y1.732 I0.4292 J-0.1888
G1 X2.0472
G1 X2.0483 Y1.8357
G0 Z0.125
G0 X1.8695 Y1.8954
G0 Z0.0625
G1 F4.0 Z-0.02
G3 F8.0 X1.8584 Y1.869 I0.0566 J-0.0392
G1 Y1.8959
G1 X1.8695 Y1.8954
G0 Z0.125
G0 X1.8572 Y1.6618
G0 Z0.0625
G1 F4.0 Z-0.02
G1 F8.0 Y1.5799
G3 X1.8571 Y1.5811 I-0.4767 J-0.0471
G3 X1.8463 Y1.6347 I-0.2618 J-0.025
G3 X1.8443 Y1.6407 I-0.1375 J-0.0431
G3 X1.8572 Y1.6618 I-0.0265 J0.0308
G0 Z0.125
G0 Y1.4845
G0 Z0.0625
G1 F4.0 Z-0.02
G1 F8.0 Y1.4496
G3 Y1.4494 I0.0406 J0.0
G3 X1.8574 Y1.4392 I0.51 J0.0023
G3 X1.8494 Y1.4415 I-0.0154 J-0.0376
G3 X1.8548 Y1.4662 I-0.2108 J0.0595
G3 Y1.4664 I-0.0401 J0.0065
G3 X1.8572 Y1.4845 I-0.3934 J0.0611
G1 F4.0 X1.8448 Y1.4858
G3 F8.0 X1.847 Y1.5309 I-0.3833 J0.0417
G3 X1.8447 Y1.5799 I-0.4665 J0.0019
G3 X1.8344 Y1.6309 I-0.2494 J-0.0238
G3 X1.8288 Y1.6456 I-0.1256 J-0.0394
G3 X1.8459 Y1.6715 I-0.011 J0.0259
G1 Y1.9091
G1 X1.9 Y1.9064
G3 X1.8915 Y1.9007 I0.0321 J-0.0575
G3 X1.8697 Y1.8546 I0.0346 J-0.0445
G1 Y1.4496
G3 Y1.4495 I0.0281 J0.0
G3 X1.8719 Y1.4056 I0.4975 J0.0022
G2 X1.8669 Y1.4145 I0.1874 J0.1089
G3 X1.8316 Y1.4277 I-0.025 J-0.013
G3 X1.8343 Y1.4353 I-0.115 J0.0464
G3 X1.8425 Y1.4682 I-0.1958 J0.0658
G3 Y1.4683 I-0.0277 J0.0045
G3 X1.8448 Y1.4858 I-0.381 J0.0592
G0 Z0.125
G0 X1.6108 Y1.4708
G0 Z0.0625
G1 F4.0 Z-0.02
G2 F8.0 X1.6071 Y1.4814 I0.1381 J0.054
G2 X1.5978 Y1.5472 I0.2113 J0.0633
G3 Y1.5481 I-0.0406 J0.0005
G2 X1.6064 Y1.6075 I0.1953 J0.0022
G2 X1.6158 Y1.6301 I0.1272 J-0.04
G3 X1.6098 Y1.6037 I0.2108 J-0.0623
G3 X1.6097 Y1.6035 I0.0401 J-0.0066
G3 X1.6049 Y1.5391 I0.3834 J-0.0611
G3 X1.6108 Y1.4708 I0.3632 J-0.003
G1 F4.0 X1.5992 Y1.4663
G2 F8.0 X1.5951 Y1.4778 I0.1498 J0.0586
G2 X1.5853 Y1.5473 I0.2233 J0.0669
G3 Y1.548 I-0.0281 J0.0003
G2 X1.5945 Y1.6112 I0.2078 J0.0024
G2 X1.6244 Y1.6642 I0.1391 J-0.0437
G3 X1.625 Y1.6649 I-0.0211 J0.0186
G2 X1.6881 Y1.7041 I0.0892 J-0.0734
G3 X1.6811 Y1.7002 I0.0412 J-0.0835
G3 X1.6807 Y1.6999 I0.0145 J-0.024
G3 X1.647 Y1.6676 I0.0616 J-0.0978
G3 X1.6303 Y1.6344 I0.1062 J-0.0742
G3 X1.6221 Y1.6016 I0.1964 J-0.0666
G3 Y1.6015 I0.0277 J-0.0046
G3 X1.6174 Y1.5391 I0.3711 J-0.0592
G3 X1.6235 Y1.4707 I0.3507 J-0.003
G3 X1.6505 Y1.402 I0.187 J0.0338
G3 X1.656 Y1.3939 I0.0795 J0.0479
G2 X1.6279 Y1.4189 I0.075 J0.1124
G3 X1.6277 Y1.4193 I-0.0215 J-0.0182
G2 X1.5992 Y1.4663 I0.1213 J0.1056
G1 F4.0 X1.5875 Y1.4617
G2 F8.0 X1.5832 Y1.4742 I0.1614 J0.0631
G2 X1.5729 Y1.5475 I0.2352 J0.0705
G3 Y1.5478 I-0.0156 J0.0002
G2 X1.5825 Y1.6149 I0.2203 J0.0025
G2 X1.615 Y1.6725 I0.1511 J-0.0474
G3 X1.6154 Y1.6729 I-0.0117 J0.0104
G2 X1.7156 Y1.7195 I0.0988 J-0.0814
G3 X1.7159 I0.0002 J0.0156
G2 X1.7721 Y1.7048 I0.0009 J-0.1109
G3 X1.7725 Y1.7046 I0.0078 J0.0136
G2 X1.8028 Y1.6672 I-0.0291 J-0.0545
G3 X1.8334 Y1.6715 I0.015 J0.0043
G1 Y1.9222
G1 X1.949 Y1.9164
G1 Y1.9031
G1 X1.9409
G3 X1.9206 Y1.901 I-0.0009 J-0.0878
G3 X1.8992 Y1.8908 I0.0115 J-0.0521
G3 X1.8822 Y1.8548 I0.0269 J-0.0346
G1 Y1.4496
G1 Y1.4495
G3 X1.8903 Y1.3633 I0.485 J0.0022
G1 X1.8877 Y1.3625
G2 X1.8559 Y1.4088 I0.1715 J0.1521
G3 X1.8292 Y1.4106 I-0.0139 J-0.0072
G2 X1.7851 Y1.3722 I-0.0997 J0.0702
G2 X1.7289 Y1.3602 I-0.0545 J0.1169
G3 X1.7285 I-0.0002 J-0.0156
G2 X1.6677 Y1.3729 I-0.0017 J0.1435
G2 X1.6184 Y1.4109 I0.0633 J0.1333
G3 X1.6182 Y1.411 I-0.0119 J-0.0101
G2 X1.5875 Y1.4617 I0.1307 J0.1138
G0 Z0.125
G0 X1.6362 Y1.4711
G0 Z0.0625
G1 F4.0 Z-0.02
G3 F8.0 X1.6611 Y1.4086 I0.1744 J0.0334
G3 X1.7306 Y1.3695 I0.0689 J0.0414
G3 X1.7738 Y1.3797 I0.0011 J0.0918
G3 X1.7741 Y1.3799 I-0.0072 J0.0139
G3 X1.807 Y1.4088 I-0.0472 J0.087
G3 X1.8225 Y1.4392 I-0.0904 J0.0653
G3 X1.8302 Y1.4702 I-0.184 J0.0619
G1 Y1.4703
G3 X1.8346 Y1.5309 I-0.3687 J0.0573
G3 X1.8323 Y1.5787 I-0.4541 J0.0019
G3 X1.8225 Y1.6272 I-0.237 J-0.0225
G3 X1.8068 Y1.6593 I-0.1137 J-0.0357
G3 X1.7744 Y1.6895 I-0.0861 J-0.0598
G3 X1.7741 Y1.6897 I-0.008 J-0.0134
G3 X1.7299 Y1.7012 I-0.0434 J-0.0763
G3 X1.6876 Y1.6895 I-0.0006 J-0.0806
G3 X1.6873 Y1.6894 I0.0081 J-0.0134
G3 X1.6573 Y1.6605 I0.055 J-0.0872
G3 X1.6421 Y1.6304 I0.0959 J-0.0671
G3 X1.6344 Y1.5996 I0.1845 J-0.0627
G1 Y1.5995
G3 X1.6299 Y1.5391 I0.3588 J-0.0572
G3 X1.6358 Y1.473 I0.3383 J-0.003
G3 X1.6362 Y1.4711 I0.1747 J0.0315
G0 Z0.125
G0 X1.6218 Y2.1602
G0 Z0.0625
G1 F4.0 Z-0.02
G3 F8.0 X1.6211 Y2.1606 I-0.0613 J-0.1053
G3 X1.6181 Y2.1622 I-0.0412 J-0.072
G3 X1.6218 Y2.1666 I-0.0194 J0.0204
G1 Y2.1602
G0 Z0.125
G0 Y2.2523
G0 Z0.0625
G1 F4.0 Z-0.02
G3 F8.0 X1.6209 Y2.2535 I-0.0231 J-0.016
G1 X1.6218
G1 Y2.2523
G1 F4.0 X1.6115 Y2.2452
G3 F8.0 X1.5987 Y2.252 I-0.0129 J-0.0089
G1 X1.5038
G1 Y2.266
G1 X1.6343
G1 Y2.1413
G1 X1.6306 Y2.1388
G3 X1.6149 Y2.1497 I-0.0701 J-0.0839
G3 X1.5806 Y2.1591 I-0.035 J-0.0611
G3 X1.5551 Y2.1558 I-0.0014 J-0.0892
G3 X1.5294 Y2.1395 I0.0138 J-0.0502
G3 X1.5289 Y2.1389 I0.0119 J-0.0102
G3 X1.5164 Y2.1109 I0.0509 J-0.0397
G3 X1.5139 Y2.0849 I0.1253 J-0.0249
G3 X1.52 Y2.0457 I0.1133 J-0.0025
G3 X1.5519 Y2.0111 I0.055 J0.0186
G3 X1.5523 Y2.0109 I0.0062 J0.0143
G3 X1.5815 Y2.0056 I0.0277 J0.0694
G3 X1.6014 Y2.0088 I-0.0009 J0.0694
G3 X1.6184 Y2.0158 I-0.0308 J0.0994
G3 X1.6185 I-0.0072 J0.0139
G3 X1.6312 Y2.0232 I-0.0847 J0.1608
G1 X1.6386 Y2.0077
G2 X1.617 Y1.9973 I-0.055 J0.086
G2 X1.5812 Y1.9915 I-0.0351 J0.1044
G3 X1.581 I-0.0001 J-0.0156
G2 X1.5583 Y1.9932 I-0.0007 J0.15
G1 X1.5582
G2 X1.5372 Y1.9987 I0.0144 J0.0981
G3 X1.5371 I-0.0056 J-0.0146
G2 X1.5056 Y2.0238 I0.0228 J0.0609
G2 X1.4944 Y2.05 I0.0733 J0.0469
G2 X1.4898 Y2.0903 I0.159 J0.0383
G3 Y2.0907 I-0.0156 J0.0002
G2 X1.4943 Y2.1249 I0.121 J0.0016
G2 X1.5096 Y2.1525 I0.0655 J-0.0184
G2 X1.5344 Y2.1684 I0.0436 J-0.0407
G2 X1.566 Y2.1731 I0.0302 J-0.0931
G3 X1.5666 I0.0002 J0.0156
G2 X1.5926 Y2.1682 I0.0015 J-0.0628
G3 X1.6143 Y2.1826 I0.0061 J0.0144
G1 Y2.2363
G3 X1.6115 Y2.2452 I-0.0156 J0.0
G0 Z0.125
G0 X1.3184 Y2.2224
G0 Z0.0625
G1 F4.0 Z-0.02
G3 F8.0 X1.3042 Y2.2091 I0.011 J-0.0259
G1 Y2.2342
G3 X1.3184 Y2.2224 I0.1752 J0.1972
G1 F4.0 X1.326 Y2.2323
G3 F8.0 X1.3309 Y2.2287 I0.1534 J0.1991
G3 X1.3749 Y2.2014 I0.1958 J0.2671
G1 Y2.1875
G1 X1.3374 Y2.21
G3 X1.3138 Y2.1966 I-0.008 J-0.0134
G1 Y1.9956
G1 X1.2917
G1 Y2.2643
G3 X1.326 Y2.2323 I0.1877 J0.1671
( Pocket2 )
S10000
G0 Z0.125
G0 X2.1458 Y0.698
G0 Z0.0625
G1 F4.0 Z-0.02
G1 F8.0 X2.1382
G3 X2.1411 Y0.7049 I-0.0148 J0.0102
G1 X2.1458 Y0.698
G1 F4.0 X2.1524 Y0.7025
G1 F8.0 X2.1609 Y0.69
G1 X2.0663
G1 Y0.6982
G1 X2.1234
G3 X2.1318 Y0.7137 I0.0 J0.01
G1 X2.0952 Y0.7695
G1 X2.0951
G2 X2.0853 Y0.7864 I0.1453 J0.096
G2 X2.0785 Y0.8037 I0.0807 J0.0417
G2 X2.0769 Y0.8149 I0.0424 J0.0117
G2 X2.0797 Y0.8301 I0.0385 J0.0006
G2 X2.0886 Y0.8416 I0.0272 J-0.0118
G2 X2.1052 Y0.8497 I0.0269 J-0.034
G2 X2.1253 Y0.852 I0.0192 J-0.0777
G3 X2.1255 I0.0001 J0.01
G2 X2.1502 Y0.845 I0.0004 J-0.0458
G3 X2.1504 Y0.8449 I0.0053 J0.0085
G2 X2.1622 Y0.8345 I-0.0216 J-0.0364
G1 X2.1561 Y0.8298
G3 X2.1479 Y0.8374 I-0.0407 J-0.0355
G3 X2.1477 Y0.8376 I-0.006 J-0.008
G3 X2.1242 Y0.845 I-0.0232 J-0.0324
G3 X2.1076 Y0.8423 I-0.001 J-0.0462
G3 X2.0921 Y0.8275 I0.0089 J-0.0248
G3 Y0.8273 I0.0093 J-0.0038
G3 X2.0899 Y0.8146 I0.0316 J-0.012
G3 X2.0919 Y0.8007 I0.054 J0.0007
G3 X2.0963 Y0.7884 I0.0799 J0.0222
G1 X2.0964 Y0.7883
G3 X2.1086 Y0.767 I0.1313 J0.061
G1 X2.1524 Y0.7025
G0 Z0.125
G0 X2.2557 Y0.8205
G0 Z0.0625
G1 F4.0 Z-0.02
G1 F8.0 Y0.8285
G3 X2.2605 Y0.8245 I0.103 J0.1202
G3 X2.2557 Y0.8205 I0.0089 J-0.0156
G1 F4.0 X2.2477
G1 F8.0 Y0.8474
G3 X2.2699 Y0.8275 I0.111 J0.1013
G3 X2.2958 Y0.8114 I0.117 J0.1596
G1 Y0.8047
G1 X2.2746 Y0.8175
G3 X2.2594 Y0.8089 I-0.0051 J-0.0086
G1 Y0.69
G1 X2.2477
G1 Y0.8205
G0 Z0.125
G0 X1.9675 Y0.8245
G0 Z0.0625
G1 F4.0 Z-0.02
G3 F8.0 X1.9627 Y0.8205 I0.0089 J-0.0156
G1 Y0.8285
G3 X1.9675 Y0.8245 I0.103 J0.1202
G1 F4.0 X1.9715 Y0.8176
G3 F8.0 X1.9664 Y0.8089 I0.0049 J-0.0087
G1 Y0.69
G1 X1.9547
G1 Y0.8474
G3 X1.9769 Y0.8275 I0.111 J0.1013
G3 X2.0028 Y0.8114 I0.117 J0.1596
G1 Y0.8047
G1 X1.9816 Y0.8175
G3 X1.9715 Y0.8176 I-0.0051 J-0.0086
G0 Z0.125
G0 X1.8588 Y0.6991
G0 Z0.0625
G1 F4.0 Z-0.02
G2 F8.0 X1.8589 Y0.699 I-0.0023 J-0.0024
G3 X1.8592 Y0.6986 I0.0129 J0.0125
G2 X1.8602 Y0.6963 I-0.0022 J-0.0022
G3 Y0.6957 I0.018 J-0.0004
G2 X1.8591 Y0.6931 I-0.0035 J-0.0001
G3 X1.8589 Y0.6929 I0.0127 J-0.0128
G2 X1.8565 Y0.6919 I-0.0024 J0.0023
G3 X1.8559 I-0.0003 J-0.018
G2 X1.8537 Y0.6928 I-0.0001 J0.0029
G3 X1.8532 Y0.6933 I-0.013 J-0.0124
G2 X1.8522 Y0.6957 I0.0023 J0.0024
G3 Y0.6963 I-0.018 J0.0003
G2 X1.8531 Y0.6985 I0.0029 J0.0001
G3 X1.8537 Y0.6991 I-0.0124 J0.013
G2 X1.8559 Y0.7 I0.0021 J-0.002
G3 X1.8565 I0.0003 J0.018
G2 X1.8588 Y0.6991 I0.0001 J-0.0033
G1 F4.0 X1.8643 Y0.7049
G2 F8.0 X1.8646 Y0.7045 I-0.0078 J-0.0082
G3 X1.8648 Y0.7043 I0.0072 J0.007
G2 X1.8682 Y0.6962 I-0.0078 J-0.0079
G3 Y0.6958 I0.01 J-0.0002
G2 X1.8648 Y0.6875 I-0.0115 J-0.0002
G3 X1.8646 Y0.6873 I0.007 J-0.0071
G2 X1.8564 Y0.6839 I-0.0081 J0.0079
G3 X1.856 I-0.0002 J-0.01
G2 X1.8479 Y0.6873 I-0.0002 J0.0109
G3 X1.8477 Y0.6875 I-0.0072 J-0.0069
G2 X1.8442 Y0.6958 I0.0079 J0.0081
G3 Y0.6962 I-0.01 J0.0002
G2 X1.8476 Y0.7043 I0.0109 J0.0002
G3 X1.8479 Y0.7046 I-0.0069 J0.0072
G2 X1.856 Y0.708 I0.0079 J-0.0075
G3 X1.8564 I0.0002 J0.01
G2 X1.8643 Y0.7049 I0.0002 J-0.0113
G0 Z0.125
G0 X1.7785 Y0.7207
G0 Z0.0625
G1 F4.0 Z-0.02
G2 F8.0 X1.7768 Y0.714 I-0.0516 J0.0095
G2 X1.7689 Y0.7017 I-0.028 J0.0093
G2 X1.7545 Y0.694 I-0.0238 J0.0268
G2 X1.7494 Y0.6928 I-0.018 J0.0663
G3 X1.7644 Y0.7023 I-0.0131 J0.0369
G3 X1.7646 Y0.7025 I-0.01 J0.0098
G3 X1.7756 Y0.7313 I-0.0295 J0.0278
G3 X1.7667 Y0.7587 I-0.0467 J0.0001
G2 X1.7735 Y0.7502 I-0.0324 J-0.0325
G3 X1.7736 Y0.7499 I0.0119 J0.0073
G2 X1.7793 Y0.731 I-0.0303 J-0.0195
G1 Y0.7309
G2 X1.7785 Y0.7207 I-0.0525 J-0.0008
G0 Z0.125
G0 X1.7514 Y0.7735
G0 Z0.0625
G1 F4.0 Z-0.02
G3 F8.0 X1.7449 Y0.7774 I-0.0383 J-0.0555
G3 X1.7409 Y0.7788 I-0.0066 J-0.0123
G3 X1.758 Y0.7919 I-0.0251 J0.0506
G3 X1.7652 Y0.8021 I-0.0352 J0.0326
G3 X1.7691 Y0.8169 I-0.0292 J0.0155
G3 X1.7639 Y0.8359 I-0.0327 J0.0012
G3 X1.7632 Y0.8368 I-0.0117 J-0.0076
G3 X1.7548 Y0.8443 I-0.0237 J-0.0181
G2 X1.7634 Y0.839 I-0.0145 J-0.0332
G3 X1.7635 I0.0089 J0.0108
G2 X1.7705 Y0.8297 I-0.0157 J-0.0192
G2 X1.7729 Y0.8173 I-0.0291 J-0.0119
G2 X1.7686 Y0.8026 I-0.0295 J0.0005
G3 X1.7684 Y0.8022 I0.012 J-0.0072
G2 X1.7568 Y0.7895 I-0.0329 J0.0184
G3 X1.7514 Y0.7735 I0.0079 J-0.0116
G0 Z0.125
G0 X1.7297 Y0.7763
G0 Z0.0625
G1 F4.0 Z-0.02
G3 F8.0 X1.7189 Y0.7691 I0.0644 J-0.1088
G3 X1.7208 Y0.7804 I-0.0116 J0.0079
G3 X1.7259 Y0.7775 I0.0214 J0.0312
G3 X1.7297 Y0.7763 I0.006 J0.0126
G0 Z0.125
G0 X1.7121 Y0.7637
G0 Z0.0625
G1 F4.0 Z-0.02
G3 F8.0 X1.6989 Y0.7478 I0.0421 J-0.0482
G3 X1.6988 Y0.7476 I0.0121 J-0.0071
G3 X1.6938 Y0.729 I0.0339 J-0.0192
G3 X1.7065 Y0.7005 I0.036 J-0.001
G3 X1.7182 Y0.6935 I0.026 J0.0305
G2 X1.7162 Y0.6941 I0.0163 J0.0658
G2 X1.7012 Y0.7021 I0.0107 J0.0379
G2 X1.6928 Y0.7144 I0.0204 J0.0231
G2 X1.69 Y0.7309 I0.0441 J0.0158
G2 X1.6918 Y0.7396 I0.0231 J-0.0003
G1 X1.6919 Y0.7397
G2 X1.6973 Y0.7493 I0.0453 J-0.019
G3 X1.6975 Y0.7496 I-0.0114 J0.0082
G2 X1.705 Y0.7585 I0.0473 J-0.0324
G1 Y0.7586
G2 X1.7121 Y0.7637 I0.0216 J-0.0224
G0 Z0.125
G0 X1.7089 Y0.793
G0 Z0.0625
G1 F4.0 Z-0.02
G2 F8.0 X1.708 Y0.7939 I0.0166 J0.0171
G2 X1.7023 Y0.8013 I0.0356 J0.0333
G3 X1.7022 Y0.8015 I-0.0119 J-0.0074
G2 X1.6981 Y0.8097 I0.0357 J0.0229
G2 X1.6967 Y0.8171 I0.0205 J0.0076
G1 Y0.8172
G2 X1.699 Y0.8298 I0.0341 J0.0005
G2 X1.7057 Y0.8392 I0.0228 J-0.0093
G2 X1.7182 Y0.8459 I0.0209 J-0.0241
G2 X1.7206 Y0.8465 I0.0157 J-0.0579
G3 X1.7115 Y0.8412 I0.0132 J-0.0332
G3 X1.7112 Y0.8409 I0.0088 J-0.0109
G3 X1.7006 Y0.8171 I0.0194 J-0.0228
G3 X1.7031 Y0.8043 I0.0379 J0.0008
G3 X1.7079 Y0.7945 I0.0535 J0.0202
G3 X1.7089 Y0.793 I0.0442 J0.0267
G1 F4.0 X1.7061 Y0.7901
G2 F8.0 X1.7051 Y0.7911 I0.0194 J0.0199
G1 Y0.7912
G2 X1.6989 Y0.7992 I0.0385 J0.036
G3 X1.6988 Y0.7993 I-0.0085 J-0.0053
G2 X1.6944 Y0.8083 I0.039 J0.025
G1 X1.6943 Y0.8084
G2 X1.6927 Y0.8171 I0.0243 J0.009
G2 X1.6952 Y0.8313 I0.0381 J0.0006
G2 X1.7031 Y0.8422 I0.0266 J-0.0107
G2 X1.7172 Y0.8498 I0.0235 J-0.0271
G2 X1.7347 Y0.852 I0.0168 J-0.0618
G3 X1.735 I0.0001 J0.01
G2 X1.7518 Y0.8497 I0.0006 J-0.0577
G2 X1.766 Y0.8421 I-0.0116 J-0.0385
G2 X1.7742 Y0.8312 I-0.0182 J-0.0223
G2 X1.7769 Y0.8172 I-0.0328 J-0.0135
G2 X1.7721 Y0.8005 I-0.0335 J0.0005
G3 X1.7719 Y0.8002 I0.0086 J-0.0052
G2 X1.759 Y0.7862 I-0.0364 J0.0204
G3 X1.7596 Y0.7693 I0.0056 J-0.0083
G2 X1.7769 Y0.7523 I-0.0253 J-0.043
G3 X1.777 Y0.7521 I0.0085 J0.0052
G2 X1.7833 Y0.731 I-0.0337 J-0.0216
G2 X1.7806 Y0.7128 I-0.0565 J-0.0008
G2 X1.7716 Y0.6988 I-0.0318 J0.0106
G2 X1.7556 Y0.6901 I-0.0265 J0.0298
G2 X1.7356 Y0.6876 I-0.0191 J0.0702
G3 X1.7354 I-0.0001 J-0.01
G2 X1.7152 Y0.6902 I-0.0009 J0.0718
G2 X1.6986 Y0.6991 I0.0118 J0.0417
G2 X1.689 Y0.713 I0.0231 J0.0262
G2 X1.686 Y0.731 I0.0479 J0.0172
G2 X1.6882 Y0.7412 I0.0271 J-0.0004
G2 X1.694 Y0.7517 I0.049 J-0.0205
G3 X1.6942 Y0.7519 I-0.0081 J0.0058
G2 X1.7023 Y0.7614 I0.0506 J-0.0347
G2 X1.7116 Y0.7679 I0.0244 J-0.0252
G3 X1.7121 Y0.7857 I-0.0043 J0.009
G2 X1.7061 Y0.7901 I0.0134 J0.0244
G1 F4.0 X1.7126 Y0.7946
G3 F8.0 X1.7178 Y0.7881 I0.0395 J0.0267
G3 X1.7276 Y0.7811 I0.0244 J0.0235
G3 X1.7357 Y0.7809 I0.0043 J0.009
G3 X1.7551 Y0.7946 I-0.02 J0.0486
G3 X1.7617 Y0.804 I-0.0323 J0.0299
G3 X1.7651 Y0.817 I-0.0256 J0.0137
G3 X1.7605 Y0.8338 I-0.0287 J0.0011
G3 X1.7601 Y0.8344 I-0.0084 J-0.0054
G3 X1.7444 Y0.8441 I-0.0205 J-0.0157
G3 X1.735 Y0.845 I-0.0092 J-0.0431
G3 X1.714 Y0.8381 I-0.0012 J-0.0317
G3 X1.7137 Y0.8379 I0.0063 J-0.0078
G3 X1.7046 Y0.8172 I0.0168 J-0.0198
G3 X1.7068 Y0.8057 I0.0339 J0.0007
G3 X1.7113 Y0.7966 I0.0498 J0.0188
G3 X1.7126 Y0.7946 I0.0408 J0.0246
G0 Z0.125
G0 X1.728 Y0.7706
G0 Z0.0625
G1 F4.0 Z-0.02
G3 F8.0 X1.7168 Y0.7624 I0.0662 J-0.103
G3 X1.7024 Y0.7458 I0.0373 J-0.047
G3 X1.7023 Y0.7457 I0.0086 J-0.0051
G3 X1.6978 Y0.7289 I0.0305 J-0.0173
G3 X1.7091 Y0.7035 I0.0321 J-0.0009
G3 X1.722 Y0.6964 I0.0234 J0.0274
G1 X1.7221
G3 X1.7354 Y0.6945 I0.013 J0.0437
G3 X1.7615 Y0.7051 I0.001 J0.0352
G3 X1.7617 Y0.7053 I-0.0072 J0.007
G3 X1.7716 Y0.7313 I-0.0266 J0.0251
G3 X1.7627 Y0.7575 I-0.0427 J0.0001
G3 X1.7625 Y0.7577 I-0.0079 J-0.0061
G3 X1.743 Y0.7739 I-0.0495 J-0.0397
G3 X1.7333 Y0.7738 I-0.0047 J-0.0088
G3 X1.728 Y0.7706 I0.0609 J-0.1062
( Pocket4 )
S10000
G0 Z0.125
G0 X2.5774 Y1.0388
G0 Z0.0625
G1 F4.0 Z-0.02
G1 F8.0 X2.5874 Y1.0638
G3 X2.5933 Y1.0477 I0.0242 J-0.0004
G3 X2.5774 Y1.0388 I0.003 J-0.024
G0 Z0.125
G0 X2.6943 Y1.0476
G0 Z0.0625
G1 F4.0 Z-0.02
G3 F8.0 X2.6999 Y1.0596 I-0.0182 J0.0159
G1 X2.7069 Y1.0416
G3 X2.6943 Y1.0476 I-0.0162 J-0.0179
G0 Z0.125
G0 X2.6561 Y1.1721
G0 Z0.0625
G1 F4.0 Z-0.02
G3 F8.0 X2.6303 Y1.1709 I-0.012 J-0.021
G1 X2.6347 Y1.182
G1 X2.6522
G1 X2.6561 Y1.1721
G1 F4.0 X2.6539 Y1.1683
G3 F8.0 X2.6256 Y1.158 I-0.0098 J-0.0172
G1 X2.593 Y1.0703
G3 X2.6116 Y1.0437 I0.0185 J-0.0069
G1 X2.676
G3 X2.6946 Y1.0702 I0.0 J0.0198
G1 X2.6627 Y1.1579
G3 X2.6539 Y1.1683 I-0.0186 J-0.0068
G1 F4.0 X2.6496 Y1.1607
G3 F8.0 X2.6338 Y1.1549 I-0.0054 J-0.0096
G1 X2.6013 Y1.0673
G3 X2.6116 Y1.0525 I0.0103 J-0.0038
G1 X2.676
G3 X2.6864 Y1.0672 I0.0 J0.011
G1 X2.6545 Y1.1549
G3 X2.6496 Y1.1607 I-0.0103 J-0.0038
G1 F4.0 X2.6632 Y1.166
G1 F8.0 X2.7318 Y0.9898
G1 X2.7241
G1 X2.7093 Y1.0304
G3 X2.6907 Y1.0435 I-0.0186 J-0.0068
G1 X2.5963
G3 X2.5778 Y1.0308 I0.0 J-0.0198
G1 X2.562 Y0.9898
G1 X2.553
G1 X2.6317 Y1.1864
G1 X2.6552
G1 X2.6632 Y1.166
G1 F4.0 X2.6714 Y1.1692
G1 F8.0 X2.7447 Y0.981
G1 X2.7179
G1 X2.701 Y1.0274
G3 X2.6907 Y1.0347 I-0.0103 J-0.0038
G1 X2.5963
G3 X2.586 Y1.0276 I0.0 J-0.011
G1 X2.5681 Y0.981
G1 X2.54
G1 X2.6258 Y1.1952
G1 X2.6613
G1 X2.6714 Y1.1692
G0 Z0.125
G0 X2.4749 Y1.0997
G0 Z0.0625
G1 F4.0 Z-0.02
G1 F8.0 Y1.0886
G3 X2.4739 Y1.0929 I-0.113 J-0.0247
G3 X2.4735 Y1.0943 I-0.0234 J-0.0061
G3 X2.4724 Y1.0973 I-0.0543 J-0.0177
G3 X2.4749 Y1.0997 I-0.0153 J0.0187
G1 F4.0 X2.4717 Y1.1026
G3 F8.0 X2.4769 Y1.116 I-0.0146 J0.0134
G1 Y1.1213
G1 X2.4793
G1 Y0.9898
G1 X2.4736
G1 Y1.0475
G3 X2.4731 Y1.0682 I-0.3484 J0.0012
G3 X2.4696 Y1.0918 I-0.1112 J-0.0043
G3 X2.4693 Y1.093 I-0.0192 J-0.005
G3 X2.467 Y1.0988 I-0.0501 J-0.0163
G3 X2.4717 Y1.1026 I-0.0099 J0.0171
G1 F4.0 X2.4652 Y1.1086
G3 F8.0 X2.4681 Y1.116 I-0.0081 J0.0074
G1 Y1.1301
G1 X2.4881
G1 Y0.981
G1 X2.4648
G1 Y1.0475
G3 X2.4643 Y1.0678 I-0.3396 J0.0012
G3 X2.4611 Y1.0896 I-0.1024 J-0.0039
G3 X2.4609 Y1.0902 I-0.0106 J-0.0028
G3 X2.4511 Y1.1067 I-0.0417 J-0.0136
G3 X2.4652 Y1.1086 I0.0059 J0.0093
G0 Z0.125
G0 X2.3941 Y1.1248
G0 Z0.0625
G1 F4.0 Z-0.02
G3 F8.0 X2.3898 Y1.1223 I0.0216 J-0.0411
G3 X2.3895 Y1.1221 I0.011 J-0.0164
G3 X2.3725 Y1.0993 I0.0255 J-0.0368
G3 X2.3724 Y1.099 I0.0188 J-0.0062
G3 X2.3698 Y1.0863 I0.0608 J-0.0188
G3 X2.369 Y1.0763 I0.1639 J-0.0182
G3 X2.3686 Y1.0573 I0.3674 J-0.0178
G1 Y0.9898
G1 X2.3629
G1 Y1.0763
G1 Y1.0764
G2 X2.3634 Y1.0904 I0.2042 J0.0007
G3 Y1.0905 I-0.0198 J0.0013
G2 X2.365 Y1.1025 I0.0749 J-0.0043
G2 X2.3701 Y1.1136 I0.0279 J-0.0062
G2 X2.3805 Y1.1211 I0.0195 J-0.016
G3 X2.3811 Y1.1213 I-0.0072 J0.0184
G2 X2.3941 Y1.1248 I0.0187 J-0.0435
G1 F4.0 X2.393 Y1.1336
G3 F8.0 X2.3776 Y1.1294 I0.0068 J-0.0558
G2 X2.3773 Y1.1293 I-0.0044 J0.0101
G3 X2.3632 Y1.119 I0.0124 J-0.0317
G3 X2.3565 Y1.1044 I0.0297 J-0.0227
G1 X2.3564
G3 X2.3546 Y1.091 I0.0818 J-0.0182
G1 Y1.0909
G3 X2.3541 Y1.0764 I0.2126 J-0.0139
G1 Y1.0763
G1 Y0.981
G1 X2.3774
G1 Y1.0573
G2 X2.3778 Y1.0758 I0.3591 J0.0012
G1 Y1.0759
G2 X2.3786 Y1.0854 I0.1559 J-0.0077
G2 X2.3808 Y1.0964 I0.0546 J-0.0053
G2 X2.3809 Y1.0965 I0.0105 J-0.0033
G2 X2.3946 Y1.1149 I0.0342 J-0.0113
G2 X2.3947 Y1.115 I0.0063 J-0.009
G2 X2.4165 Y1.1213 I0.021 J-0.0313
G2 X2.4438 Y1.113 I0.0004 J-0.0473
G2 X2.448 Y1.1097 I-0.0246 J-0.0364
G3 X2.4272 Y1.1277 I-0.0524 J-0.0396
G3 X2.4008 Y1.134 I-0.0258 J-0.0496
G2 X2.4005 I-0.0001 J0.011
G3 X2.393 Y1.1336 I-0.0007 J-0.0562
G0 Z0.125
G0 X2.2729 Y1.1231
G0 Z0.0625
G1 F4.0 Z-0.02
G3 F8.0 X2.2724 Y1.1224 I0.0222 J-0.018
G3 X2.2719 Y1.1231 I-0.0227 J-0.0174
G3 X2.2724 Y1.1238 I-0.0222 J0.018
G3 X2.2729 Y1.1231 I0.0227 J0.0174
G1 F4.0 X2.2798 Y1.1286
G3 F8.0 X2.287 Y1.1231 I0.0154 J0.0125
G3 X2.2753 Y1.105 I0.0081 J-0.018
G1 Y1.0304
G2 X2.2751 Y1.015 I-0.5141 J-0.0009
G3 Y1.0148 I0.0198 J-0.0006
G2 X2.2741 Y1.0013 I-0.1085 J0.0017
G3 X2.274 Y1.001 I0.0196 J-0.0028
G2 X2.2712 Y0.9923 I-0.0241 J0.003
G2 X2.2658 Y0.9887 I-0.0105 J0.0096
G3 X2.2656 Y0.9886 I0.0071 J-0.0185
G2 X2.2511 Y0.9859 I-0.014 J0.0354
G3 X2.2505 I-0.0003 J-0.0198
G2 X2.2489 I-0.0011 J0.0705
G3 X2.2559 Y0.9895 I-0.0114 J0.0309
G3 X2.2562 Y0.9897 I-0.0111 J0.0164
G3 X2.2679 Y1.006 I-0.0174 J0.0248
G3 X2.2685 Y1.0093 I-0.019 J0.0055
G3 X2.2694 Y1.0236 I-0.1225 J0.0144
G3 X2.2695 Y1.0361 I-0.6989 J0.0115
G1 Y1.105
G3 X2.2578 Y1.1231 I-0.0198 J0.0
G3 X2.2695 Y1.1411 I-0.0081 J0.018
G1 Y1.1671
G1 X2.2753 Y1.1637
G1 Y1.1411
G3 X2.2798 Y1.1286 I0.0198 J0.0
G1 F4.0 X2.2866 Y1.1342
G3 F8.0 X2.2951 Y1.1301 I0.0085 J0.0069
G1 X2.3049
G1 Y1.116
G1 X2.2951
G3 X2.2841 Y1.105 I0.0 J-0.011
G1 Y1.0304
G2 X2.2839 Y1.0148 I-0.5229 J-0.0009
G3 Y1.0146 I0.011 J-0.0003
G2 X2.2828 Y1.0001 I-0.1173 J0.0018
G3 Y0.9999 I0.0109 J-0.0015
G2 X2.2784 Y0.9872 I-0.0328 J0.0042
G2 X2.2689 Y0.9804 I-0.0176 J0.0148
G3 X2.2688 I0.0039 J-0.0103
G2 X2.251 Y0.9771 I-0.0172 J0.0436
G3 X2.2506 I-0.0002 J-0.011
G2 X2.2269 Y0.9804 I-0.0013 J0.0793
G1 X2.2284 Y0.9937
G3 X2.2367 Y0.9927 I0.0101 J0.0485
G3 X2.2368 I0.0004 J0.011
G3 X2.251 Y0.9968 I0.0006 J0.0242
G3 X2.2512 Y0.9969 I-0.0062 J0.0091
G3 X2.2594 Y1.0085 I-0.0124 J0.0176
G3 X2.2598 Y1.0103 I-0.0106 J0.0031
G3 X2.2606 Y1.0237 I-0.1138 J0.0134
G3 X2.2607 Y1.0361 I-0.6901 J0.0114
G1 Y1.105
G3 X2.2497 Y1.116 I-0.011 J0.0
G1 X2.2297
G1 Y1.1301
G1 X2.2497
G3 X2.2607 Y1.1411 I0.0 J0.011
G1 Y1.1824
G1 X2.2841 Y1.1688
G1 Y1.1411
G3 X2.2866 Y1.1342 I0.011 J0.0
G0 Z0.125
G0 X2.1675 Y1.1213
G0 Z0.0625
G1 F4.0 Z-0.02
G1 F8.0 Y0.9898
G1 X2.1618
G1 Y1.1213
G1 X2.1675
G1 F4.0 X2.1763
G1 F8.0 Y0.981
G1 X2.153
G1 Y1.1301
G1 X2.1763
G1 Y1.1213
G0 Z0.125
G0 X2.1675 Y1.1841
G0 Z0.0625
G1 F4.0 Z-0.02
G1 F8.0 X2.1618
G1 Y1.1864
G1 X2.1675
G1 Y1.1841
G1 F4.0 X2.1763
G1 F8.0 Y1.1753
G1 X2.153
G1 Y1.1952
G1 X2.1763
G1 Y1.1841
G0 Z0.125
G0 X2.0748 Y1.1011
G0 Z0.0625
G1 F4.0 Z-0.02
G1 F8.0 Y1.0899
G3 X2.0734 Y1.0951 I-0.1003 J-0.0232
G3 X2.0732 Y1.0958 I-0.0233 J-0.0067
G3 X2.0722 Y1.0987 I-0.0529 J-0.017
G3 X2.0748 Y1.1011 I-0.0149 J0.019
G1 F4.0 X2.0792
G1 F8.0 Y0.9898
G1 X2.0735
G1 Y1.0531
G3 X2.0729 Y1.0721 I-0.2583 J0.001
G3 X2.0692 Y1.0939 I-0.0984 J-0.0055
G3 X2.069 Y1.0945 I-0.019 J-0.0055
G3 X2.0667 Y1.1004 I-0.0488 J-0.0156
G3 X2.0771 Y1.1178 I-0.0095 J0.0174
G1 Y1.1213
G1 X2.0792
G1 Y1.1011
G0 Z0.125
G0 X1.9748 Y1.1031
G0 Z0.0625
G1 F4.0 Z-0.02
G3 F8.0 Y1.1028 I0.0428 J-0.0128
G3 X1.9747 Y1.1027 I0.0232 J-0.0068
G3 X1.9724 Y1.0904 I0.064 J-0.0183
G3 X1.972 Y1.0854 I0.1633 J-0.0168
G3 X1.9698 Y1.0943 I-0.1015 J-0.0203
G3 X1.9688 Y1.0975 I-0.0542 J-0.0159
G3 X1.9748 Y1.1031 I-0.0132 J0.0203
G1 F4.0 X1.9713 Y1.1057
G3 F8.0 X1.9731 Y1.1084 I-0.0157 J0.012
G2 X1.9851 Y1.1209 I0.0285 J-0.0153
G2 X1.9972 Y1.1248 I0.0175 J-0.0336
G3 X1.9951 Y1.1236 I0.0209 J-0.0381
G3 X1.9939 Y1.1228 I0.0105 J-0.0168
G3 X1.979 Y1.1016 I0.0238 J-0.0325
G3 Y1.1015 I0.019 J-0.0056
G3 X1.9768 Y1.0899 I0.0598 J-0.0171
G3 X1.9761 Y1.0809 I0.159 J-0.0164
G1 Y1.0808
G3 X1.9758 Y1.0638 I0.3605 J-0.0161
G1 Y0.9898
G1 X1.9701
G1 Y1.0521
G3 X1.9694 Y1.0713 I-0.242 J0.001
G3 X1.9656 Y1.093 I-0.0989 J-0.0062
G1 Y1.0931
G1 Y1.093
G3 X1.9632 Y1.0995 I-0.05 J-0.0147
G3 X1.9713 Y1.1057 I-0.0076 J0.0183
G0 Z0.125
G0 X1.8944 Y1.1245
G0 Z0.0625
G1 F4.0 Z-0.02
G3 F8.0 X1.8807 Y1.1115 I0.0209 J-0.0357
G3 X1.88 Y1.1103 I0.0166 J-0.0109
G3 X1.875 Y1.0965 I0.0395 J-0.022
G3 X1.8736 Y1.0862 I0.0941 J-0.0187
G1 X1.8735
G3 X1.8728 Y1.0678 I0.2005 J-0.0173
G1 Y0.9898
G1 X1.8671
G1 Y1.0794
G3 Y1.0795 I-0.0198 J0.0
G2 X1.8678 Y1.0955 I0.1601 J0.0009
G3 X1.8679 Y1.0958 I-0.0197 J0.0019
G2 X1.8704 Y1.1076 I0.0437 J-0.0033
G2 X1.8815 Y1.1202 I0.0245 J-0.0105
G2 X1.8911 Y1.1239 I0.0167 J-0.0287
G2 X1.8944 Y1.1245 I0.0117 J-0.0538
G1 F4.0 X1.8988 Y1.1169
G3 F8.0 X1.8881 Y1.1067 I0.0164 J-0.0281
G3 X1.8877 Y1.106 I0.0092 J-0.006
G3 X1.8837 Y1.0948 I0.0318 J-0.0177
G3 X1.8823 Y1.0855 I0.0855 J-0.0171
G1 Y1.0854
G3 X1.8816 Y1.0678 I0.1918 J-0.0165
G1 Y0.981
G1 X1.8583
G1 Y1.0794
G1 Y1.0795
G2 X1.8591 Y1.0963 I0.1689 J0.0009
G3 Y1.0965 I-0.011 J0.001
G2 X1.8622 Y1.1108 I0.0525 J-0.004
G2 X1.877 Y1.1278 I0.0327 J-0.0137
G2 X1.8893 Y1.1325 I0.0212 J-0.0362
G2 X1.9033 Y1.134 I0.0136 J-0.0624
G3 X1.9035 I0.0001 J0.011
G2 X1.9261 Y1.1285 I0.0002 J-0.0487
G2 X1.947 Y1.1109 I-0.0328 J-0.0601
G3 X1.9653 Y1.1126 I0.0086 J0.0068
G2 X1.9808 Y1.1286 I0.0362 J-0.0194
G2 X2.0037 Y1.134 I0.0218 J-0.0413
G3 X2.004 I0.0003 J0.011
G2 X2.0286 Y1.128 I0.0004 J-0.0514
G2 X2.0487 Y1.1109 I-0.033 J-0.0593
G3 X2.0683 Y1.1178 I0.0086 J0.0068
G1 Y1.1301
G1 X2.088
G1 Y0.981
G1 X2.0647
G1 Y1.0531
G3 X2.0641 Y1.0716 I-0.2495 J0.001
G3 X2.0608 Y1.0915 I-0.0896 J-0.0049
G3 X2.0607 Y1.0918 I-0.0106 J-0.003
G3 X2.0443 Y1.1138 I-0.0404 J-0.0129
G3 X2.0195 Y1.1213 I-0.0246 J-0.0365
G3 X1.9997 Y1.1161 I-0.0014 J-0.0347
G3 X1.9991 Y1.1157 I0.0058 J-0.0093
G3 X1.9874 Y1.0991 I0.0186 J-0.0254
G1 Y1.099
G3 X1.9856 Y1.0891 I0.0513 J-0.0147
G3 X1.9849 Y1.0805 I0.1502 J-0.0155
G1 Y1.0804
G3 X1.9846 Y1.0638 I0.3517 J-0.0157
G1 Y0.981
G1 X1.9613
G1 Y1.0522
G3 X1.9606 Y1.0707 I-0.2332 J0.001
G3 X1.9571 Y1.0906 I-0.0901 J-0.0056
G3 X1.9409 Y1.1135 I-0.0415 J-0.0122
G3 X1.917 Y1.1213 I-0.0244 J-0.034
G3 X1.8988 Y1.1169 I-0.0017 J-0.0325
G0 Z0.125
G0 X1.7892 Y1.0806
G0 Z0.0625
G1 F4.0 Z-0.02
G2 F8.0 X1.7929 Y1.0579 I-0.0691 J-0.0229
G2 X1.7908 Y1.0361 I-0.108 J-0.0007
G2 X1.7841 Y1.0172 I-0.0679 J0.0135
G2 X1.7605 Y0.9946 I-0.047 J0.0253
G3 X1.7603 Y0.9945 I0.0087 J-0.0178
G2 X1.7571 Y0.9929 I-0.036 J0.0715
G3 X1.7692 Y1.0037 I-0.0321 J0.0485
G3 X1.783 Y1.0301 I-0.0489 J0.0423
G3 X1.7861 Y1.0556 I-0.0955 J0.0245
G3 X1.783 Y1.0811 I-0.0986 J0.001
G3 X1.7692 Y1.1074 I-0.0627 J-0.0159
G3 X1.7566 Y1.1185 I-0.0443 J-0.0377
G2 X1.7607 Y1.1165 I-0.0308 J-0.0675
G2 X1.7839 Y1.0926 I-0.0272 J-0.0497
G3 X1.7841 Y1.0922 I0.0176 J0.009
G2 X1.7892 Y1.0806 I-0.0641 J-0.0346
G0 Z0.125
G0 X1.6914 Y1.1179
G0 Z0.0625
G1 F4.0 Z-0.02
G3 F8.0 X1.6797 Y1.1074 I0.0324 J-0.0478
G3 X1.666 Y1.0813 I0.0489 J-0.0423
G3 X1.6629 Y1.0559 I0.0939 J-0.0245
G3 X1.6659 Y1.0303 I0.1003 J-0.001
G3 X1.6797 Y1.0037 I0.0628 J0.0157
G3 X1.69 Y0.9942 I0.0441 J0.0372
G2 X1.6755 Y1.0054 I0.0306 J0.0549
G3 X1.6753 Y1.0055 I-0.0142 J-0.0138
G2 X1.6606 Y1.0282 I0.0464 J0.046
G2 X1.6559 Y1.0558 I0.073 J0.0267
G3 Y1.0563 I-0.0198 J0.0002
G2 X1.6605 Y1.0835 I0.0768 J0.0009
G2 X1.6749 Y1.1057 I0.0593 J-0.0226
G3 X1.6751 Y1.1059 I-0.014 J0.014
G2 X1.6914 Y1.1179 I0.0443 J-0.0429
G1 F4.0 X1.6874 Y1.1258
G2 F8.0 X1.694 Y1.1287 I0.032 J-0.0628
G2 X1.7244 Y1.134 I0.0294 J-0.0792
G3 X1.7247 I0.0001 J0.011
G2 X1.7649 Y1.1242 I0.0011 J-0.083
G2 X1.7918 Y1.0966 I-0.0314 J-0.0574
G3 X1.7919 Y1.0964 I0.0098 J0.005
G2 X1.8017 Y1.0579 I-0.0718 J-0.0388
G2 X1.7994 Y1.0344 I-0.1168 J-0.0007
G2 X1.7919 Y1.013 I-0.0765 J0.0152
G2 X1.7644 Y0.9867 I-0.0547 J0.0295
G3 X1.7642 Y0.9866 I0.0048 J-0.0099
G2 X1.7242 Y0.9771 I-0.0399 J0.0794
G3 X1.7241 I0.0 J-0.011
G2 X1.6941 Y0.9825 I-0.0009 J0.0814
G2 X1.6691 Y0.9992 I0.0266 J0.0665
G3 X1.669 Y0.9993 I-0.0079 J-0.0076
G2 X1.6524 Y1.0251 I0.0526 J0.0522
G2 X1.6471 Y1.0559 I0.0812 J0.0298
G3 Y1.0562 I-0.011 J0.0001
G2 X1.6523 Y1.0866 I0.0856 J0.001
G2 X1.6687 Y1.1119 I0.0675 J-0.0257
G3 X1.6688 Y1.112 I-0.0078 J0.0078
G2 X1.6874 Y1.1258 I0.0506 J-0.0491
G0 Z0.125
G0 X1.697 Y1.1111
G0 Z0.0625
G1 F4.0 Z-0.02
G3 F8.0 X1.6864 Y1.1017 I0.0268 J-0.0409
G3 X1.6745 Y1.0791 I0.0422 J-0.0366
G3 X1.6716 Y1.0559 I0.0854 J-0.0223
G3 X1.6744 Y1.0324 I0.0915 J-0.001
G3 X1.6864 Y1.0094 I0.0543 J0.0135
G3 X1.7244 Y0.992 I0.0374 J0.0315
G3 X1.7625 Y1.0094 I0.0005 J0.0494
G3 X1.7745 Y1.0322 I-0.0423 J0.0366
G3 X1.7773 Y1.0556 I-0.087 J0.0223
G3 X1.7745 Y1.0789 I-0.0899 J0.001
G3 X1.7625 Y1.1017 I-0.0542 J-0.0138
G3 X1.7244 Y1.1191 I-0.0376 J-0.032
G3 X1.697 Y1.1111 I-0.0006 J-0.0489
G0 Z0.125
G0 X1.5768 Y1.0997
G0 Z0.0625
G1 F4.0 Z-0.02
G1 F8.0 Y1.0886
G3 X1.5757 Y1.0929 I-0.113 J-0.0247
G3 X1.5753 Y1.0943 I-0.0234 J-0.0061
G3 X1.5742 Y1.0973 I-0.0543 J-0.0177
G3 X1.5768 Y1.0997 I-0.0153 J0.0187
G1 F4.0 X1.5812
G1 F8.0 Y0.9898
G1 X1.5755
G1 Y1.0475
G3 X1.5749 Y1.0682 I-0.3484 J0.0012
G3 X1.5715 Y1.0918 I-0.1112 J-0.0043
G3 X1.5711 Y1.093 I-0.0192 J-0.005
G3 X1.5688 Y1.0988 I-0.0501 J-0.0163
G3 X1.5787 Y1.116 I-0.0099 J0.0171
G1 Y1.1213
G1 X1.5812
G1 Y1.0997
G1 F4.0 X1.59
G1 F8.0 Y0.981
G1 X1.5667
G1 Y1.0475
G3 X1.5661 Y1.0678 I-0.3396 J0.0012
G3 X1.5629 Y1.0896 I-0.1024 J-0.0039
G3 X1.5628 Y1.0902 I-0.0106 J-0.0028
G3 X1.553 Y1.1067 I-0.0417 J-0.0136
G3 X1.5699 Y1.116 I0.0059 J0.0093
G1 Y1.1301
G1 X1.59
G1 Y1.0997
G0 Z0.125
G0 X1.4959 Y1.1248
G0 Z0.0625
G1 F4.0 Z-0.02
G3 F8.0 X1.4916 Y1.1223 I0.0216 J-0.0411
G3 X1.4914 Y1.1221 I0.011 J-0.0164
G3 X1.4743 Y1.0993 I0.0255 J-0.0368
G3 X1.4742 Y1.099 I0.0188 J-0.0062
G3 X1.4717 Y1.0863 I0.0608 J-0.0188
G3 X1.4709 Y1.0763 I0.1639 J-0.0182
G3 X1.4705 Y1.0573 I0.3674 J-0.0178
G1 Y0.9898
G1 X1.4648
G1 Y1.0763
G1 Y1.0764
G2 X1.4652 Y1.0904 I0.2042 J0.0007
G3 Y1.0905 I-0.0198 J0.0013
G2 X1.4669 Y1.1025 I0.0749 J-0.0043
G2 X1.472 Y1.1136 I0.0279 J-0.0062
G2 X1.4823 Y1.1211 I0.0195 J-0.016
G3 X1.4829 Y1.1213 I-0.0072 J0.0184
G2 X1.4959 Y1.1248 I0.0187 J-0.0435
G1 F4.0 X1.5 Y1.1171
G2 F8.0 X1.5184 Y1.1213 I0.0175 J-0.0334
G2 X1.5456 Y1.113 I0.0004 J-0.0473
G2 X1.5498 Y1.1097 I-0.0246 J-0.0364
G3 X1.5291 Y1.1277 I-0.0524 J-0.0396
G3 X1.5026 Y1.134 I-0.0258 J-0.0496
G2 X1.5024 I-0.0001 J0.011
G3 X1.4795 Y1.1294 I-0.0007 J-0.0562
G2 X1.4791 Y1.1293 I-0.0044 J0.0101
G3 X1.4651 Y1.119 I0.0124 J-0.0317
G3 X1.4583 Y1.1044 I0.0297 J-0.0227
G3 X1.4564 Y1.091 I0.0818 J-0.0182
G1 Y1.0909
G3 X1.456 Y1.0764 I0.2126 J-0.0139
G1 Y1.0763
G1 Y0.981
G1 X1.4793
G1 Y1.0573
G2 X1.4797 Y1.0758 I0.3591 J0.0012
G1 Y1.0759
G2 X1.4804 Y1.0854 I0.1559 J-0.0077
G2 X1.4827 Y1.0964 I0.0546 J-0.0053
G2 Y1.0965 I0.0105 J-0.0033
G2 X1.4964 Y1.1149 I0.0342 J-0.0113
G2 X1.4965 Y1.115 I0.0063 J-0.009
G2 X1.5 Y1.1171 I0.021 J-0.0313
G0 Z0.125
G0 X1.333 Y0.9911
G0 Z0.0625
G1 F4.0 Z-0.02
G1 F8.0 X1.3315 Y0.9872
G1 X1.3301 Y0.9911
G3 X1.333 I0.0013 J0.0286
G1 F4.0 X1.3412 Y0.988
G1 F8.0 X1.3369 Y0.9765
G3 X1.3362 Y0.9646 I0.0185 J-0.007
G3 X1.3514 Y0.9338 I0.0811 J0.0208
G3 X1.3516 Y0.9335 I0.0156 J0.0122
G3 X1.3677 Y0.9212 I0.0335 J0.0274
G2 X1.3617 Y0.9225 I0.0111 J0.0684
G3 X1.3616 I-0.0049 J-0.0192
G2 X1.3509 Y0.9273 I0.0078 J0.0317
G2 X1.3438 Y0.9345 I0.0155 J0.0222
G2 X1.3343 Y0.9535 I0.086 J0.0548
G1 X1.3236 Y0.9832
G1 X1.3235 Y0.9833
G1 X1.2729 Y1.1213
G1 X1.2771
G1 X1.3126 Y1.0134
G3 X1.3501 Y1.0133 I0.0188 J0.0062
G1 X1.3865 Y1.1213
G1 X1.3918
G1 X1.3412 Y0.988
G1 F4.0 X1.3494 Y0.9848
G1 F8.0 X1.3451 Y0.9734
G3 X1.3447 Y0.9668 I0.0103 J-0.0039
G3 X1.3583 Y0.9392 I0.0725 J0.0186
G3 X1.3585 Y0.939 I0.0087 J0.0068
G3 X1.374 Y0.9282 I0.0267 J0.0218
G1 X1.3741
G3 X1.3905 Y0.9256 I0.0156 J0.0466
G3 X1.397 Y0.9259 I-0.0015 J0.1119
G1 X1.3955 Y0.9127
G2 X1.3799 Y0.9116 I-0.0155 J0.1079
G3 X1.3797 I0.0 J-0.011
G2 X1.3595 Y0.914 I-0.001 J0.0781
G2 X1.3459 Y0.9201 I0.0099 J0.0403
G2 X1.3364 Y0.9297 I0.0205 J0.0294
G2 X1.3261 Y0.9504 I0.0934 J0.0596
G1 X1.3153 Y0.9802
G1 X1.2603 Y1.1301
G1 X1.2835
G1 X1.3209 Y1.0162
G3 X1.3418 Y1.0161 I0.0104 J0.0034
G1 X1.3802 Y1.1301
G1 X1.4045
G1 X1.3494 Y0.9848
G0 Z0.125
M5
M30
