( Made using CamBam - http://www.cambam.co.uk )
( 052-tellurium 11/26/2013 5:38:06 PM )
( T0 : 0.0313 )
G20 G90 G91.1 G64 G40
G0 Z0.125
( T0 : 0.0313 )
T0 M6
( Pocket1 )
G17
M3 S10000
G0 X0.7531 Y2.75
G0 Z0.0625
G1 F4.0 Z-0.0313
G2 F8.0 X0.7484 Y2.7473 I-0.0031 J0.0
G2 Y2.7527 I0.0016 J0.0027
G2 X0.7531 Y2.75 I0.0016 J-0.0027
G1 F4.0 X0.7594
G2 F8.0 X0.7453 Y2.7419 I-0.0094 J0.0
G2 Y2.7581 I0.0047 J0.0081
G2 X0.7594 Y2.75 I0.0047 J-0.0081
G1 F4.0 X0.7719
G2 F8.0 X0.7391 Y2.7311 I-0.0219 J0.0
G2 Y2.7689 I0.0109 J0.0189
G2 X0.7719 Y2.75 I0.0109 J-0.0189
G1 F4.0 X0.7844
G2 F8.0 X0.7328 Y2.7202 I-0.0344 J0.0
G2 Y2.7798 I0.0172 J0.0298
G2 X0.7844 Y2.75 I0.0172 J-0.0298
G1 F4.0 X0.7969
G2 F8.0 X0.7266 Y2.7094 I-0.0469 J0.0
G2 Y2.7906 I0.0234 J0.0406
G2 X0.7969 Y2.75 I0.0234 J-0.0406
G0 Z0.125
G0 X0.7531
G0 Z0.0312
G1 F4.0 Z-0.0625
G2 F8.0 X0.7484 Y2.7473 I-0.0031 J0.0
G2 Y2.7527 I0.0016 J0.0027
G2 X0.7531 Y2.75 I0.0016 J-0.0027
G1 F4.0 X0.7594
G2 F8.0 X0.7453 Y2.7419 I-0.0094 J0.0
G2 Y2.7581 I0.0047 J0.0081
G2 X0.7594 Y2.75 I0.0047 J-0.0081
G1 F4.0 X0.7719
G2 F8.0 X0.7391 Y2.7311 I-0.0219 J0.0
G2 Y2.7689 I0.0109 J0.0189
G2 X0.7719 Y2.75 I0.0109 J-0.0189
G1 F4.0 X0.7844
G2 F8.0 X0.7328 Y2.7202 I-0.0344 J0.0
G2 Y2.7798 I0.0172 J0.0298
G2 X0.7844 Y2.75 I0.0172 J-0.0298
G1 F4.0 X0.7969
G2 F8.0 X0.7266 Y2.7094 I-0.0469 J0.0
G2 Y2.7906 I0.0234 J0.0406
G2 X0.7969 Y2.75 I0.0234 J-0.0406
G0 Z0.125
G0 X0.7531
G0 Z0.0
G1 F4.0 Z-0.0938
G2 F8.0 X0.7484 Y2.7473 I-0.0031 J0.0
G2 Y2.7527 I0.0016 J0.0027
G2 X0.7531 Y2.75 I0.0016 J-0.0027
G1 F4.0 X0.7594
G2 F8.0 X0.7453 Y2.7419 I-0.0094 J0.0
G2 Y2.7581 I0.0047 J0.0081
G2 X0.7594 Y2.75 I0.0047 J-0.0081
G1 F4.0 X0.7719
G2 F8.0 X0.7391 Y2.7311 I-0.0219 J0.0
G2 Y2.7689 I0.0109 J0.0189
G2 X0.7719 Y2.75 I0.0109 J-0.0189
G1 F4.0 X0.7844
G2 F8.0 X0.7328 Y2.7202 I-0.0344 J0.0
G2 Y2.7798 I0.0172 J0.0298
G2 X0.7844 Y2.75 I0.0172 J-0.0298
G1 F4.0 X0.7969
G2 F8.0 X0.7266 Y2.7094 I-0.0469 J0.0
G2 Y2.7906 I0.0234 J0.0406
G2 X0.7969 Y2.75 I0.0234 J-0.0406
G0 Z0.125
G0 X0.7531
G0 Z-0.0323
G1 F4.0 Z-0.126
G2 F8.0 X0.7484 Y2.7473 I-0.0031 J0.0
G2 Y2.7527 I0.0016 J0.0027
G2 X0.7531 Y2.75 I0.0016 J-0.0027
G1 F4.0 X0.7594
G2 F8.0 X0.7453 Y2.7419 I-0.0094 J0.0
G2 Y2.7581 I0.0047 J0.0081
G2 X0.7594 Y2.75 I0.0047 J-0.0081
G1 F4.0 X0.7719
G2 F8.0 X0.7391 Y2.7311 I-0.0219 J0.0
G2 Y2.7689 I0.0109 J0.0189
G2 X0.7719 Y2.75 I0.0109 J-0.0189
G1 F4.0 X0.7844
G2 F8.0 X0.7328 Y2.7202 I-0.0344 J0.0
G2 Y2.7798 I0.0172 J0.0298
G2 X0.7844 Y2.75 I0.0172 J-0.0298
G1 F4.0 X0.7969
G2 F8.0 X0.7266 Y2.7094 I-0.0469 J0.0
G2 Y2.7906 I0.0234 J0.0406
G2 X0.7969 Y2.75 I0.0234 J-0.0406
G0 Z0.125
G0 X3.2469
G0 Z0.0625
G1 F4.0 Z-0.0313
G2 F8.0 X3.2484 Y2.7527 I0.0031 J0.0
G2 X3.2531 Y2.75 I0.0016 J-0.0027
G2 X3.2484 Y2.7473 I-0.0031 J0.0
G2 X3.2469 Y2.75 I0.0016 J0.0027
G1 F4.0 X3.2406
G2 F8.0 X3.2453 Y2.7581 I0.0094 J0.0
G2 X3.2594 Y2.75 I0.0047 J-0.0081
G2 X3.2453 Y2.7419 I-0.0094 J0.0
G2 X3.2406 Y2.75 I0.0047 J0.0081
G1 F4.0 X3.2281
G2 F8.0 X3.2391 Y2.7689 I0.0219 J0.0
G2 X3.2719 Y2.75 I0.0109 J-0.0189
G2 X3.2391 Y2.7311 I-0.0219 J0.0
G2 X3.2281 Y2.75 I0.0109 J0.0189
G1 F4.0 X3.2156
G2 F8.0 X3.2328 Y2.7798 I0.0344 J0.0
G2 X3.2844 Y2.75 I0.0172 J-0.0298
G2 X3.2328 Y2.7202 I-0.0344 J0.0
G2 X3.2156 Y2.75 I0.0172 J0.0298
G1 F4.0 X3.2031
G2 F8.0 X3.2266 Y2.7906 I0.0469 J0.0
G2 X3.2969 Y2.75 I0.0234 J-0.0406
G2 X3.2266 Y2.7094 I-0.0469 J0.0
G2 X3.2031 Y2.75 I0.0234 J0.0406
G0 Z0.125
G0 X3.2469
G0 Z0.0312
G1 F4.0 Z-0.0625
G2 F8.0 X3.2484 Y2.7527 I0.0031 J0.0
G2 X3.2531 Y2.75 I0.0016 J-0.0027
G2 X3.2484 Y2.7473 I-0.0031 J0.0
G2 X3.2469 Y2.75 I0.0016 J0.0027
G1 F4.0 X3.2406
G2 F8.0 X3.2453 Y2.7581 I0.0094 J0.0
G2 X3.2594 Y2.75 I0.0047 J-0.0081
G2 X3.2453 Y2.7419 I-0.0094 J0.0
G2 X3.2406 Y2.75 I0.0047 J0.0081
G1 F4.0 X3.2281
G2 F8.0 X3.2391 Y2.7689 I0.0219 J0.0
G2 X3.2719 Y2.75 I0.0109 J-0.0189
G2 X3.2391 Y2.7311 I-0.0219 J0.0
G2 X3.2281 Y2.75 I0.0109 J0.0189
G1 F4.0 X3.2156
G2 F8.0 X3.2328 Y2.7798 I0.0344 J0.0
G2 X3.2844 Y2.75 I0.0172 J-0.0298
G2 X3.2328 Y2.7202 I-0.0344 J0.0
G2 X3.2156 Y2.75 I0.0172 J0.0298
G1 F4.0 X3.2031
G2 F8.0 X3.2266 Y2.7906 I0.0469 J0.0
G2 X3.2969 Y2.75 I0.0234 J-0.0406
G2 X3.2266 Y2.7094 I-0.0469 J0.0
G2 X3.2031 Y2.75 I0.0234 J0.0406
G0 Z0.125
G0 X3.2469
G0 Z0.0
G1 F4.0 Z-0.0938
G2 F8.0 X3.2484 Y2.7527 I0.0031 J0.0
G2 X3.2531 Y2.75 I0.0016 J-0.0027
G2 X3.2484 Y2.7473 I-0.0031 J0.0
G2 X3.2469 Y2.75 I0.0016 J0.0027
G1 F4.0 X3.2406
G2 F8.0 X3.2453 Y2.7581 I0.0094 J0.0
G2 X3.2594 Y2.75 I0.0047 J-0.0081
G2 X3.2453 Y2.7419 I-0.0094 J0.0
G2 X3.2406 Y2.75 I0.0047 J0.0081
G1 F4.0 X3.2281
G2 F8.0 X3.2391 Y2.7689 I0.0219 J0.0
G2 X3.2719 Y2.75 I0.0109 J-0.0189
G2 X3.2391 Y2.7311 I-0.0219 J0.0
G2 X3.2281 Y2.75 I0.0109 J0.0189
G1 F4.0 X3.2156
G2 F8.0 X3.2328 Y2.7798 I0.0344 J0.0
G2 X3.2844 Y2.75 I0.0172 J-0.0298
G2 X3.2328 Y2.7202 I-0.0344 J0.0
G2 X3.2156 Y2.75 I0.0172 J0.0298
G1 F4.0 X3.2031
G2 F8.0 X3.2266 Y2.7906 I0.0469 J0.0
G2 X3.2969 Y2.75 I0.0234 J-0.0406
G2 X3.2266 Y2.7094 I-0.0469 J0.0
G2 X3.2031 Y2.75 I0.0234 J0.0406
G0 Z0.125
G0 X3.2469
G0 Z-0.0323
G1 F4.0 Z-0.126
G2 F8.0 X3.2484 Y2.7527 I0.0031 J0.0
G2 X3.2531 Y2.75 I0.0016 J-0.0027
G2 X3.2484 Y2.7473 I-0.0031 J0.0
G2 X3.2469 Y2.75 I0.0016 J0.0027
G1 F4.0 X3.2406
G2 F8.0 X3.2453 Y2.7581 I0.0094 J0.0
G2 X3.2594 Y2.75 I0.0047 J-0.0081
G2 X3.2453 Y2.7419 I-0.0094 J0.0
G2 X3.2406 Y2.75 I0.0047 J0.0081
G1 F4.0 X3.2281
G2 F8.0 X3.2391 Y2.7689 I0.0219 J0.0
G2 X3.2719 Y2.75 I0.0109 J-0.0189
G2 X3.2391 Y2.7311 I-0.0219 J0.0
G2 X3.2281 Y2.75 I0.0109 J0.0189
G1 F4.0 X3.2156
G2 F8.0 X3.2328 Y2.7798 I0.0344 J0.0
G2 X3.2844 Y2.75 I0.0172 J-0.0298
G2 X3.2328 Y2.7202 I-0.0344 J0.0
G2 X3.2156 Y2.75 I0.0172 J0.0298
G1 F4.0 X3.2031
G2 F8.0 X3.2266 Y2.7906 I0.0469 J0.0
G2 X3.2969 Y2.75 I0.0234 J-0.0406
G2 X3.2266 Y2.7094 I-0.0469 J0.0
G2 X3.2031 Y2.75 I0.0234 J0.0406
G0 Z0.125
G0 X3.2499 Y0.2531
G0 Z0.0625
G1 F4.0 Z-0.0313
G2 F8.0 X3.2531 Y0.25 I0.0001 J-0.0031
G2 X3.2484 Y0.2473 I-0.0031 J0.0
G2 Y0.2527 I0.0016 J0.0027
G2 X3.2499 Y0.2531 I0.0016 J-0.0027
G1 F4.0 X3.2498 Y0.2594
G2 F8.0 X3.2594 Y0.25 I0.0002 J-0.0094
G2 X3.2453 Y0.2419 I-0.0094 J0.0
G2 Y0.2581 I0.0047 J0.0081
G2 X3.2498 Y0.2594 I0.0047 J-0.0081
G1 F4.0 X3.2496 Y0.2719
G2 F8.0 X3.2719 Y0.25 I0.0004 J-0.0219
G2 X3.2391 Y0.2311 I-0.0219 J0.0
G2 Y0.2689 I0.0109 J0.0189
G2 X3.2496 Y0.2719 I0.0109 J-0.0189
G1 F4.0 X3.2494 Y0.2844
G2 F8.0 X3.2844 Y0.25 I0.0006 J-0.0344
G2 X3.2328 Y0.2202 I-0.0344 J0.0
G2 Y0.2798 I0.0172 J0.0298
G2 X3.2494 Y0.2844 I0.0172 J-0.0298
G1 F4.0 X3.2491 Y0.2969
G2 F8.0 X3.2969 Y0.25 I0.0009 J-0.0469
G2 X3.2266 Y0.2094 I-0.0469 J0.0
G2 Y0.2906 I0.0234 J0.0406
G2 X3.2491 Y0.2969 I0.0234 J-0.0406
G0 Z0.125
G0 X3.2499 Y0.2531
G0 Z0.0312
G1 F4.0 Z-0.0625
G2 F8.0 X3.2531 Y0.25 I0.0001 J-0.0031
G2 X3.2484 Y0.2473 I-0.0031 J0.0
G2 Y0.2527 I0.0016 J0.0027
G2 X3.2499 Y0.2531 I0.0016 J-0.0027
G1 F4.0 X3.2498 Y0.2594
G2 F8.0 X3.2594 Y0.25 I0.0002 J-0.0094
G2 X3.2453 Y0.2419 I-0.0094 J0.0
G2 Y0.2581 I0.0047 J0.0081
G2 X3.2498 Y0.2594 I0.0047 J-0.0081
G1 F4.0 X3.2496 Y0.2719
G2 F8.0 X3.2719 Y0.25 I0.0004 J-0.0219
G2 X3.2391 Y0.2311 I-0.0219 J0.0
G2 Y0.2689 I0.0109 J0.0189
G2 X3.2496 Y0.2719 I0.0109 J-0.0189
G1 F4.0 X3.2494 Y0.2844
G2 F8.0 X3.2844 Y0.25 I0.0006 J-0.0344
G2 X3.2328 Y0.2202 I-0.0344 J0.0
G2 Y0.2798 I0.0172 J0.0298
G2 X3.2494 Y0.2844 I0.0172 J-0.0298
G1 F4.0 X3.2491 Y0.2969
G2 F8.0 X3.2969 Y0.25 I0.0009 J-0.0469
G2 X3.2266 Y0.2094 I-0.0469 J0.0
G2 Y0.2906 I0.0234 J0.0406
G2 X3.2491 Y0.2969 I0.0234 J-0.0406
G0 Z0.125
G0 X3.2499 Y0.2531
G0 Z0.0
G1 F4.0 Z-0.0938
G2 F8.0 X3.2531 Y0.25 I0.0001 J-0.0031
G2 X3.2484 Y0.2473 I-0.0031 J0.0
G2 Y0.2527 I0.0016 J0.0027
G2 X3.2499 Y0.2531 I0.0016 J-0.0027
G1 F4.0 X3.2498 Y0.2594
G2 F8.0 X3.2594 Y0.25 I0.0002 J-0.0094
G2 X3.2453 Y0.2419 I-0.0094 J0.0
G2 Y0.2581 I0.0047 J0.0081
G2 X3.2498 Y0.2594 I0.0047 J-0.0081
G1 F4.0 X3.2496 Y0.2719
G2 F8.0 X3.2719 Y0.25 I0.0004 J-0.0219
G2 X3.2391 Y0.2311 I-0.0219 J0.0
G2 Y0.2689 I0.0109 J0.0189
G2 X3.2496 Y0.2719 I0.0109 J-0.0189
G1 F4.0 X3.2494 Y0.2844
G2 F8.0 X3.2844 Y0.25 I0.0006 J-0.0344
G2 X3.2328 Y0.2202 I-0.0344 J0.0
G2 Y0.2798 I0.0172 J0.0298
G2 X3.2494 Y0.2844 I0.0172 J-0.0298
G1 F4.0 X3.2491 Y0.2969
G2 F8.0 X3.2969 Y0.25 I0.0009 J-0.0469
G2 X3.2266 Y0.2094 I-0.0469 J0.0
G2 Y0.2906 I0.0234 J0.0406
G2 X3.2491 Y0.2969 I0.0234 J-0.0406
G0 Z0.125
G0 X3.2499 Y0.2531
G0 Z-0.0323
G1 F4.0 Z-0.126
G2 F8.0 X3.2531 Y0.25 I0.0001 J-0.0031
G2 X3.2484 Y0.2473 I-0.0031 J0.0
G2 Y0.2527 I0.0016 J0.0027
G2 X3.2499 Y0.2531 I0.0016 J-0.0027
G1 F4.0 X3.2498 Y0.2594
G2 F8.0 X3.2594 Y0.25 I0.0002 J-0.0094
G2 X3.2453 Y0.2419 I-0.0094 J0.0
G2 Y0.2581 I0.0047 J0.0081
G2 X3.2498 Y0.2594 I0.0047 J-0.0081
G1 F4.0 X3.2496 Y0.2719
G2 F8.0 X3.2719 Y0.25 I0.0004 J-0.0219
G2 X3.2391 Y0.2311 I-0.0219 J0.0
G2 Y0.2689 I0.0109 J0.0189
G2 X3.2496 Y0.2719 I0.0109 J-0.0189
G1 F4.0 X3.2494 Y0.2844
G2 F8.0 X3.2844 Y0.25 I0.0006 J-0.0344
G2 X3.2328 Y0.2202 I-0.0344 J0.0
G2 Y0.2798 I0.0172 J0.0298
G2 X3.2494 Y0.2844 I0.0172 J-0.0298
G1 F4.0 X3.2491 Y0.2969
G2 F8.0 X3.2969 Y0.25 I0.0009 J-0.0469
G2 X3.2266 Y0.2094 I-0.0469 J0.0
G2 Y0.2906 I0.0234 J0.0406
G2 X3.2491 Y0.2969 I0.0234 J-0.0406
G0 Z0.125
G0 X0.7531 Y0.2501
G0 Z0.0625
G1 F4.0 Z-0.0313
G1 F8.0 Y0.25
G2 X0.7484 Y0.2473 I-0.0031 J0.0
G2 Y0.2527 I0.0016 J0.0027
G2 X0.7531 Y0.2501 I0.0016 J-0.0027
G1 F4.0 X0.7594 Y0.2502
G2 F8.0 Y0.25 I-0.0094 J-0.0002
G2 X0.7453 Y0.2419 I-0.0094 J0.0
G2 Y0.2581 I0.0047 J0.0081
G2 X0.7594 Y0.2502 I0.0047 J-0.0081
G1 F4.0 X0.7719 Y0.2504
G2 F8.0 Y0.25 I-0.0219 J-0.0004
G2 X0.7391 Y0.2311 I-0.0219 J0.0
G2 Y0.2689 I0.0109 J0.0189
G2 X0.7719 Y0.2504 I0.0109 J-0.0189
G1 F4.0 X0.7844 Y0.2506
G2 F8.0 Y0.25 I-0.0344 J-0.0006
G2 X0.7328 Y0.2202 I-0.0344 J0.0
G2 Y0.2798 I0.0172 J0.0298
G2 X0.7844 Y0.2506 I0.0172 J-0.0298
G1 F4.0 X0.7969 Y0.2509
G2 F8.0 Y0.25 I-0.0469 J-0.0009
G2 X0.7266 Y0.2094 I-0.0469 J0.0
G2 Y0.2906 I0.0234 J0.0406
G2 X0.7969 Y0.2509 I0.0234 J-0.0406
G0 Z0.125
G0 X0.7531 Y0.2501
G0 Z0.0312
G1 F4.0 Z-0.0625
G1 F8.0 Y0.25
G2 X0.7484 Y0.2473 I-0.0031 J0.0
G2 Y0.2527 I0.0016 J0.0027
G2 X0.7531 Y0.2501 I0.0016 J-0.0027
G1 F4.0 X0.7594 Y0.2502
G2 F8.0 Y0.25 I-0.0094 J-0.0002
G2 X0.7453 Y0.2419 I-0.0094 J0.0
G2 Y0.2581 I0.0047 J0.0081
G2 X0.7594 Y0.2502 I0.0047 J-0.0081
G1 F4.0 X0.7719 Y0.2504
G2 F8.0 Y0.25 I-0.0219 J-0.0004
G2 X0.7391 Y0.2311 I-0.0219 J0.0
G2 Y0.2689 I0.0109 J0.0189
G2 X0.7719 Y0.2504 I0.0109 J-0.0189
G1 F4.0 X0.7844 Y0.2506
G2 F8.0 Y0.25 I-0.0344 J-0.0006
G2 X0.7328 Y0.2202 I-0.0344 J0.0
G2 Y0.2798 I0.0172 J0.0298
G2 X0.7844 Y0.2506 I0.0172 J-0.0298
G1 F4.0 X0.7969 Y0.2509
G2 F8.0 Y0.25 I-0.0469 J-0.0009
G2 X0.7266 Y0.2094 I-0.0469 J0.0
G2 Y0.2906 I0.0234 J0.0406
G2 X0.7969 Y0.2509 I0.0234 J-0.0406
G0 Z0.125
G0 X0.7531 Y0.2501
G0 Z0.0
G1 F4.0 Z-0.0938
G1 F8.0 Y0.25
G2 X0.7484 Y0.2473 I-0.0031 J0.0
G2 Y0.2527 I0.0016 J0.0027
G2 X0.7531 Y0.2501 I0.0016 J-0.0027
G1 F4.0 X0.7594 Y0.2502
G2 F8.0 Y0.25 I-0.0094 J-0.0002
G2 X0.7453 Y0.2419 I-0.0094 J0.0
G2 Y0.2581 I0.0047 J0.0081
G2 X0.7594 Y0.2502 I0.0047 J-0.0081
G1 F4.0 X0.7719 Y0.2504
G2 F8.0 Y0.25 I-0.0219 J-0.0004
G2 X0.7391 Y0.2311 I-0.0219 J0.0
G2 Y0.2689 I0.0109 J0.0189
G2 X0.7719 Y0.2504 I0.0109 J-0.0189
G1 F4.0 X0.7844 Y0.2506
G2 F8.0 Y0.25 I-0.0344 J-0.0006
G2 X0.7328 Y0.2202 I-0.0344 J0.0
G2 Y0.2798 I0.0172 J0.0298
G2 X0.7844 Y0.2506 I0.0172 J-0.0298
G1 F4.0 X0.7969 Y0.2509
G2 F8.0 Y0.25 I-0.0469 J-0.0009
G2 X0.7266 Y0.2094 I-0.0469 J0.0
G2 Y0.2906 I0.0234 J0.0406
G2 X0.7969 Y0.2509 I0.0234 J-0.0406
G0 Z0.125
G0 X0.7531 Y0.2501
G0 Z-0.0323
G1 F4.0 Z-0.126
G1 F8.0 Y0.25
G2 X0.7484 Y0.2473 I-0.0031 J0.0
G2 Y0.2527 I0.0016 J0.0027
G2 X0.7531 Y0.2501 I0.0016 J-0.0027
G1 F4.0 X0.7594 Y0.2502
G2 F8.0 Y0.25 I-0.0094 J-0.0002
G2 X0.7453 Y0.2419 I-0.0094 J0.0
G2 Y0.2581 I0.0047 J0.0081
G2 X0.7594 Y0.2502 I0.0047 J-0.0081
G1 F4.0 X0.7719 Y0.2504
G2 F8.0 Y0.25 I-0.0219 J-0.0004
G2 X0.7391 Y0.2311 I-0.0219 J0.0
G2 Y0.2689 I0.0109 J0.0189
G2 X0.7719 Y0.2504 I0.0109 J-0.0189
G1 F4.0 X0.7844 Y0.2506
G2 F8.0 Y0.25 I-0.0344 J-0.0006
G2 X0.7328 Y0.2202 I-0.0344 J0.0
G2 Y0.2798 I0.0172 J0.0298
G2 X0.7844 Y0.2506 I0.0172 J-0.0298
G1 F4.0 X0.7969 Y0.2509
G2 F8.0 Y0.25 I-0.0469 J-0.0009
G2 X0.7266 Y0.2094 I-0.0469 J0.0
G2 Y0.2906 I0.0234 J0.0406
G2 X0.7969 Y0.2509 I0.0234 J-0.0406
( Pocket3 )
S10000
G0 Z0.125
G0 X1.0719 Y0.5719
G0 Z0.0625
G1 F4.0 Z-0.02
G1 F8.0 Y0.5766
G3 X1.0766 Y0.5719 I0.0531 J0.0484
G1 X1.0719
G1 F4.0 X1.0656
G1 F8.0 Y0.5971
G3 X1.0971 Y0.5656 I0.0594 J0.0279
G1 X1.0656
G1 Y0.5719
G0 Z0.125
G0 X1.0719 Y2.4234
G0 Z0.0625
G1 F4.0 Z-0.02
G1 F8.0 Y2.4281
G1 X1.0766
G3 X1.0719 Y2.4234 I0.0484 J-0.0531
G1 F4.0 X1.0765 Y2.4192
G3 F8.0 X1.0656 Y2.4029 I0.0485 J-0.0442
G1 Y2.4344
G1 X1.0971
G3 X1.0765 Y2.4192 I0.0279 J-0.0594
G0 Z0.125
G0 X2.9234 Y2.4281
G0 Z0.0625
G1 F4.0 Z-0.02
G1 F8.0 X2.9281
G1 Y2.4234
G3 X2.9234 Y2.4281 I-0.0531 J-0.0484
G1 F4.0 X2.9192 Y2.4235
G3 F8.0 X2.9029 Y2.4344 I-0.0442 J-0.0485
G1 X2.9344
G1 Y2.4029
G3 X2.9192 Y2.4235 I-0.0594 J-0.0279
G0 Z0.125
G0 X2.9281 Y0.5766
G0 Z0.0625
G1 F4.0 Z-0.02
G1 F8.0 Y0.5719
G1 X2.9234
G3 X2.9281 Y0.5766 I-0.0484 J0.0531
G1 F4.0 X2.9344
G1 F8.0 Y0.5656
G1 X2.9029
G3 X2.9344 Y0.5971 I-0.0279 J0.0594
G1 Y0.5766
G0 Z0.125
G0 X2.8968 Y0.6073
G0 Z0.0625
G1 F4.0 Z-0.02
G3 F8.0 X2.9031 Y0.625 I-0.0218 J0.0177
G1 Y2.375
G3 X2.875 Y2.4031 I-0.0281 J0.0
G1 X1.125
G3 X1.0969 Y2.375 I0.0 J-0.0281
G1 Y0.625
G3 X1.125 Y0.5969 I0.0281 J0.0
G1 X2.875
G3 X2.8968 Y0.6073 I0.0 J0.0281
G1 F4.0 X2.8871 Y0.6151
G3 F8.0 X2.8906 Y0.625 I-0.0121 J0.0099
G1 Y2.375
G3 X2.875 Y2.3906 I-0.0156 J0.0
G1 X1.125
G3 X1.1094 Y2.375 I0.0 J-0.0156
G1 Y0.625
G3 X1.125 Y0.6094 I0.0156 J0.0
G1 X2.875
G3 X2.8871 Y0.6151 I0.0 J0.0156
G0 Z0.125
G0 X2.9065 Y0.5994
G0 Z0.0625
G1 F4.0 Z-0.02
G2 F8.0 X2.875 Y0.5844 I-0.0315 J0.0256
G1 X1.125
G2 X1.0844 Y0.625 I0.0 J0.0406
G1 Y2.375
G2 X1.125 Y2.4156 I0.0406 J0.0
G1 X2.875
G2 X2.9156 Y2.375 I0.0 J-0.0406
G1 Y0.625
G2 X2.9065 Y0.5994 I-0.0406 J0.0
G1 F4.0 X2.9162 Y0.5915
G2 F8.0 X2.875 Y0.5719 I-0.0412 J0.0335
G1 X1.125
G2 X1.0719 Y0.625 I0.0 J0.0531
G1 Y2.375
G2 X1.125 Y2.4281 I0.0531 J0.0
G1 X2.875
G2 X2.9281 Y2.375 I0.0 J-0.0531
G1 Y0.625
G2 X2.9162 Y0.5915 I-0.0531 J0.0
G0 Z0.125
G0 X2.9469
G0 Z0.0625
G1 F4.0 Z-0.02
G1 F8.0 Y0.5531
G1 X1.0531
G1 Y2.4469
G1 X2.9469
G1 Y0.5915
G1 F4.0 X2.9594
G1 F8.0 Y0.5406
G1 X1.0406
G1 Y2.4594
G1 X2.9594
G1 Y0.5915
G1 F4.0 X2.9719
G1 F8.0 Y0.5281
G1 X1.0281
G1 Y2.4719
G1 X2.9719
G1 Y0.5915
G1 F4.0 X2.9844
G1 F8.0 Y0.5156
G1 X1.0156
G1 Y2.4844
G1 X2.9844
G1 Y0.5915
G0 Z0.125
G0 X2.1977 Y1.3969
G0 Z0.0625
G1 F4.0 Z-0.02
G1 F8.0 X2.1929
G3 X2.1945 Y1.4147 I-0.0637 J0.0148
G1 Y1.8654
G3 X2.1928 Y1.8845 I-0.0983 J0.0009
G3 X2.1927 Y1.8852 I-0.0647 J-0.0114
G1 X2.1981
G3 X2.1965 Y1.868 I0.0655 J-0.0146
G1 Y1.4109
G3 X2.1977 Y1.3969 I0.062 J-0.0015
G1 F4.0 X2.2039 Y1.3981
G3 F8.0 X2.206 Y1.3906 I0.0546 J0.0113
G1 X2.1845
G3 X2.1883 Y1.4146 I-0.0553 J0.021
G1 Y1.8654
G3 X2.1867 Y1.8833 I-0.092 J0.0008
G3 X2.1847 Y1.8914 I-0.0585 J-0.0103
G1 X2.2064
G3 X2.2027 Y1.8681 I0.0571 J-0.0209
G1 Y1.4108
G3 X2.2039 Y1.3981 I0.0558 J-0.0014
G1 F4.0 X2.2161 Y1.4007
G3 F8.0 X2.2286 Y1.3781 I0.0424 J0.0088
G1 X2.1616
G3 X2.1629 Y1.3794 I-0.019 J0.0207
G3 X2.1758 Y1.4142 I-0.0337 J0.0323
G1 Y1.8655
G3 X2.1744 Y1.8811 I-0.0795 J0.0008
G3 X2.1635 Y1.9039 I-0.0462 J-0.0081
G1 X2.2286
G3 X2.2152 Y1.8684 I0.035 J-0.0334
G1 Y1.4107
G3 X2.2161 Y1.4007 I0.0433 J-0.0012
G0 Z0.125
G0 X2.3887 Y1.8803
G0 Z0.0625
G1 F4.0 Z-0.02
G3 F8.0 X2.3846 Y1.8852 I-0.1339 J-0.1091
G1 X2.3884
G1 X2.3887 Y1.8803
G1 F4.0 X2.3949 Y1.8807
G1 F8.0 X2.3961 Y1.8593
G3 X2.3926 Y1.8646 I-0.1757 J-0.1117
G3 X2.37 Y1.8914 I-0.1378 J-0.0934
G1 X2.3943
G1 X2.3949 Y1.8807
G1 F4.0 X2.4074 Y1.8814
G1 F8.0 X2.4123 Y1.7912
G3 X2.4024 Y1.8196 I-0.3617 J-0.1107
G3 X2.3823 Y1.8576 I-0.182 J-0.072
G3 X2.3374 Y1.9011 I-0.1275 J-0.0864
G3 X2.337 Y1.9014 I-0.0151 J-0.0237
G3 X2.3327 Y1.9039 I-0.0631 J-0.1034
G1 X2.4062
G1 X2.4074 Y1.8814
G0 Z0.125
G0 X2.0055 Y1.8852
G0 Z0.0625
G1 F4.0 Z-0.02
G3 F8.0 X2.0017 Y1.8806 I0.127 J-0.1086
G1 X2.002 Y1.8852
G1 X2.0055
G1 F4.0 X2.0103 Y1.8811
G3 F8.0 X1.9944 Y1.8591 I0.1222 J-0.1046
G3 Y1.859 I0.213 J-0.1309
G1 X1.996 Y1.8914
G1 X2.0199
G3 X2.0103 Y1.8811 I0.1126 J-0.1149
G1 F4.0 X2.0198 Y1.873
G3 F8.0 X2.0051 Y1.8526 I0.1127 J-0.0964
G3 X1.9871 Y1.8169 I0.2023 J-0.1244
G3 X1.9785 Y1.793 I0.337 J-0.1355
G1 X1.9841 Y1.9039
G1 X2.0568
G3 X2.0509 Y1.9004 I0.059 J-0.1066
G3 X2.0503 Y1.9 I0.015 J-0.0238
G3 X2.0198 Y1.873 I0.0822 J-0.1235
G1 F4.0 X2.0293 Y1.8648
G3 F8.0 X2.0158 Y1.8461 I0.1032 J-0.0883
G3 X1.9987 Y1.8122 I0.1916 J-0.1179
G3 X1.9837 Y1.7659 I0.3254 J-0.1309
G3 X1.974 Y1.718 I0.5531 J-0.1374
G1 X1.9621
G1 X1.9723 Y1.9164
G1 X2.418
G1 X2.4288 Y1.718
G1 X2.4158
G3 X2.4076 Y1.76 I-0.6639 J-0.1071
G3 X2.3907 Y1.815 I-0.357 J-0.0795
G3 X2.3719 Y1.8506 I-0.1704 J-0.0674
G3 X2.3307 Y1.8906 I-0.1171 J-0.0794
G3 X2.3305 Y1.8908 I-0.0084 J-0.0132
G3 X2.2731 Y1.9066 I-0.0566 J-0.0927
G3 X2.2588 Y1.9056 I-0.0007 J-0.085
G3 X2.2405 Y1.898 I0.0053 J-0.0386
G3 X2.2395 Y1.8972 I0.0095 J-0.0124
G3 X2.2277 Y1.8687 I0.024 J-0.0266
G1 Y1.4105
G3 X2.2373 Y1.3871 I0.0308 J-0.0011
G3 X2.2393 Y1.3855 I0.0108 J0.0113
G3 X2.263 Y1.3789 I0.0217 J0.032
G1 X2.3195
G1 Y1.3656
G1 X2.0719
G1 Y1.3789
G1 X2.1214
G3 X2.1342 Y1.3797 I0.0007 J0.0917
G3 X2.1511 Y1.3858 I-0.004 J0.0381
G3 X2.1539 Y1.388 I-0.0086 J0.0131
G3 X2.1633 Y1.4139 I-0.0247 J0.0236
G1 Y1.8655
G3 X2.1621 Y1.8789 I-0.067 J0.0007
G3 X2.1538 Y1.8959 I-0.0339 J-0.0058
G3 X2.1515 Y1.8981 I-0.0117 J-0.0104
G3 X2.1319 Y1.9057 I-0.0236 J-0.0316
G3 X2.1172 Y1.9066 I-0.0139 J-0.1025
G3 X2.0576 Y1.8898 I-0.0014 J-0.1094
G3 X2.0573 Y1.8896 I0.0083 J-0.0132
G3 X2.0293 Y1.8648 I0.0752 J-0.1131
G0 Z0.125
G0 X1.7956 Y1.6758
G0 Z0.0625
G1 F4.0 Z-0.02
G3 F8.0 X1.7667 Y1.7008 I-0.0839 J-0.0678
G3 X1.7665 Y1.7009 I-0.008 J-0.0134
G3 X1.7238 Y1.7121 I-0.0421 J-0.0738
G3 X1.6856 Y1.703 I-0.0004 J-0.0835
G3 X1.6854 Y1.7029 I0.0071 J-0.0139
G3 X1.6558 Y1.6794 I0.0471 J-0.0896
G3 X1.6277 Y1.603 I0.0828 J-0.0738
G3 X1.6288 Y1.5874 I0.1028 J-0.0007
G3 X1.6365 Y1.5675 I0.0429 J0.0052
G3 X1.6374 Y1.5664 I0.0127 J0.009
G3 X1.6652 Y1.5543 I0.0264 J0.0227
G1 X1.8121
G3 X1.8277 Y1.57 I0.0 J0.0156
G3 X1.8215 Y1.6223 I-0.2286 J-0.0006
G3 X1.7981 Y1.6727 I-0.1314 J-0.0306
G3 X1.7956 Y1.6758 I-0.0863 J-0.0647
G0 Z0.125
G0 X1.8517 Y1.5921
G0 Z0.0625
G1 F4.0 Z-0.02
G2 F8.0 X1.8594 Y1.5329 I-0.2054 J-0.0568
G3 Y1.532 I0.0406 J-0.0005
G2 X1.8497 Y1.4713 I-0.1819 J-0.0021
G2 X1.8446 Y1.4588 I-0.1318 J0.0465
G3 X1.8459 Y1.465 I-0.1516 J0.0363
G3 X1.8527 Y1.5265 I-0.3064 J0.065
G3 X1.8466 Y1.5485 I-0.0406 J0.0004
G3 X1.8527 Y1.57 I-0.0345 J0.0215
G3 X1.8517 Y1.5921 I-0.2536 J-0.0007
G1 F4.0 X1.8392 Y1.591
G3 F8.0 X1.8337 Y1.6252 I-0.2401 J-0.0216
G3 X1.8093 Y1.6784 I-0.1436 J-0.0335
G2 X1.8285 Y1.6603 I-0.0879 J-0.1125
G3 X1.8286 Y1.6602 I0.0211 J0.0186
G2 X1.8618 Y1.602 I-0.1191 J-0.1064
G2 X1.8719 Y1.5327 I-0.2155 J-0.0667
G3 Y1.5321 I0.0281 J-0.0003
G2 X1.8615 Y1.4672 I-0.1944 J-0.0022
G2 X1.8284 Y1.4131 I-0.1436 J0.0506
G3 X1.8281 Y1.4128 I0.0204 J-0.0194
G2 X1.7604 Y1.3721 I-0.1031 J0.0948
G3 X1.805 Y1.4056 I-0.0521 J0.1157
G3 X1.8057 Y1.4064 I-0.0214 J0.0182
G3 X1.8337 Y1.4675 I-0.1127 J0.0886
G3 X1.8402 Y1.5266 I-0.2942 J0.0625
G3 X1.8302 Y1.5485 I-0.0281 J0.0003
G3 X1.8402 Y1.57 I-0.0181 J0.0215
G3 X1.8392 Y1.591 I-0.2411 J-0.0006
G0 Z0.125
G0 X1.6083 Y1.5676
G0 Z0.0625
G1 F4.0 Z-0.02
G1 F8.0 X1.5985
G2 X1.599 Y1.5723 I0.4052 J-0.0441
G3 Y1.5726 I-0.0403 J0.0049
G2 X1.603 Y1.5949 I0.1815 J-0.0205
G3 X1.6041 Y1.584 I0.1275 J0.0074
G3 X1.6083 Y1.5676 I0.0676 J0.0085
G1 F4.0 Y1.5551
G1 F8.0 X1.5848
G2 X1.5866 Y1.5738 I0.4189 J-0.0316
G3 Y1.574 I-0.0279 J0.0034
G2 X1.5964 Y1.6168 I0.1939 J-0.0219
G2 X1.638 Y1.6771 I0.1349 J-0.0485
G3 X1.6153 Y1.6029 I0.1006 J-0.0714
G3 X1.6165 Y1.5857 I0.1152 J-0.0006
G3 X1.6263 Y1.5603 I0.0552 J0.0068
G3 X1.6279 Y1.5582 I0.0229 J0.0163
G3 X1.6309 Y1.5551 I0.0358 J0.0308
G1 X1.6083
G1 F4.0 Y1.5426
G1 F8.0 X1.5715
G2 X1.5742 Y1.5753 I0.4322 J-0.0191
G3 Y1.5754 I-0.0155 J0.0019
G2 X1.5846 Y1.6209 I0.2064 J-0.0233
G2 X1.6392 Y1.694 I0.1466 J-0.0527
G2 X1.6794 Y1.7134 I0.0768 J-0.1074
G2 X1.7245 Y1.7195 I0.0439 J-0.155
G3 X1.7248 I0.0001 J0.0156
G2 X1.7869 Y1.7067 I0.0016 J-0.149
G2 X1.8379 Y1.6686 I-0.0655 J-0.1408
G3 X1.838 Y1.6685 I0.0117 J0.0103
G2 X1.8737 Y1.6058 I-0.1284 J-0.1148
G2 X1.8844 Y1.5326 I-0.2275 J-0.0704
G3 Y1.5322 I0.0156 J-0.0002
G2 X1.8733 Y1.4631 I-0.2069 J-0.0024
G2 X1.8375 Y1.4045 I-0.1554 J0.0547
G3 X1.8373 Y1.4043 I0.0113 J-0.0108
G2 X1.7222 Y1.3551 I-0.1123 J0.1033
G3 X1.7217 I-0.0003 J-0.0156
G2 X1.6493 Y1.3723 I-0.002 J0.1522
G2 X1.593 Y1.4221 I0.0831 J0.1508
G3 X1.5929 Y1.4222 I-0.0127 J-0.0092
G2 X1.5738 Y1.4517 I0.2262 J0.1674
G1 X1.5818 Y1.455
G3 X1.6249 Y1.4035 I0.1871 J0.113
G3 X1.625 Y1.4034 I0.0103 J0.0118
G3 X1.7057 Y1.3734 I0.0809 J0.0939
G3 X1.7955 Y1.4137 I0.0027 J0.1144
G3 X1.7959 Y1.4142 I-0.0119 J0.0101
G3 X1.8214 Y1.47 I-0.1029 J0.0809
G3 X1.8277 Y1.5268 I-0.2819 J0.06
G3 X1.8121 Y1.5426 I-0.0156 J0.0002
G1 X1.6083
G0 Z0.125
G0 X1.3718 Y2.0081
G0 Z0.0625
G1 F4.0 Z-0.02
G1 F8.0 X1.3507
G3 X1.3583 Y2.0279 I-0.0205 J0.0192
G1 X1.3718 Y2.0081
G1 F4.0 X1.3821 Y2.0151
G1 F8.0 X1.3954 Y1.9956
G1 X1.2331
G1 Y2.0117
G1 X1.3302
G3 X1.3433 Y2.0359 I0.0 J0.0156
G1 X1.2818 Y2.1297
G1 X1.2817
G2 X1.2651 Y2.1582 I0.2451 J0.162
G1 Y2.1583
G2 X1.2536 Y2.1876 I0.1366 J0.0705
G2 X1.2509 Y2.2066 I0.0724 J0.0199
G1 Y2.2067
G2 X1.2558 Y2.2326 I0.0658 J0.0011
G2 X1.271 Y2.2524 I0.0468 J-0.0203
G2 X1.2993 Y2.2662 I0.0458 J-0.058
G2 X1.3333 Y2.2701 I0.0325 J-0.1317
G3 X1.3336 I0.0002 J0.0156
G2 X1.3758 Y2.2582 I0.0007 J-0.0781
G3 X1.3762 Y2.258 I0.0083 J0.0132
G2 X1.397 Y2.2394 I-0.037 J-0.0622
G1 X1.3851 Y2.23
G3 X1.3706 Y2.2436 I-0.0682 J-0.058
G3 X1.3704 Y2.2438 I-0.0094 J-0.0125
G3 X1.3316 Y2.2561 I-0.0383 J-0.0534
G3 X1.3041 Y2.2516 I-0.0017 J-0.0765
G3 X1.2788 Y2.2273 I0.0145 J-0.0405
G3 X1.2786 Y2.227 I0.0145 J-0.0059
G3 X1.275 Y2.2062 I0.0521 J-0.0198
G3 X1.2784 Y2.183 I0.0896 J0.0011
G3 X1.2858 Y2.1626 I0.1331 J0.0369
G1 X1.2859 Y2.1625
G3 X1.3063 Y2.1268 I0.2196 J0.1019
G1 X1.3821 Y2.0151
G0 Z0.125
G0 X1.6181 Y2.1622
G0 Z0.0625
G1 F4.0 Z-0.02
G3 F8.0 X1.6218 Y2.1666 I-0.0194 J0.0204
G1 Y2.1602
G3 X1.6211 Y2.1606 I-0.0613 J-0.1053
G3 X1.6181 Y2.1622 I-0.0412 J-0.072
G0 Z0.125
G0 X1.6218 Y2.2523
G0 Z0.0625
G1 F4.0 Z-0.02
G3 F8.0 X1.6209 Y2.2535 I-0.0231 J-0.016
G1 X1.6218
G1 Y2.2523
G1 F4.0 X1.6115 Y2.2452
G3 F8.0 X1.5987 Y2.252 I-0.0129 J-0.0089
G1 X1.5038
G1 Y2.266
G1 X1.6343
G1 Y2.1413
G1 X1.6306 Y2.1388
G3 X1.6149 Y2.1497 I-0.0701 J-0.0839
G3 X1.5806 Y2.1591 I-0.035 J-0.0611
G3 X1.5551 Y2.1558 I-0.0014 J-0.0892
G3 X1.5294 Y2.1395 I0.0138 J-0.0502
G3 X1.5289 Y2.1389 I0.0119 J-0.0102
G3 X1.5164 Y2.1109 I0.0509 J-0.0397
G3 X1.5139 Y2.0849 I0.1253 J-0.0249
G3 X1.52 Y2.0457 I0.1133 J-0.0025
G3 X1.5519 Y2.0111 I0.055 J0.0186
G3 X1.5523 Y2.0109 I0.0062 J0.0143
G3 X1.5815 Y2.0056 I0.0277 J0.0694
G3 X1.6014 Y2.0088 I-0.0009 J0.0694
G3 X1.6184 Y2.0158 I-0.0308 J0.0994
G3 X1.6185 I-0.0072 J0.0139
G3 X1.6312 Y2.0232 I-0.0847 J0.1608
G1 X1.6386 Y2.0077
G2 X1.617 Y1.9973 I-0.055 J0.086
G2 X1.5812 Y1.9915 I-0.0351 J0.1044
G3 X1.581 I-0.0001 J-0.0156
G2 X1.5583 Y1.9932 I-0.0007 J0.15
G1 X1.5582
G2 X1.5372 Y1.9987 I0.0144 J0.0981
G3 X1.5371 I-0.0056 J-0.0146
G2 X1.5056 Y2.0238 I0.0228 J0.0609
G2 X1.4944 Y2.05 I0.0733 J0.0469
G2 X1.4898 Y2.0903 I0.159 J0.0383
G3 Y2.0907 I-0.0156 J0.0002
G2 X1.4943 Y2.1249 I0.121 J0.0016
G2 X1.5096 Y2.1525 I0.0655 J-0.0184
G2 X1.5344 Y2.1684 I0.0436 J-0.0407
G2 X1.566 Y2.1731 I0.0302 J-0.0931
G3 X1.5666 I0.0002 J0.0156
G2 X1.5926 Y2.1682 I0.0015 J-0.0628
G3 X1.6143 Y2.1826 I0.0061 J0.0144
G1 Y2.2363
G3 X1.6115 Y2.2452 I-0.0156 J0.0
( Pocket2 )
S10000
G0 Z0.125
G0 X2.1458 Y0.698
G0 Z0.0625
G1 F4.0 Z-0.02
G1 F8.0 X2.1382
G3 X2.1411 Y0.7049 I-0.0148 J0.0102
G1 X2.1458 Y0.698
G1 F4.0 X2.1524 Y0.7025
G1 F8.0 X2.1609 Y0.69
G1 X2.0663
G1 Y0.6982
G1 X2.1234
G3 X2.1318 Y0.7137 I0.0 J0.01
G1 X2.0952 Y0.7695
G1 X2.0951
G2 X2.0853 Y0.7864 I0.1453 J0.096
G2 X2.0785 Y0.8037 I0.0807 J0.0417
G2 X2.0769 Y0.8149 I0.0424 J0.0117
G2 X2.0797 Y0.8301 I0.0385 J0.0006
G2 X2.0886 Y0.8416 I0.0272 J-0.0118
G2 X2.1052 Y0.8497 I0.0269 J-0.034
G2 X2.1253 Y0.852 I0.0192 J-0.0777
G3 X2.1255 I0.0001 J0.01
G2 X2.1502 Y0.845 I0.0004 J-0.0458
G3 X2.1504 Y0.8449 I0.0053 J0.0085
G2 X2.1622 Y0.8345 I-0.0216 J-0.0364
G1 X2.1561 Y0.8298
G3 X2.1479 Y0.8374 I-0.0407 J-0.0355
G3 X2.1477 Y0.8376 I-0.006 J-0.008
G3 X2.1242 Y0.845 I-0.0232 J-0.0324
G3 X2.1076 Y0.8423 I-0.001 J-0.0462
G3 X2.0921 Y0.8275 I0.0089 J-0.0248
G3 Y0.8273 I0.0093 J-0.0038
G3 X2.0899 Y0.8146 I0.0316 J-0.012
G3 X2.0919 Y0.8007 I0.054 J0.0007
G3 X2.0963 Y0.7884 I0.0799 J0.0222
G1 X2.0964 Y0.7883
G3 X2.1086 Y0.767 I0.1313 J0.061
G1 X2.1524 Y0.7025
G0 Z0.125
G0 X2.2557 Y0.8205
G0 Z0.0625
G1 F4.0 Z-0.02
G1 F8.0 Y0.8285
G3 X2.2605 Y0.8245 I0.103 J0.1202
G3 X2.2557 Y0.8205 I0.0089 J-0.0156
G1 F4.0 X2.2477
G1 F8.0 Y0.8474
G3 X2.2699 Y0.8275 I0.111 J0.1013
G3 X2.2958 Y0.8114 I0.117 J0.1596
G1 Y0.8047
G1 X2.2746 Y0.8175
G3 X2.2594 Y0.8089 I-0.0051 J-0.0086
G1 Y0.69
G1 X2.2477
G1 Y0.8205
G0 Z0.125
G0 X1.9328 Y0.8416
G0 Z0.0625
G1 F4.0 Z-0.02
G3 F8.0 X1.9303 Y0.8375 I0.014 J-0.0113
G1 X1.9281 Y0.8416
G1 X1.9328
G1 F4.0 X1.939 Y0.8365
G3 F8.0 X1.938 Y0.8255 I0.0078 J-0.0063
G2 X1.9663 Y0.7708 I-1.2531 J-0.6846
G2 X1.9916 Y0.715 I-0.8175 J-0.403
G2 X2.0011 Y0.69 I-0.5139 J-0.2113
G1 X1.9876
G3 X1.9793 Y0.7132 I-0.421 J-0.1387
G3 X1.9645 Y0.7489 I-0.7531 J-0.2918
G3 X1.9472 Y0.7863 I-1.0278 J-0.4506
G3 X1.9304 Y0.8202 I-1.1965 J-0.5728
G3 X1.9303 Y0.8203 I-0.0089 J-0.0046
G1 X1.9154 Y0.8485
G1 Y0.8496
G1 X2.0187
G1 Y0.8403
G1 X1.9468
G3 X1.939 Y0.8365 I0.0 J-0.01
G0 Z0.125
G0 X1.8582 Y0.6995
G0 Z0.0625
G1 F4.0 Z-0.02
G2 F8.0 X1.8589 Y0.699 I-0.0017 J-0.0028
G3 X1.8592 Y0.6986 I0.0129 J0.0125
G2 X1.8602 Y0.6963 I-0.0022 J-0.0022
G3 Y0.6957 I0.018 J-0.0004
G2 X1.8591 Y0.6931 I-0.0035 J-0.0001
G3 X1.8589 Y0.6929 I0.0127 J-0.0128
G2 X1.8565 Y0.6919 I-0.0024 J0.0023
G3 X1.8559 I-0.0003 J-0.018
G2 X1.8537 Y0.6928 I-0.0001 J0.0029
G3 X1.8532 Y0.6933 I-0.013 J-0.0124
G2 X1.8522 Y0.6957 I0.0023 J0.0024
G3 Y0.6963 I-0.018 J0.0003
G2 X1.8531 Y0.6985 I0.0029 J0.0001
G3 X1.8537 Y0.6991 I-0.0124 J0.013
G2 X1.8559 Y0.7 I0.0021 J-0.002
G3 X1.8565 I0.0003 J0.018
G2 X1.8582 Y0.6995 I0.0001 J-0.0033
G1 F4.0 X1.8623 Y0.7064
G2 F8.0 X1.8646 Y0.7045 I-0.0057 J-0.0097
G3 X1.8648 Y0.7043 I0.0072 J0.007
G2 X1.8682 Y0.6962 I-0.0078 J-0.0079
G3 Y0.6958 I0.01 J-0.0002
G2 X1.8648 Y0.6875 I-0.0115 J-0.0002
G3 X1.8646 Y0.6873 I0.007 J-0.0071
G2 X1.8564 Y0.6839 I-0.0081 J0.0079
G3 X1.856 I-0.0002 J-0.01
G2 X1.8479 Y0.6873 I-0.0002 J0.0109
G3 X1.8477 Y0.6875 I-0.0072 J-0.0069
G2 X1.8442 Y0.6958 I0.0079 J0.0081
G3 Y0.6962 I-0.01 J0.0002
G2 X1.8476 Y0.7043 I0.0109 J0.0002
G3 X1.8479 Y0.7046 I-0.0069 J0.0072
G2 X1.856 Y0.708 I0.0079 J-0.0075
G3 X1.8564 I0.0002 J0.01
G2 X1.8623 Y0.7064 I0.0002 J-0.0113
G0 Z0.125
G0 X1.7674 Y0.7243
G0 Z0.0625
G1 F4.0 Z-0.02
G3 F8.0 X1.7685 Y0.737 I-0.0654 J0.0123
G3 X1.7648 Y0.7579 I-0.052 J0.0013
G3 X1.7647 Y0.7581 I-0.0093 J-0.0038
G3 X1.746 Y0.7753 I-0.0287 J-0.0122
G1 Y0.7754
G3 X1.7312 Y0.7776 I-0.0142 J-0.0426
G3 X1.7052 Y0.765 I-0.0005 J-0.032
G3 X1.6979 Y0.7502 I0.0311 J-0.0247
G3 X1.6961 Y0.7353 I0.0558 J-0.0144
G3 X1.6977 Y0.721 I0.0571 J-0.0005
G3 X1.705 Y0.7063 I0.0369 J0.0091
G3 X1.7169 Y0.6973 I0.0245 J0.02
G3 X1.717 Y0.6972 I0.004 J0.0092
G3 X1.7308 Y0.6945 I0.0134 J0.0323
G3 X1.7482 Y0.6979 I0.0008 J0.042
G3 X1.7484 Y0.698 I-0.0039 J0.0092
G3 X1.763 Y0.7118 I-0.0131 J0.0286
G3 X1.7672 Y0.7231 I-0.037 J0.0199
G3 X1.7674 Y0.7243 I-0.0652 J0.0135
G0 Z0.125
G0 X1.7735 Y0.7573
G0 Z0.0625
G1 F4.0 Z-0.02
G3 F8.0 X1.7721 Y0.7609 I-0.0569 J-0.019
G3 X1.772 Y0.7612 I-0.0167 J-0.0068
G3 X1.7625 Y0.7746 I-0.036 J-0.0154
G3 X1.7685 Y0.7826 I-0.011 J0.0143
G2 X1.7735 Y0.7573 I-0.0736 J-0.0277
G1 F4.0 X1.7815 Y0.7576
G2 F8.0 Y0.7555 I-0.0866 J-0.0026
G2 X1.7799 Y0.7333 I-0.1418 J-0.0009
G2 X1.774 Y0.713 I-0.0767 J0.0113
G2 X1.767 Y0.702 I-0.0422 J0.0192
G2 X1.7534 Y0.692 I-0.0289 J0.0252
G2 X1.7292 Y0.6876 I-0.0229 J0.0559
G3 X1.7289 I-0.0002 J-0.01
G2 X1.7112 Y0.6908 I-0.0006 J0.0473
G2 X1.6967 Y0.7007 I0.0157 J0.0385
G1 X1.6966
G2 X1.6868 Y0.7168 I0.0314 J0.0304
G2 X1.6837 Y0.7364 I0.0563 J0.0189
G3 Y0.7366 I-0.01 J0.0001
G2 X1.6866 Y0.7562 I0.0611 J0.0008
G2 X1.6962 Y0.7719 I0.0386 J-0.0128
G3 X1.6963 I-0.0071 J0.007
G2 X1.7111 Y0.7816 I0.0284 J-0.0273
G2 X1.7295 Y0.7846 I0.0177 J-0.0501
G2 X1.738 Y0.7833 I-0.0006 J-0.0319
G1 X1.7381
G2 X1.7474 Y0.7798 I-0.019 J-0.0652
G3 X1.7609 Y0.7925 I0.0042 J0.0091
G3 X1.7511 Y0.811 I-0.0791 J-0.0302
G3 X1.7383 Y0.8265 I-0.1032 J-0.0723
G3 X1.7139 Y0.8468 I-0.1 J-0.0953
G1 X1.7178 Y0.851
G2 X1.7382 Y0.8391 I-0.0224 J-0.0618
G2 X1.7593 Y0.816 I-0.08 J-0.094
G3 X1.7594 Y0.8158 I0.0082 J0.0057
G2 X1.7754 Y0.7869 I-0.1053 J-0.0772
G2 X1.7815 Y0.7576 I-0.0806 J-0.0319
( Pocket4 )
S10000
G0 Z0.125
G0 X2.5063 Y1.0621
G0 Z0.0625
G1 F4.0 Z-0.02
G3 F8.0 X2.5035 Y1.067 I-0.0222 J-0.0096
G3 X2.5061 Y1.0722 I-0.0202 J0.0133
G2 X2.5063 Y1.0646 I-0.0981 J-0.0064
G3 Y1.0641 I0.0242 J-0.0003
G2 Y1.0621 I-0.0954 J-0.0009
G1 F4.0 X2.5023 Y1.0604
G3 F8.0 X2.4978 Y1.0668 I-0.0182 J-0.0079
G3 X2.5031 Y1.0798 I-0.0145 J0.0134
G3 X2.5004 Y1.1011 I-0.0732 J0.0015
G1 Y1.1012
G3 X2.4895 Y1.1216 I-0.053 J-0.0151
G2 X2.4936 Y1.1176 I-0.0356 J-0.0397
G3 X2.4937 Y1.1175 I0.0147 J0.0132
G2 X2.5067 Y1.0942 I-0.0435 J-0.0397
G2 X2.5107 Y1.0645 I-0.0987 J-0.0284
G3 Y1.0641 I0.0198 J-0.0003
G2 X2.5076 Y1.0384 I-0.0998 J-0.0009
G2 X2.4976 Y1.0169 I-0.063 J0.0163
G2 X2.4855 Y1.0054 I-0.038 J0.0277
G3 X2.4877 Y1.0077 I-0.0377 J0.039
G1 X2.4878
G3 X2.5005 Y1.03 I-0.0429 J0.0392
G3 X2.5039 Y1.0523 I-0.0765 J0.0232
G3 X2.5023 Y1.0604 I-0.0198 J0.0002
G0 Z0.125
G0 X2.3975 Y1.0723
G0 Z0.0625
G1 F4.0 Z-0.02
G1 F8.0 X2.3911
G2 X2.392 Y1.0803 I0.1666 J-0.0151
G1 Y1.0804
G2 X2.3988 Y1.1043 I0.0875 J-0.0118
G2 X2.4033 Y1.1122 I0.0466 J-0.0212
G3 X2.3989 Y1.1015 I0.0477 J-0.0255
G3 X2.3959 Y1.0805 I0.077 J-0.022
G3 X2.3975 Y1.0723 I0.0198 J-0.0002
G0 Z0.125
G0 X2.4063 Y1.0124
G0 Z0.0625
G1 F4.0 Z-0.02
G3 F8.0 X2.4109 Y1.006 I0.0407 J0.0249
G2 X2.4042 Y1.012 I0.0284 J0.0388
G1 X2.4063 Y1.0124
G1 F4.0 X2.4138 Y1.017
G3 F8.0 X2.4222 Y1.0073 I0.0332 J0.0203
G3 X2.4224 Y1.0071 I0.007 J0.0085
G3 X2.4471 Y0.999 I0.0237 J0.0307
G3 X2.4813 Y1.0136 I0.0007 J0.0454
G1 Y1.0137
G3 X2.4921 Y1.0326 I-0.0364 J0.0333
G3 X2.4951 Y1.0524 I-0.0681 J0.0206
G3 X2.4841 Y1.0635 I-0.011 J0.0001
G1 X2.3817
G2 X2.3833 Y1.0815 I0.176 J-0.0063
G1 Y1.0816
G2 X2.3908 Y1.1079 I0.0962 J-0.0129
G2 X2.4001 Y1.1225 I0.0546 J-0.0248
G2 X2.4231 Y1.1389 I0.0451 J-0.0388
G2 X2.4519 Y1.144 I0.0277 J-0.0725
G3 X2.4523 I0.0002 J0.011
G2 X2.5001 Y1.1235 I0.0016 J-0.0621
G1 X2.5002 Y1.1234
G2 X2.5152 Y1.0966 I-0.05 J-0.0457
G2 X2.5195 Y1.0644 I-0.1071 J-0.0308
G3 Y1.0642 I0.011 J-0.0001
G2 X2.5161 Y1.0362 I-0.1086 J-0.001
G2 X2.5047 Y1.0117 I-0.0715 J0.0185
G2 X2.4802 Y0.9928 I-0.0451 J0.0329
G2 X2.4478 Y0.9871 I-0.0308 J0.0814
G3 X2.4475 I-0.0002 J-0.011
G2 X2.4257 Y0.9897 I-0.0008 J0.0878
G2 X2.4069 Y0.9981 I0.0141 J0.0568
G2 X2.3928 Y1.012 I0.0325 J0.0468
G2 X2.3889 Y1.0184 I0.0607 J0.0423
G1 X2.4111 Y1.0221
G3 X2.4126 Y1.0191 I0.0555 J0.0258
G3 X2.4138 Y1.017 I0.0344 J0.0181
G0 Z0.125
G0 X2.4153 Y1.0692
G0 Z0.0625
G1 F4.0 Z-0.02
G3 F8.0 X2.4156 I0.0003 J0.011
G1 X2.4833
G3 X2.4943 Y1.08 I0.0 J0.011
G3 X2.4919 Y1.0988 I-0.0644 J0.0014
G3 X2.4821 Y1.1168 I-0.0446 J-0.0127
G3 X2.4493 Y1.1313 I-0.032 J-0.0279
G3 X2.4177 Y1.1174 I-0.0004 J-0.042
G3 X2.4074 Y1.0991 I0.0333 J-0.0307
G3 X2.4046 Y1.0804 I0.0685 J-0.0196
G3 X2.4153 Y1.0692 I0.011 J-0.0001
G0 Z0.125
G0 X2.314
G0 Z0.0625
G1 F4.0 Z-0.02
G1 F8.0 Y0.9998
G1 X2.3083
G1 Y1.1964
G1 X2.314
G1 Y1.0692
G1 F4.0 X2.3228
G1 F8.0 Y0.991
G1 X2.2995
G1 Y1.2052
G1 X2.3228
G1 Y1.0692
G0 Z0.125
G0 X2.2223
G0 Z0.0625
G1 F4.0 Z-0.02
G1 F8.0 Y0.9998
G1 X2.2166
G1 Y1.1964
G1 X2.2223
G1 Y1.0692
G1 F4.0 X2.2311
G1 F8.0 Y0.991
G1 X2.2078
G1 Y1.2052
G1 X2.2311
G1 Y1.0692
G0 Z0.125
G0 X2.1316
G0 Z0.0625
G1 F4.0 Z-0.02
G1 F8.0 Y1.0428
G3 Y1.0427 I0.0198 J0.0
G2 X2.1306 Y1.0262 I-0.1228 J-0.0008
G3 X2.1305 Y1.026 I0.0196 J-0.0025
G2 X2.1271 Y1.0129 I-0.0493 J0.0059
G2 X2.1161 Y1.0012 I-0.0227 J0.0103
G3 X2.116 Y1.0011 I0.0093 J-0.0175
G2 X2.1012 Y0.9963 I-0.0205 J0.0379
G3 X2.1054 Y0.9987 I-0.0224 J0.0428
G3 X2.1062 Y0.9993 I-0.0109 J0.0165
G3 X2.1226 Y1.0224 I-0.0263 J0.0362
G3 X2.123 Y1.0237 I-0.0189 J0.0058
G3 X2.125 Y1.0379 I-0.0818 J0.0188
G3 X2.1256 Y1.0497 I-0.2911 J0.0206
G3 X2.1259 Y1.0725 I-0.7145 J0.0213
G1 Y1.1313
G1 X2.1316
G1 Y1.0692
G1 F4.0 X2.1404
G1 F8.0 Y1.0428
G2 X2.1393 Y1.025 I-0.1316 J-0.0008
G3 Y1.0249 I0.0109 J-0.0014
G2 X2.1352 Y1.0093 I-0.0581 J0.007
G2 X2.1203 Y0.9934 I-0.0308 J0.0138
G1 X2.1202
G2 X2.0947 Y0.9871 I-0.0247 J0.0457
G3 X2.0945 I-0.0002 J-0.011
G2 X2.0676 Y0.9938 I-0.0001 J0.0574
G3 X2.0674 I-0.0051 J-0.0097
G2 X2.0487 Y1.0092 I0.0247 J0.0489
G3 X2.0508 Y1.0078 I0.0265 J0.0351
G3 X2.0776 Y0.9996 I0.0265 J0.0388
G3 X2.1005 Y1.0061 I0.0012 J0.0395
G3 X2.101 Y1.0064 I-0.006 J0.0092
G3 X2.1142 Y1.025 I-0.0212 J0.0291
G3 X2.1144 Y1.0257 I-0.0105 J0.0032
G3 X2.1162 Y1.0385 I-0.0733 J0.0169
G3 X2.1168 Y1.05 I-0.2823 J0.02
G3 X2.1171 Y1.0725 I-0.7057 J0.0211
G1 Y1.1401
G1 X2.1404
G1 Y1.0692
G0 Z0.125
G0 X2.0199 Y1.0306
G0 Z0.0625
G1 F4.0 Z-0.02
G3 F8.0 X2.0212 Y1.0259 I0.0784 J0.0179
G3 X2.0217 Y1.0241 I0.0232 J0.0068
G3 X2.0219 Y1.0238 I0.0534 J0.0202
G3 X2.0199 Y1.022 I0.0159 J-0.0182
G1 Y1.0306
G1 F4.0 X2.0242 Y1.0316
G3 F8.0 X2.0254 Y1.0271 I0.0741 J0.017
G3 X2.0259 Y1.0257 I0.019 J0.0056
G3 X2.0272 Y1.0224 I0.0493 J0.0186
G3 X2.018 Y1.0056 I0.0105 J-0.0168
G1 Y0.9998
G1 X2.0155
G1 Y1.1313
G1 X2.0212
G1 Y1.079
G3 X2.0225 Y1.0425 I0.3969 J-0.0037
G3 X2.0242 Y1.0316 I0.0758 J0.006
G1 F4.0 X2.0328 Y1.0336
G2 F8.0 X2.0313 Y1.0432 I0.0655 J0.015
G2 X2.03 Y1.079 I0.3868 J0.032
G1 Y1.1401
G1 X2.0067
G1 Y0.991
G1 X2.0268
G1 Y1.0056
G2 X2.0417 Y1.0159 I0.011 J0.0
G2 X2.0341 Y1.0288 I0.0335 J0.0284
G2 X2.0338 Y1.0296 I0.0103 J0.0039
G2 X2.0328 Y1.0336 I0.0645 J0.019
G0 Z0.125
G0 X1.9266 Y1.0899
G0 Z0.0625
G1 F4.0 Z-0.02
G3 F8.0 X1.9253 Y1.0958 I-0.1153 J-0.0212
G3 X1.9251 Y1.0966 I-0.0235 J-0.0056
G3 X1.9218 Y1.1064 I-0.0793 J-0.0216
G3 X1.9266 Y1.1105 I-0.0131 J0.0204
G1 Y1.0899
G1 F4.0 X1.9222 Y1.0891
G3 F8.0 X1.9211 Y1.0948 I-0.111 J-0.0204
G3 X1.9209 Y1.0954 I-0.0193 J-0.0046
G3 X1.9161 Y1.1084 I-0.0751 J-0.0204
G3 X1.9285 Y1.1268 I-0.0074 J0.0184
G1 Y1.1313
G1 X1.931
G1 Y0.9998
G1 X1.9253
G1 Y1.0328
G3 X1.9238 Y1.0775 I-0.5253 J0.0044
G3 X1.9222 Y1.0891 I-0.1125 J-0.0088
G0 Z0.125
G0 X1.8759 Y1.1342
G0 Z0.0625
G1 F4.0 Z-0.02
G3 F8.0 X1.8748 I0.0 J-0.0447
G3 X1.8656 Y1.1332 I0.0008 J-0.0515
G1 X1.865 Y1.1349
G2 X1.8698 Y1.1352 I0.005 J-0.0374
G3 X1.87 I-0.0001 J0.0198
G2 X1.8759 Y1.1342 I0.0002 J-0.0163
G1 F4.0 X1.8789 Y1.1425
G2 F8.0 X1.8833 Y1.1403 I-0.0087 J-0.0236
G2 X1.8914 Y1.1325 I-0.022 J-0.0305
G3 X1.8915 Y1.1323 I0.0088 J0.0066
G2 X1.8994 Y1.121 I-0.0968 J-0.0759
G3 X1.9197 Y1.1268 I0.0094 J0.0058
G1 Y1.1401
G1 X1.9398
G1 Y0.991
G1 X1.9165
G1 Y1.0328
G3 X1.915 Y1.0768 I-0.5165 J0.0044
G3 X1.9125 Y1.0928 I-0.1037 J-0.0081
G3 X1.9124 Y1.0931 I-0.0107 J-0.0025
G3 X1.9079 Y1.1052 I-0.0666 J-0.0181
G3 X1.8984 Y1.1175 I-0.0328 J-0.0154
G3 X1.8981 Y1.1177 I-0.0071 J-0.0084
G3 X1.875 Y1.1254 I-0.0222 J-0.0283
G3 X1.8601 Y1.1225 I0.0007 J-0.0427
G1 X1.8535 Y1.141
G2 X1.8698 Y1.144 I0.0165 J-0.0435
G1 X1.8699
G2 X1.8789 Y1.1425 I0.0004 J-0.0251
G0 Z0.125
G0 X1.8006 Y1.1313
G0 Z0.0625
G1 F4.0 Z-0.02
G1 F8.0 Y0.9998
G1 X1.7949
G1 Y1.1313
G1 X1.8006
G1 F4.0 X1.8094
G1 F8.0 Y0.991
G1 X1.7861
G1 Y1.1401
G1 X1.8094
G1 Y1.1313
G0 Z0.125
G0 X1.8006 Y1.1941
G0 Z0.0625
G1 F4.0 Z-0.02
G1 F8.0 X1.7949
G1 Y1.1964
G1 X1.8006
G1 Y1.1941
G1 F4.0 X1.8094
G1 F8.0 Y1.1853
G1 X1.7861
G1 Y1.2052
G1 X1.8094
G1 Y1.1941
G0 Z0.125
G0 X1.7099 Y1.1313
G0 Z0.0625
G1 F4.0 Z-0.02
G1 F8.0 Y1.0428
G3 Y1.0427 I0.0198 J0.0
G2 X1.7089 Y1.0262 I-0.1228 J-0.0008
G3 Y1.026 I0.0196 J-0.0025
G2 X1.7054 Y1.0129 I-0.0493 J0.0059
G2 X1.6944 Y1.0012 I-0.0227 J0.0103
G3 X1.6943 Y1.0011 I0.0093 J-0.0175
G2 X1.6796 Y0.9963 I-0.0205 J0.0379
G3 X1.6837 Y0.9987 I-0.0224 J0.0428
G3 X1.6845 Y0.9993 I-0.0109 J0.0165
G3 X1.7009 Y1.0224 I-0.0263 J0.0362
G3 X1.7013 Y1.0237 I-0.0189 J0.0058
G3 X1.7033 Y1.0379 I-0.0818 J0.0188
G3 X1.7039 Y1.0497 I-0.2911 J0.0206
G3 X1.7042 Y1.0725 I-0.7145 J0.0213
G1 Y1.1313
G1 X1.7099
G1 F4.0 Y1.1401
G1 F8.0 X1.7187
G1 Y1.0428
G2 X1.7176 Y1.025 I-0.1316 J-0.0008
G3 Y1.0249 I0.0109 J-0.0014
G2 X1.7135 Y1.0093 I-0.0581 J0.007
G2 X1.6986 Y0.9934 I-0.0308 J0.0138
G1 X1.6985
G2 X1.673 Y0.9871 I-0.0247 J0.0457
G3 X1.6728 I-0.0002 J-0.011
G2 X1.6459 Y0.9938 I-0.0001 J0.0574
G3 X1.6457 I-0.0051 J-0.0097
G2 X1.6271 Y1.0092 I0.0247 J0.0489
G3 X1.6291 Y1.0078 I0.0265 J0.0351
G3 X1.6559 Y0.9996 I0.0265 J0.0388
G3 X1.6789 Y1.0061 I0.0012 J0.0395
G3 X1.6793 Y1.0064 I-0.006 J0.0092
G3 X1.6925 Y1.025 I-0.0212 J0.0291
G3 X1.6927 Y1.0257 I-0.0105 J0.0032
G3 X1.6945 Y1.0385 I-0.0733 J0.0169
G3 X1.6951 Y1.05 I-0.2823 J0.02
G3 X1.6954 Y1.0725 I-0.7057 J0.0211
G1 Y1.1401
G1 X1.7099
G0 Z0.125
G0 X1.5982 Y1.0306
G0 Z0.0625
G1 F4.0 Z-0.02
G3 F8.0 X1.5995 Y1.0259 I0.0784 J0.0179
G3 X1.6001 Y1.0241 I0.0232 J0.0068
G3 X1.6002 Y1.0238 I0.0534 J0.0202
G3 X1.5982 Y1.022 I0.0159 J-0.0182
G1 Y1.0306
G1 F4.0 X1.6025 Y1.0316
G3 F8.0 X1.6037 Y1.0271 I0.0741 J0.017
G3 X1.6042 Y1.0257 I0.019 J0.0056
G3 X1.6056 Y1.0224 I0.0493 J0.0186
G3 X1.5963 Y1.0056 I0.0105 J-0.0168
G1 Y0.9998
G1 X1.5938
G1 Y1.1313
G1 X1.5995
G1 Y1.079
G3 X1.6009 Y1.0425 I0.3969 J-0.0037
G3 X1.6025 Y1.0316 I0.0758 J0.006
G1 F4.0 X1.6111 Y1.0336
G2 F8.0 X1.6096 Y1.0432 I0.0655 J0.015
G2 X1.6083 Y1.079 I0.3868 J0.032
G1 Y1.1401
G1 X1.585
G1 Y0.991
G1 X1.6051
G1 Y1.0056
G2 X1.62 Y1.0159 I0.011 J0.0
G2 X1.6124 Y1.0288 I0.0335 J0.0284
G2 X1.6122 Y1.0296 I0.0103 J0.0039
G2 X1.6111 Y1.0336 I0.0645 J0.019
G0 Z0.125
G0 X1.5063 Y1.0999
G0 Z0.0625
G1 F4.0 Z-0.02
G3 F8.0 X1.505 Y1.1051 I-0.1003 J-0.0232
G3 X1.5048 Y1.1058 I-0.0233 J-0.0067
G3 X1.5037 Y1.1087 I-0.0529 J-0.017
G3 X1.5063 Y1.1111 I-0.0149 J0.019
G1 Y1.0999
G1 F4.0 X1.5021 Y1.0989
G3 F8.0 X1.5007 Y1.1039 I-0.096 J-0.0222
G3 X1.5006 Y1.1045 I-0.019 J-0.0055
G3 X1.4983 Y1.1104 I-0.0488 J-0.0156
G3 X1.5086 Y1.1278 I-0.0095 J0.0174
G1 Y1.1313
G1 X1.5107
G1 Y0.9998
G1 X1.5051
G1 Y1.0631
G3 X1.5044 Y1.0821 I-0.2583 J0.001
G3 X1.5021 Y1.0989 I-0.0984 J-0.0055
G0 Z0.125
G0 X1.4064 Y1.1131
G0 Z0.0625
G1 F4.0 Z-0.02
G3 F8.0 X1.4063 Y1.1128 I0.0428 J-0.0128
G3 X1.4062 Y1.1127 I0.0232 J-0.0068
G3 X1.4039 Y1.1004 I0.064 J-0.0183
G3 X1.4035 Y1.0954 I0.1633 J-0.0168
G3 X1.4013 Y1.1043 I-0.1015 J-0.0203
G3 X1.4003 Y1.1075 I-0.0542 J-0.0159
G3 X1.4064 Y1.1131 I-0.0132 J0.0203
G1 F4.0 X1.4029 Y1.1157
G3 F8.0 X1.4046 Y1.1184 I-0.0157 J0.012
G2 X1.4166 Y1.1309 I0.0285 J-0.0153
G2 X1.4287 Y1.1348 I0.0175 J-0.0336
G3 X1.4266 Y1.1336 I0.0209 J-0.0381
G3 X1.4254 Y1.1328 I0.0105 J-0.0168
G3 X1.4105 Y1.1116 I0.0238 J-0.0325
G3 Y1.1115 I0.019 J-0.0056
G3 X1.4083 Y1.0999 I0.0598 J-0.0171
G3 X1.4076 Y1.0909 I0.159 J-0.0164
G1 Y1.0908
G3 X1.4073 Y1.0738 I0.3605 J-0.0161
G1 Y0.9998
G1 X1.4016
G1 Y1.0621
G3 X1.4009 Y1.0813 I-0.242 J0.001
G3 X1.3971 Y1.103 I-0.0989 J-0.0062
G1 Y1.1031
G1 Y1.103
G3 X1.3947 Y1.1095 I-0.05 J-0.0147
G3 X1.4029 Y1.1157 I-0.0076 J0.0183
G0 Z0.125
G0 X1.3259 Y1.1345
G0 Z0.0625
G1 F4.0 Z-0.02
G3 F8.0 X1.3122 Y1.1215 I0.0209 J-0.0357
G3 X1.3115 Y1.1203 I0.0166 J-0.0109
G3 X1.3065 Y1.1065 I0.0395 J-0.022
G3 X1.3051 Y1.0962 I0.0941 J-0.0187
G3 X1.3043 Y1.0778 I0.2005 J-0.0173
G1 Y0.9998
G1 X1.2987
G1 Y1.0894
G3 X1.2986 Y1.0895 I-0.0198 J0.0
G2 X1.2994 Y1.1055 I0.1601 J0.0009
G3 Y1.1058 I-0.0197 J0.0019
G2 X1.3019 Y1.1176 I0.0437 J-0.0033
G2 X1.313 Y1.1302 I0.0245 J-0.0105
G2 X1.3227 Y1.1339 I0.0167 J-0.0287
G2 X1.3259 Y1.1345 I0.0117 J-0.0538
G1 F4.0 X1.3304 Y1.1269
G3 F8.0 X1.3196 Y1.1167 I0.0164 J-0.0281
G3 X1.3192 Y1.116 I0.0092 J-0.006
G3 X1.3152 Y1.1048 I0.0318 J-0.0177
G3 X1.3138 Y1.0955 I0.0855 J-0.0171
G1 Y1.0954
G3 X1.3131 Y1.0778 I0.1918 J-0.0165
G1 Y0.991
G1 X1.2899
G1 Y1.0894
G1 X1.2898 Y1.0895
G2 X1.2906 Y1.1063 I0.1689 J0.0009
G3 Y1.1065 I-0.011 J0.001
G2 X1.2938 Y1.1208 I0.0525 J-0.004
G2 X1.3086 Y1.1378 I0.0327 J-0.0137
G2 X1.3208 Y1.1425 I0.0212 J-0.0362
G2 X1.3348 Y1.144 I0.0136 J-0.0624
G3 X1.335 I0.0001 J0.011
G2 X1.3576 Y1.1385 I0.0002 J-0.0487
G2 X1.3785 Y1.1209 I-0.0328 J-0.0601
G3 X1.3968 Y1.1226 I0.0086 J0.0068
G2 X1.4123 Y1.1386 I0.0362 J-0.0194
G2 X1.4352 Y1.144 I0.0218 J-0.0413
G3 X1.4356 I0.0003 J0.011
G2 X1.4601 Y1.138 I0.0004 J-0.0514
G2 X1.4802 Y1.1209 I-0.033 J-0.0593
G3 X1.4998 Y1.1278 I0.0086 J0.0068
G1 Y1.1401
G1 X1.5195
G1 Y0.991
G1 X1.4963
G1 Y1.0631
G3 X1.4957 Y1.0816 I-0.2495 J0.001
G3 X1.4923 Y1.1015 I-0.0896 J-0.0049
G3 X1.4922 Y1.1018 I-0.0106 J-0.003
G3 X1.4759 Y1.1238 I-0.0404 J-0.0129
G3 X1.4758 I-0.0062 J-0.0091
G3 X1.451 Y1.1313 I-0.0246 J-0.0365
G3 X1.4313 Y1.1261 I-0.0014 J-0.0347
G3 X1.4306 Y1.1257 I0.0058 J-0.0093
G3 X1.419 Y1.1091 I0.0186 J-0.0254
G1 X1.4189 Y1.109
G3 X1.4171 Y1.0991 I0.0513 J-0.0147
G3 X1.4164 Y1.0905 I0.1502 J-0.0155
G1 Y1.0904
G3 X1.4161 Y1.0738 I0.3517 J-0.0157
G1 Y0.991
G1 X1.3928
G1 Y1.0622
G3 X1.3922 Y1.0807 I-0.2332 J0.001
G3 X1.3887 Y1.1006 I-0.0901 J-0.0056
G3 X1.3725 Y1.1235 I-0.0415 J-0.0122
G1 X1.3724
G3 X1.3485 Y1.1313 I-0.0244 J-0.034
G3 X1.3304 Y1.1269 I-0.0017 J-0.0325
G0 Z0.125
G0 X2.6361 Y1.192
G0 Z0.0625
G1 F4.0 Z-0.02
G1 F8.0 X2.647
G3 X2.6416 Y1.1804 I0.0184 J-0.0158
G3 X2.6361 Y1.192 I-0.0238 J-0.0041
G1 F4.0 X2.6327 Y1.1892
G3 F8.0 X2.6177 Y1.1961 I-0.015 J-0.0129
G1 X2.5676
G1 Y1.1964
G1 X2.7157
G1 Y1.1961
G1 X2.6654
G3 X2.6456 Y1.1763 I0.0 J-0.0198
G1 Y0.9998
G1 X2.6375
G1 Y1.1763
G3 X2.6327 Y1.1892 I-0.0198 J0.0
G1 F4.0 X2.626 Y1.1834
G3 F8.0 X2.6177 Y1.1873 I-0.0083 J-0.0072
G1 X2.5588
G1 Y1.2052
G1 X2.7245
G1 Y1.1873
G1 X2.6654
G3 X2.6544 Y1.1763 I0.0 J-0.011
G1 Y0.991
G1 X2.6287
G1 Y1.1763
G3 X2.626 Y1.1834 I-0.011 J0.0
G0 Z0.125
M5
M30
