( Made using CamBam - http://www.cambam.co.uk )
( 053-iodine 11/7/2013 10:14:13 PM )
( T0 : 0.0078 )
G20 G90 G91.1 G64 G40
G0 Z0.125
( T0 : 0.0078 )
T0 M6
( Engrave1 )
G17
M3 S1000
G0 X0.8746 Y1.4207
G0 Z0.0425
G1 F4.0 Z-0.021
G1 F8.0 X1.1342
G1 Y1.3789
G1 X1.0844
G3 X1.0691 Y1.3782 I-0.001 J-0.1543
G3 X1.0614 Y1.377 I0.0056 J-0.0588
G3 X1.0544 Y1.3738 I0.0029 J-0.0155
G3 X1.0503 Y1.362 I0.0182 J-0.0129
G3 X1.0496 Y1.3496 I0.101 J-0.0116
G1 Y0.9475
G3 X1.0508 Y0.931 I0.1032 J-0.0008
G3 X1.0558 Y0.9153 I0.0492 J0.007
G2 X1.0793 Y0.9167 I0.0195 J-0.1236
G1 X1.1342
G1 Y0.875
G1 X0.8746
G1 Y0.9167
G1 X0.928
G3 X0.9415 Y0.9174 I0.0009 J0.122
G3 X0.9544 Y0.9215 I-0.0011 J0.0257
G3 X0.9588 Y0.9341 I-0.0195 J0.0139
G3 X0.9595 Y0.9475 I-0.1085 J0.0125
G1 Y1.3496
G3 X0.9591 Y1.3611 I-0.1174 J0.0008
G3 X0.9581 Y1.3668 I-0.0426 J-0.0039
G3 X0.9555 Y1.3719 I-0.0095 J-0.0015
G3 X0.9399 Y1.3778 I-0.0188 J-0.0264
G3 X0.9233 Y1.3789 I-0.0156 J-0.1101
G1 X0.8746
G1 Y1.4207
G0 Z0.125
G0 X1.4059 Y1.5184
G0 Z0.0425
G1 F4.0 Z-0.021
G1 F8.0 X1.4209 Y1.551
G3 X1.4446 Y1.5358 I0.0723 J0.0865
G3 X1.4721 Y1.5293 I0.0284 J0.059
G3 X1.497 Y1.5339 I0.0013 J0.062
G3 X1.5217 Y1.5615 I-0.0188 J0.0417
G3 X1.526 Y1.5795 I-0.0804 J0.0289
G3 X1.5271 Y1.598 I-0.1369 J0.0179
G3 X1.5249 Y1.6216 I-0.1115 J0.0011
G3 X1.5187 Y1.6386 I-0.0617 J-0.0127
G3 X1.4992 Y1.657 I-0.0372 J-0.0198
G3 X1.4729 Y1.6621 I-0.0248 J-0.0574
G3 X1.4469 Y1.656 I-0.0002 J-0.0571
G3 X1.4258 Y1.6396 I0.0348 J-0.0668
G1 X1.4125 Y1.6488
G1 Y1.7873
G1 X1.5549
G1 Y1.7541
G1 X1.4496
G1 Y1.6846
G2 X1.4671 Y1.6929 I0.0307 J-0.0417
G2 X1.4863 Y1.6953 I0.0185 J-0.0709
G2 X1.5193 Y1.6901 I0.0015 J-0.0981
G2 X1.5471 Y1.6715 I-0.0215 J-0.062
G2 X1.5638 Y1.6395 I-0.06 J-0.0518
G2 X1.5682 Y1.6037 I-0.1312 J-0.0342
G2 X1.5639 Y1.5632 I-0.177 J-0.0019
G2 X1.5525 Y1.5343 I-0.0981 J0.0221
G2 X1.5176 Y1.5042 I-0.0627 J0.0374
G2 X1.4953 Y1.4979 I-0.0377 J0.0906
G2 X1.4723 Y1.4961 I-0.0224 J0.1398
G2 X1.437 Y1.5012 I-0.0012 J0.1158
G2 X1.4059 Y1.5184 I0.0271 J0.0861
G0 Z0.125
G0 X1.6115 Y1.5203
G0 Z0.0425
G1 F4.0 Z-0.021
G1 F8.0 X1.6303 Y1.5504
G3 X1.6787 Y1.5293 I0.0469 J0.0415
G3 X1.7002 Y1.5319 I0.0011 J0.0803
G3 X1.715 Y1.5389 I-0.012 J0.0451
G3 X1.7294 Y1.5584 I-0.0237 J0.0324
G3 X1.733 Y1.5824 I-0.068 J0.0226
G3 X1.7293 Y1.6037 I-0.0587 J0.0008
G3 X1.7172 Y1.6217 I-0.0456 J-0.0177
G3 X1.6977 Y1.6335 I-0.0359 J-0.0373
G3 X1.6752 Y1.6369 I-0.0216 J-0.0664
G1 X1.6721
G1 Y1.6686
G1 X1.6738
G3 X1.6924 Y1.6705 I0.0009 J0.0825
G3 X1.7057 Y1.6756 I-0.0101 J0.0457
G3 X1.7197 Y1.6915 I-0.0168 J0.0289
G3 X1.7234 Y1.7123 I-0.0488 J0.0196
G3 X1.721 Y1.7308 I-0.0644 J0.0009
G3 X1.7038 Y1.7524 I-0.0334 J-0.009
G3 X1.6906 Y1.7568 I-0.0213 J-0.0413
G3 X1.6768 Y1.758 I-0.0133 J-0.074
G3 X1.6546 Y1.754 I-0.0009 J-0.0589
G3 X1.6363 Y1.741 I0.0181 J-0.0448
G1 X1.6189 Y1.7676
G2 X1.6465 Y1.7865 I0.0441 J-0.0348
G2 X1.6797 Y1.7912 I0.0313 J-0.1012
G2 X1.7121 Y1.7867 I0.0012 J-0.1101
G2 X1.7408 Y1.7711 I-0.0231 J-0.0768
G2 X1.7645 Y1.7199 I-0.0402 J-0.0496
G2 X1.7512 Y1.6777 I-0.0701 J-0.0011
G2 X1.7377 Y1.663 I-0.0625 J0.0437
G2 X1.7203 Y1.6531 I-0.0364 J0.0437
G2 X1.7594 Y1.6258 I-0.0226 J-0.0738
G2 X1.774 Y1.5793 I-0.0597 J-0.0444
G2 X1.7684 Y1.5457 I-0.0943 J-0.0015
G2 X1.7488 Y1.5178 I-0.064 J0.024
G2 X1.7154 Y1.5006 I-0.0544 J0.0648
G2 X1.6781 Y1.4961 I-0.0356 J0.1379
G2 X1.6406 Y1.5031 I0.0001 J0.1041
G2 X1.6115 Y1.5203 I0.032 J0.0874
G0 Z0.125
G0 X1.4096 Y0.646
G0 Z0.0425
G1 F4.0 Z-0.021
G2 F8.0 X1.417 Y0.644 I-0.019 J-0.0821
G2 X1.4404 Y0.6288 I-0.018 J-0.0536
G2 X1.4546 Y0.6031 I-0.0467 J-0.0426
G2 X1.4584 Y0.5739 I-0.1005 J-0.0278
G1 Y0.559
G1 X1.3379
G3 X1.3424 Y0.5326 I0.0707 J-0.0014
G3 X1.3549 Y0.5143 I0.0462 J0.018
G3 X1.3729 Y0.5037 I0.0335 J0.0366
G3 X1.396 Y0.5002 I0.0224 J0.0694
G3 X1.4296 Y0.5068 I-0.0006 J0.0916
G3 X1.4422 Y0.5124 I-0.0522 J0.1337
G3 X1.4537 Y0.52 I-0.0249 J0.0509
G1 X1.4552
G1 Y0.49
G2 X1.4268 Y0.4801 I-0.0882 J0.2093
G2 X1.3963 Y0.4762 I-0.03 J0.1114
G2 X1.3624 Y0.4809 I-0.0015 J0.1134
G2 X1.3327 Y0.4982 I0.0215 J0.071
G2 X1.3148 Y0.5271 I0.0493 J0.0505
G2 X1.3099 Y0.5609 I0.1024 J0.0322
G2 X1.3147 Y0.5948 I0.113 J0.0014
G2 X1.3317 Y0.6246 I0.0741 J-0.0227
G2 X1.358 Y0.6426 I0.0524 J-0.0482
G2 X1.3894 Y0.6482 I0.0303 J-0.0798
G2 X1.4096 Y0.646 I0.0013 J-0.0842
G0 Z0.125
G0 X1.4037 Y0.6235
G0 Z0.0425
G1 F4.0 Z-0.021
G3 F8.0 X1.388 Y0.6255 I-0.0149 J-0.0564
G3 X1.369 Y0.6225 I-0.0008 J-0.058
G3 X1.3527 Y0.6124 I0.0138 J-0.0405
G3 X1.3379 Y0.58 I0.0359 J-0.036
G1 X1.4316
G3 X1.4292 Y0.5978 I-0.0651 J0.0004
G3 X1.4206 Y0.6136 I-0.038 J-0.0105
G3 X1.4056 Y0.623 I-0.0247 J-0.0227
G3 X1.4037 Y0.6235 I-0.0167 J-0.0559
G0 Z0.125
G0 X1.2673 Y0.6021
G0 Z0.0425
G1 F4.0 Z-0.021
G2 F8.0 X1.2684 Y0.5862 I-0.0941 J-0.0148
G1 Y0.48
G1 X1.2409
G1 Y0.5732
G3 X1.2396 Y0.5943 I-0.1591 J0.0006
G3 X1.2347 Y0.6098 I-0.0395 J-0.0038
G3 X1.2242 Y0.6189 I-0.0188 J-0.0112
G3 X1.2063 Y0.6219 I-0.0164 J-0.0419
G3 X1.1827 Y0.6164 I0.0011 J-0.0574
G3 X1.1592 Y0.6022 I0.0498 J-0.1094
G1 Y0.48
G1 X1.1316
G1 Y0.6436
G1 X1.1592
G1 Y0.6255
G2 X1.1858 Y0.6422 I0.0723 J-0.0857
G2 X1.2141 Y0.6482 I0.0284 J-0.0641
G2 X1.2361 Y0.6447 I0.001 J-0.0649
G2 X1.2545 Y0.6322 I-0.0145 J-0.0412
G2 X1.2656 Y0.6104 I-0.0409 J-0.0345
G2 X1.2673 Y0.6021 I-0.0924 J-0.0231
G0 Z0.125
G0 X1.0771
G0 Z0.0425
G1 F4.0 Z-0.021
G1 F8.0 Y0.48
G1 X1.0496
G1 Y0.6436
G1 X1.0771
G1 Y0.6021
G0 Z0.125
G0 Y0.671
G0 Z0.0425
G1 F4.0 Z-0.021
G1 F8.0 X1.0478
G1 Y0.6996
G1 X1.0789
G1 Y0.671
G1 X1.0771
G0 Z0.125
G0 X0.9951
G0 Z0.0425
G1 F4.0 Z-0.021
G1 F8.0 Y0.48
G1 X0.9676
G1 Y0.4971
G2 X0.9428 Y0.4812 I-0.0659 J0.075
G2 X0.9148 Y0.4755 I-0.0274 J0.0626
G2 X0.8887 Y0.481 I-0.0009 J0.0598
G2 X0.8682 Y0.498 I0.0248 J0.0508
G2 X0.8546 Y0.5279 I0.0644 J0.0474
G2 X0.8511 Y0.5606 I0.1363 J0.0312
G2 X0.857 Y0.5976 I0.1094 J0.0017
G2 X0.8731 Y0.6253 I0.0817 J-0.029
G2 X0.8962 Y0.6423 I0.0507 J-0.0448
G2 X0.9238 Y0.6482 I0.0276 J-0.0619
G2 X0.9466 Y0.6454 I0.0012 J-0.0857
G2 X0.9676 Y0.637 I-0.0275 J-0.0994
G1 Y0.7079
G1 X0.9951
G1 Y0.671
G0 Z0.125
G0 X0.9676 Y0.6142
G0 Z0.0425
G1 F4.0 Z-0.021
G3 F8.0 X0.9476 Y0.6211 I-0.0439 J-0.0949
G3 X0.9284 Y0.623 I-0.0185 J-0.089
G3 X0.9085 Y0.6192 I-0.0008 J-0.0505
G3 X0.8924 Y0.6069 I0.0162 J-0.0377
G3 X0.8821 Y0.5851 I0.0442 J-0.0342
G3 X0.8795 Y0.5612 I0.0979 J-0.0228
G3 X0.8814 Y0.5383 I0.1244 J-0.0011
G3 X0.8895 Y0.5168 I0.0588 J0.0098
G3 X0.9034 Y0.505 I0.0263 J0.0171
G3 X0.9214 Y0.5017 I0.017 J0.0419
G3 X0.9451 Y0.5068 I-0.0006 J0.0602
G3 X0.9676 Y0.5203 I-0.0413 J0.0941
G1 Y0.6142
G0 Z0.125
G0 X0.8176 Y0.5854
G0 Z0.0425
G1 F4.0 Z-0.021
G2 F8.0 X0.8198 Y0.5617 I-0.1163 J-0.0223
G2 X0.8153 Y0.5283 I-0.1184 J-0.0014
G2 X0.7992 Y0.4986 I-0.0741 J0.021
G2 X0.7744 Y0.4809 I-0.0497 J0.0434
G2 X0.7443 Y0.4755 I-0.0289 J0.0743
G2 X0.7141 Y0.4809 I-0.0012 J0.0807
G2 X0.6891 Y0.4986 I0.0245 J0.0611
G2 X0.6731 Y0.5283 I0.0583 J0.0505
G2 X0.6687 Y0.5617 I0.1149 J0.032
G2 X0.6731 Y0.5952 I0.1192 J0.0014
G2 X0.6891 Y0.6249 I0.0743 J-0.0209
G2 X0.7141 Y0.6427 I0.0497 J-0.0431
G2 X0.7443 Y0.6482 I0.0291 J-0.0748
G2 X0.7744 Y0.6427 I0.0011 J-0.0793
G2 X0.7992 Y0.6249 I-0.025 J-0.061
G2 X0.8153 Y0.5952 I-0.058 J-0.0507
G2 X0.8176 Y0.5854 I-0.114 J-0.032
G0 Z0.125
G0 X0.7899 Y0.5811
G0 Z0.0425
G1 F4.0 Z-0.021
G3 F8.0 X0.789 Y0.5863 I-0.1143 J-0.0181
G3 X0.7789 Y0.6089 I-0.0531 J-0.0102
G3 X0.7635 Y0.6208 I-0.0312 J-0.0246
G3 X0.7443 Y0.6244 I-0.0184 J-0.0445
G3 X0.725 Y0.6208 I-0.0008 J-0.0491
G3 X0.7094 Y0.6089 I0.0155 J-0.0364
G3 X0.6995 Y0.5863 I0.0435 J-0.0327
G3 X0.6971 Y0.5617 I0.1148 J-0.0233
G3 X0.6996 Y0.5374 I0.1107 J-0.0012
G3 X0.7096 Y0.515 I0.0553 J0.0113
G3 X0.725 Y0.5029 I0.0315 J0.0243
G3 X0.7443 Y0.4992 I0.0185 J0.044
G3 X0.7634 Y0.5029 I0.0008 J0.0472
G3 X0.7787 Y0.5149 I-0.0161 J0.0365
G3 X0.7889 Y0.5373 I-0.0443 J0.0335
G3 X0.7913 Y0.5617 I-0.1084 J0.0233
G3 X0.7899 Y0.5811 I-0.1157 J0.0013
G0 Z0.125
G0 X0.6331 Y0.5023
G0 Z0.0425
G1 F4.0 Z-0.021
G1 F8.0 Y0.48
G1 X0.547
G1 Y0.5023
G1 X0.5756
G1 Y0.6758
G1 X0.547
G1 Y0.6981
G1 X0.6331
G1 Y0.6758
G1 X0.6046
G1 Y0.5023
G1 X0.6331
G0 Z0.125
G0 X0.7698 Y0.3596
G0 Z0.0425
G1 F4.0 Z-0.021
G1 F8.0 X0.7771
G1 Y0.18
G1 X0.7527
G1 Y0.3171
G1 X0.7163 Y0.2944
G1 Y0.3172
G3 X0.7456 Y0.3364 I-0.0825 J0.1581
G3 X0.7584 Y0.3472 I-0.1135 J0.1463
G3 X0.7698 Y0.3596 I-0.0743 J0.0802
G0 Z0.125
G0 X0.8304 Y0.3365
G0 Z0.0425
G1 F4.0 Z-0.021
G2 F8.0 X0.8464 Y0.3549 I0.0329 J-0.0125
G2 X0.8607 Y0.3604 I0.025 J-0.0436
G2 X0.8759 Y0.362 I0.0147 J-0.0673
G2 X0.897 Y0.3595 I0.0009 J-0.0832
G2 X0.9161 Y0.35 I-0.012 J-0.0482
G2 X0.9274 Y0.335 I-0.0235 J-0.0292
G2 X0.9307 Y0.3165 I-0.0455 J-0.0177
G2 X0.9288 Y0.3028 I-0.0551 J0.0007
G2 X0.9215 Y0.2836 I-0.1005 J0.0273
G2 X0.9114 Y0.2657 I-0.1708 J0.0842
G1 X0.8712 Y0.202
G1 X0.9413
G1 Y0.18
G1 X0.8314
G1 Y0.1849
G1 X0.8875 Y0.2707
G3 X0.8993 Y0.2924 I-0.1204 J0.08
G3 X0.9034 Y0.3042 I-0.0739 J0.032
G3 X0.905 Y0.3165 I-0.0488 J0.0128
G3 X0.9034 Y0.3271 I-0.0312 J0.0006
G3 X0.8926 Y0.3385 I-0.0182 J-0.0063
G3 X0.8771 Y0.3413 I-0.0144 J-0.0362
G3 X0.8585 Y0.336 I-0.0001 J-0.0352
G3 X0.8459 Y0.3229 I0.0153 J-0.0273
G1 X0.8302 Y0.3359
G2 X0.8304 Y0.3365 I0.0331 J-0.0118
G0 Z0.125
G0 X0.97 Y0.2877
G0 Z0.0425
G1 F4.0 Z-0.021
G2 F8.0 X0.9708 Y0.2899 I0.0954 J-0.0334
G2 X0.9873 Y0.3214 I0.1375 J-0.0519
G2 X1.0081 Y0.346 I0.1143 J-0.0754
G2 X1.0211 Y0.3557 I0.0541 J-0.059
G2 X1.0361 Y0.362 I0.0296 J-0.0495
G1 X1.048 Y0.3489
G3 X1.0389 Y0.3432 I0.0153 J-0.0339
G3 X1.0274 Y0.3321 I0.0794 J-0.0942
G3 X1.0168 Y0.32 I0.2015 J-0.1864
G3 X1.0036 Y0.3023 I0.1544 J-0.1292
G3 X0.998 Y0.2927 I0.0772 J-0.051
G3 X0.9944 Y0.2822 I0.0351 J-0.0181
G2 X1.0075 Y0.2898 I0.0227 J-0.0238
G2 X1.0226 Y0.2919 I0.0144 J-0.0481
G2 X1.0432 Y0.2884 I0.0008 J-0.0578
G2 X1.0605 Y0.2768 I-0.0163 J-0.0431
G2 X1.0717 Y0.2574 I-0.0361 J-0.0337
G2 X1.0748 Y0.2352 I-0.0713 J-0.0213
G2 X1.0715 Y0.2126 I-0.0725 J-0.0009
G2 X1.0601 Y0.1929 I-0.0503 J0.0161
G2 X1.0232 Y0.1769 I-0.0357 J0.0319
G2 X1.0091 Y0.1782 I-0.0004 J0.0739
G2 X0.9868 Y0.1884 I0.0086 J0.0486
G2 X0.9752 Y0.2024 I0.0317 J0.038
G2 X0.9665 Y0.228 I0.0711 J0.0384
G2 X0.9644 Y0.255 I0.153 J0.0258
G2 X0.97 Y0.2877 I0.101 J-0.0007
G0 Z0.125
G0 X0.9979 Y0.2625
G0 Z0.0425
G1 F4.0 Z-0.021
G3 F8.0 X0.9934 Y0.2554 I0.018 J-0.0162
G3 X0.9907 Y0.2458 I0.0363 J-0.0153
G3 X0.99 Y0.2359 I0.0633 J-0.0096
G3 X0.9913 Y0.2221 I0.0689 J-0.0006
G3 X0.9947 Y0.212 I0.0382 J0.0075
G3 X1.0059 Y0.2009 I0.0222 J0.011
G3 X1.0214 Y0.1977 I0.0146 J0.0317
G3 X1.033 Y0.2001 I0.0004 J0.0272
G3 X1.0421 Y0.2076 I-0.0105 J0.0222
G3 X1.0481 Y0.2201 I-0.0281 J0.0212
G3 X1.0498 Y0.234 I-0.0522 J0.0133
G3 X1.0481 Y0.2482 I-0.0548 J0.0006
G3 X1.0417 Y0.2611 I-0.034 J-0.0088
G3 X1.021 Y0.2712 I-0.0203 J-0.0152
G3 X1.0077 Y0.2691 I-0.0007 J-0.0387
G3 X0.9979 Y0.2625 I0.0081 J-0.0228
G0 Z0.125
G0 X1.112 Y0.2043
G0 Z0.0425
G1 F4.0 Z-0.021
G2 F8.0 X1.1155 Y0.2089 I0.0157 J-0.008
G2 X1.1284 Y0.2143 I0.0127 J-0.0123
G2 X1.1414 Y0.2089 I0.0003 J-0.0176
G2 X1.1467 Y0.196 I-0.0123 J-0.0127
G2 X1.1414 Y0.1829 I-0.018 J-0.0002
G2 X1.1284 Y0.1776 I-0.0127 J0.0123
G2 X1.1155 Y0.1829 I-0.0003 J0.0176
G2 X1.1101 Y0.196 I0.0127 J0.0128
G2 X1.112 Y0.2043 I0.0176 J0.0003
G0 Z0.125
G0 X1.2129 Y0.19
G0 Z0.0425
G1 F4.0 Z-0.021
G3 F8.0 X1.2219 Y0.1958 I-0.0155 J0.0341
G3 X1.2334 Y0.2068 I-0.0805 J0.0955
G3 X1.2439 Y0.2188 I-0.2053 J0.1904
G3 X1.2573 Y0.2365 I-0.1511 J0.128
G3 X1.2628 Y0.2461 I-0.0754 J0.0502
G3 X1.2665 Y0.2567 I-0.034 J0.0176
G2 X1.2533 Y0.2491 I-0.0223 J0.0235
G2 X1.2383 Y0.247 I-0.0144 J0.0491
G2 X1.2177 Y0.2505 I-0.0008 J0.0578
G2 X1.2003 Y0.2622 I0.0163 J0.0431
G2 X1.1891 Y0.2816 I0.0361 J0.0337
G2 X1.186 Y0.3038 I0.0713 J0.0213
G2 X1.1893 Y0.3263 I0.0731 J0.0009
G2 X1.2007 Y0.346 I0.0505 J-0.016
G2 X1.2377 Y0.362 I0.0359 J-0.0322
G2 X1.2518 Y0.3607 I0.0004 J-0.0739
G2 X1.2741 Y0.3506 I-0.0086 J-0.0486
G2 X1.2857 Y0.3366 I-0.0317 J-0.038
G2 X1.2944 Y0.311 I-0.0711 J-0.0384
G2 X1.2965 Y0.284 I-0.153 J-0.0258
G2 X1.29 Y0.249 I-0.1009 J0.0007
G2 X1.2734 Y0.2175 I-0.1381 J0.0524
G2 X1.2527 Y0.1929 I-0.1134 J0.0747
G2 X1.2397 Y0.1832 I-0.0538 J0.0587
G2 X1.2247 Y0.1769 I-0.0296 J0.0496
G1 X1.2129 Y0.19
G0 Z0.125
G0 X1.2331 Y0.2686
G0 Z0.0425
G1 F4.0 Z-0.021
G3 F8.0 X1.2399 Y0.2678 I0.0063 J0.0245
G3 X1.2532 Y0.2699 I0.0007 J0.0387
G3 X1.2675 Y0.2835 I-0.0081 J0.0228
G3 X1.2702 Y0.2931 I-0.0363 J0.0153
G3 X1.2709 Y0.303 I-0.0633 J0.0096
G3 X1.2696 Y0.3169 I-0.0689 J0.0006
G3 X1.2662 Y0.3269 I-0.0382 J-0.0075
G3 X1.255 Y0.3381 I-0.0222 J-0.011
G3 X1.2395 Y0.3413 I-0.0146 J-0.0317
G3 X1.2278 Y0.3388 I-0.0004 J-0.0271
G3 X1.2186 Y0.3312 I0.0108 J-0.0226
G3 X1.2127 Y0.3187 I0.0279 J-0.0209
G3 X1.2111 Y0.305 I0.0528 J-0.0132
G3 X1.2128 Y0.2908 I0.0548 J-0.0006
G3 X1.2191 Y0.2779 I0.034 J0.0088
G3 X1.2331 Y0.2686 I0.0203 J0.0152
G0 Z0.125
M5
M30
