( Made using CamBam - http://www.cambam.co.uk )
( 080-mercury 11/7/2013 11:48:46 PM )
( T0 : 0.0078 )
G20 G90 G91.1 G64 G40
G0 Z0.125
( T0 : 0.0078 )
T0 M6
( Engrave1 )
G17
M3 S1000
G0 X0.5203 Y1.4207
G0 Z0.0425
G1 F4.0 Z-0.021
G1 F8.0 X0.762
G1 Y1.3789
G1 X0.7125
G3 X0.7005 Y1.3781 I-0.0008 J-0.0785
G3 X0.6895 Y1.3734 I0.0016 J-0.0192
G3 X0.6866 Y1.3656 I0.0168 J-0.0105
G3 X0.6851 Y1.3408 I0.15 J-0.022
G1 Y1.1848
G1 X0.9132
G1 Y1.3408
G3 X0.9127 Y1.3575 I-0.2237 J0.0011
G3 X0.9117 Y1.3659 I-0.0838 J-0.0059
G3 X0.9088 Y1.3738 I-0.0189 J-0.0023
G3 X0.8969 Y1.3782 I-0.0128 J-0.0163
G3 X0.8843 Y1.3789 I-0.0118 J-0.0997
G1 X0.8385
G1 Y1.4207
G1 X1.0791
G1 Y1.3789
G1 X1.03
G3 X1.0211 Y1.3785 I-0.0006 J-0.0785
G3 X1.0125 Y1.376 I0.0015 J-0.0213
G3 X1.0051 Y1.3657 I0.0134 J-0.0173
G3 X1.0038 Y1.3511 I0.0817 J-0.0146
G3 X1.0037 Y1.3364 I0.5579 J-0.0139
G1 Y0.9548
G3 X1.0038 Y0.9411 I0.4383 J-0.001
G3 X1.0042 Y0.9342 I0.1533 J0.0045
G3 X1.0055 Y0.9274 I0.0209 J0.0005
G3 X1.0187 Y0.9187 I0.0197 J0.0157
G3 X1.0344 Y0.9167 I0.0147 J0.0533
G1 X1.0791
G1 Y0.875
G1 X0.8385
G1 Y0.9167
G1 X0.8843
G3 X0.8972 Y0.918 I0.0009 J0.0603
G3 X0.9084 Y0.9244 I-0.0027 J0.0176
G3 X0.9126 Y0.9409 I-0.0356 J0.0176
G3 X0.9132 Y0.9578 I-0.1933 J0.0158
G1 Y1.135
G1 X0.6851
G1 Y0.9548
G3 X0.6853 Y0.9401 I0.3225 J-0.001
G3 X0.6859 Y0.9327 I0.1184 J0.0051
G3 X0.6876 Y0.9255 I0.0208 J0.0012
G3 X0.6991 Y0.9183 I0.0162 J0.0131
G3 X0.7125 Y0.9167 I0.0126 J0.0492
G1 X0.762
G1 Y0.875
G1 X0.5203
G1 Y0.9167
G1 X0.5708
G3 X0.5847 Y0.92 I0.0014 J0.0251
G3 X0.592 Y0.9277 I-0.0103 J0.0172
G3 X0.5939 Y0.9578 I-0.1685 J0.0253
G1 Y1.3408
G3 X0.5933 Y1.3574 I-0.1963 J0.0011
G3 X0.5921 Y1.3656 I-0.0753 J-0.0061
G3 X0.5891 Y1.3734 I-0.0185 J-0.0027
G3 X0.5777 Y1.3781 I-0.0129 J-0.0151
G3 X0.5653 Y1.3789 I-0.0115 J-0.0838
G1 X0.5203
G1 Y1.4207
G0 Z0.125
G0 X1.1689 Y1.1569
G0 Z0.0425
G1 F4.0 Z-0.021
G2 F8.0 X1.2014 Y1.2009 I0.1025 J-0.0417
G2 X1.2505 Y1.2281 I0.0898 J-0.1041
G2 X1.3062 Y1.2361 I0.0536 J-0.1767
G2 X1.3567 Y1.2284 I0.0003 J-0.168
G2 X1.3988 Y1.2068 I-0.0372 J-0.1243
G2 X1.4285 Y1.232 I0.1056 J-0.0943
G2 X1.4658 Y1.2434 I0.0387 J-0.0601
G2 X1.5013 Y1.2295 I0.0013 J-0.0489
G2 X1.5156 Y1.1965 I-0.0294 J-0.0323
G2 X1.5054 Y1.1694 I-0.0382 J-0.001
G2 X1.4808 Y1.1584 I-0.0243 J0.0214
G2 X1.4585 Y1.1662 I-0.0013 J0.0324
G2 X1.4468 Y1.1866 I0.0295 J0.0306
G3 X1.4455 Y1.1907 I-0.0728 J-0.0205
G3 X1.4435 Y1.1943 I-0.0076 J-0.0018
G3 X1.4331 Y1.1913 I0.0006 J-0.0215
G3 X1.4244 Y1.1848 I0.0231 J-0.0399
G2 X1.4453 Y1.1504 I-0.0969 J-0.0823
G2 X1.4515 Y1.1149 I-0.0935 J-0.0347
G2 X1.4351 Y1.0559 I-0.1067 J-0.002
G2 X1.4114 Y1.0299 I-0.0904 J0.0584
G2 X1.382 Y1.0109 I-0.1111 J0.1395
G2 X1.3116 Y0.9918 I-0.0741 J0.1342
G1 X1.2725
G3 X1.2456 Y0.9905 I-0.0017 J-0.233
G3 X1.2197 Y0.983 I0.0048 J-0.0654
G3 X1.2113 Y0.9644 I0.0123 J-0.0168
G3 X1.2186 Y0.949 I0.0176 J-0.0011
G3 X1.229 Y0.9452 I0.016 J0.028
G3 X1.2618 Y0.9427 I0.0294 J0.172
G1 X1.3508 Y0.9446
G2 X1.4011 Y0.9399 I0.0025 J-0.2437
G2 X1.4475 Y0.92 I-0.0214 J-0.1143
G2 X1.4797 Y0.8534 I-0.0465 J-0.0636
G2 X1.4671 Y0.8079 I-0.0866 J-0.0005
G2 X1.4347 Y0.7736 I-0.103 J0.0649
G2 X1.4048 Y0.7522 I-0.0787 J0.0786
G2 X1.3524 Y0.7362 I-0.0794 J0.1662
G2 X1.2977 Y0.7322 I-0.0523 J0.3377
G2 X1.236 Y0.7377 I-0.0032 J0.3114
G2 X1.1787 Y0.7615 I0.0251 J0.1413
G2 X1.1558 Y0.7856 I0.0551 J0.0751
G2 X1.1465 Y0.8175 I0.0498 J0.0319
G2 X1.167 Y0.8611 I0.059 J-0.0012
G2 X1.1959 Y0.877 I0.0505 J-0.0573
G2 X1.2285 Y0.8827 I0.0397 J-0.1326
G2 X1.2009 Y0.8876 I0.0022 J0.0915
G2 X1.1769 Y0.9021 I0.0228 J0.0652
G2 X1.1571 Y0.949 I0.042 J0.0453
G2 X1.1732 Y0.9933 I0.0656 J0.0012
G2 X1.1957 Y1.0103 I0.0539 J-0.0477
G2 X1.2223 Y1.0197 I0.0527 J-0.1078
G2 X1.1772 Y1.0548 I0.0258 J0.0795
G2 X1.1608 Y1.1138 I0.0903 J0.057
G2 X1.1689 Y1.1569 I0.1107 J0.0014
G0 Z0.125
G0 X1.2423 Y1.1422
G0 Z0.0425
G1 F4.0 Z-0.021
G3 F8.0 X1.2399 Y1.116 I0.123 J-0.0247
G3 X1.2436 Y1.0818 I0.1435 J-0.0017
G3 X1.2585 Y1.0508 I0.0744 J0.0168
G3 X1.3058 Y1.0284 I0.0462 J0.0366
G3 X1.3534 Y1.05 I0.0014 J0.0601
G3 X1.3683 Y1.0806 I-0.0578 J0.0472
G3 X1.3721 Y1.1145 I-0.1369 J0.0322
G3 X1.368 Y1.147 I-0.1216 J0.0014
G3 X1.353 Y1.176 I-0.0728 J-0.0192
G3 X1.3054 Y1.1984 I-0.0467 J-0.0377
G3 X1.2585 Y1.1771 I-0.0012 J-0.0598
G3 X1.2437 Y1.1482 I0.0539 J-0.046
G3 X1.2423 Y1.1422 I0.1216 J-0.0307
G0 Z0.125
G0 X1.28 Y0.8718
G0 Z0.0425
G1 F4.0 Z-0.021
G3 F8.0 X1.2584 Y0.8673 I0.0226 J-0.1622
G3 X1.2373 Y0.8582 I0.0211 J-0.078
G3 X1.2198 Y0.8421 I0.0374 J-0.0586
G3 X1.212 Y0.8197 I0.0295 J-0.0227
G3 X1.2296 Y0.7875 I0.0368 J-0.0009
G3 X1.2661 Y0.7736 I0.0534 J0.0855
G3 X1.3051 Y0.7703 I0.037 J0.2042
G3 X1.3504 Y0.7737 I0.0024 J0.2713
G3 X1.3933 Y0.7889 I-0.0163 J0.1136
G3 X1.4127 Y0.8051 I-0.0443 J0.073
G3 X1.4222 Y0.8285 I-0.0265 J0.0244
G3 X1.4138 Y0.8516 I-0.0375 J-0.0006
G3 X1.4012 Y0.8621 I-0.0316 J-0.0252
G3 X1.386 Y0.8684 I-0.0388 J-0.0715
G3 X1.3565 Y0.8735 I-0.039 J-0.1371
G3 X1.3267 Y0.8746 I-0.0283 J-0.3601
G3 X1.281 Y0.8719 I-0.0026 J-0.3374
G3 X1.28 Y0.8718 I0.0216 J-0.1624
G0 Z0.125
G0 X1.273 Y0.6436
G0 Z0.0425
G1 F4.0 Z-0.021
G1 F8.0 Y0.48
G1 X1.2454
G1 Y0.4982
G2 X1.2188 Y0.4813 I-0.085 J0.1049
G2 X1.1906 Y0.4755 I-0.0273 J0.0607
G2 X1.1689 Y0.4789 I-0.0009 J0.0639
G2 X1.1505 Y0.4911 I0.0153 J0.0429
G2 X1.1391 Y0.513 I0.0393 J0.0345
G2 X1.1362 Y0.5374 I0.0914 J0.0233
G1 Y0.6436
G1 X1.1637
G1 Y0.5505
G3 X1.1649 Y0.5291 I0.1696 J-0.0014
G3 X1.1698 Y0.514 I0.0387 J0.0044
G3 X1.1801 Y0.5046 I0.0204 J0.012
G3 X1.1891 Y0.5022 I0.0125 J0.0291
G3 X1.1984 Y0.5017 I0.0088 J0.0713
G3 X1.2217 Y0.5072 I-0.0017 J0.0585
G3 X1.2454 Y0.5215 I-0.0434 J0.0994
G1 Y0.6436
G1 X1.273
G0 Z0.125
G0 X1.3272
G0 Z0.0425
G1 F4.0 Z-0.021
G1 F8.0 X1.3547
G1 Y0.6195
G2 X1.3686 Y0.6297 I0.1203 J-0.1485
G2 X1.3836 Y0.6381 I0.0561 J-0.0827
G2 X1.4092 Y0.6436 I0.0259 J-0.0573
G2 X1.4196 Y0.6432 I0.0013 J-0.0926
G2 X1.4293 Y0.6419 I-0.0179 J-0.167
G1 Y0.6136
G1 X1.4278
G3 X1.4158 Y0.6156 I-0.0213 J-0.0885
G3 X1.4022 Y0.6164 I-0.0127 J-0.1096
G3 X1.3776 Y0.6107 I0.0001 J-0.0561
G3 X1.3547 Y0.5962 I0.0476 J-0.1002
G1 Y0.48
G1 X1.3272
G1 Y0.6436
G0 Z0.125
G0 X1.437
G0 Z0.0425
G1 F4.0 Z-0.021
G1 F8.0 X1.4669
G1 X1.5172 Y0.5223
G1 X1.5678 Y0.6436
G1 X1.5967
G1 X1.5012 Y0.4196
G1 X1.4718
G1 X1.5022 Y0.4879
G1 X1.437 Y0.6436
G0 Z0.125
G0 X1.3265 Y0.3582
G0 Z0.0425
G1 F4.0 Z-0.021
G2 F8.0 X1.3396 Y0.3506 I-0.0178 J-0.0461
G2 X1.3512 Y0.3366 I-0.0317 J-0.038
G2 X1.3599 Y0.311 I-0.0711 J-0.0384
G2 X1.3621 Y0.284 I-0.153 J-0.0258
G2 X1.3555 Y0.249 I-0.1009 J0.0007
G2 X1.339 Y0.2175 I-0.1381 J0.0524
G2 X1.3182 Y0.1929 I-0.1134 J0.0747
G2 X1.3052 Y0.1832 I-0.0538 J0.0587
G2 X1.2903 Y0.1769 I-0.0296 J0.0496
G1 X1.2784 Y0.19
G3 X1.2874 Y0.1958 I-0.0155 J0.0341
G3 X1.2989 Y0.2068 I-0.0805 J0.0955
G3 X1.3094 Y0.2188 I-0.2053 J0.1904
G3 X1.3228 Y0.2365 I-0.1511 J0.128
G3 X1.3284 Y0.2461 I-0.0754 J0.0502
G3 X1.332 Y0.2567 I-0.034 J0.0176
G2 X1.3189 Y0.2491 I-0.0223 J0.0235
G2 X1.3038 Y0.247 I-0.0144 J0.0491
G2 X1.2832 Y0.2505 I-0.0008 J0.0578
G2 X1.2659 Y0.2622 I0.0163 J0.0431
G2 X1.2547 Y0.2816 I0.0361 J0.0337
G2 X1.2516 Y0.3038 I0.0713 J0.0213
G2 X1.2549 Y0.3263 I0.0731 J0.0009
G2 X1.2662 Y0.346 I0.0505 J-0.016
G2 X1.3032 Y0.362 I0.0359 J-0.0322
G2 X1.3173 Y0.3607 I0.0004 J-0.0739
G2 X1.3265 Y0.3582 I-0.0086 J-0.0486
G0 Z0.125
G0 X1.3188 Y0.3388
G0 Z0.0425
G1 F4.0 Z-0.021
G3 F8.0 X1.3051 Y0.3413 I-0.0129 J-0.0325
G3 X1.2934 Y0.3388 I-0.0004 J-0.0271
G3 X1.2842 Y0.3312 I0.0108 J-0.0226
G3 X1.2782 Y0.3187 I0.0279 J-0.0209
G3 X1.2766 Y0.305 I0.0528 J-0.0132
G3 X1.2783 Y0.2908 I0.0548 J-0.0006
G3 X1.2847 Y0.2779 I0.034 J0.0088
G3 X1.3054 Y0.2678 I0.0203 J0.0152
G3 X1.3187 Y0.2699 I0.0007 J0.0387
G3 X1.333 Y0.2835 I-0.0081 J0.0228
G3 X1.3357 Y0.2931 I-0.0363 J0.0153
G3 X1.3364 Y0.303 I-0.0633 J0.0096
G3 X1.3352 Y0.3169 I-0.0689 J0.0006
G3 X1.3317 Y0.3269 I-0.0382 J-0.0075
G3 X1.3205 Y0.3381 I-0.0222 J-0.011
G3 X1.3188 Y0.3388 I-0.0146 J-0.0317
G0 Z0.125
G0 X1.2205
G0 Z0.0425
G1 F4.0 Z-0.021
G1 F8.0 X1.1547
G1 Y0.2954
G2 X1.1656 Y0.3006 I0.0192 J-0.0261
G2 X1.1776 Y0.3021 I0.0116 J-0.0443
G2 X1.1982 Y0.2988 I0.001 J-0.0613
G2 X1.2156 Y0.2872 I-0.0135 J-0.0387
G2 X1.226 Y0.2672 I-0.0375 J-0.0324
G2 X1.2288 Y0.2448 I-0.082 J-0.0213
G2 X1.2261 Y0.2195 I-0.1106 J-0.0012
G2 X1.219 Y0.2014 I-0.0613 J0.0138
G2 X1.1972 Y0.1826 I-0.0392 J0.0234
G2 X1.1833 Y0.1787 I-0.0235 J0.0566
G2 X1.1688 Y0.1776 I-0.014 J0.0874
G2 X1.1468 Y0.1808 I-0.0007 J0.0724
G2 X1.1273 Y0.1915 I0.0169 J0.0538
G1 X1.1367 Y0.2119
G3 X1.1515 Y0.2023 I0.0452 J0.0541
G3 X1.1687 Y0.1983 I0.0177 J0.0369
G3 X1.1843 Y0.2012 I0.0008 J0.0388
G3 X1.1997 Y0.2184 I-0.0117 J0.026
G3 X1.2024 Y0.2297 I-0.0503 J0.018
G3 X1.2031 Y0.2413 I-0.0856 J0.0112
G3 X1.2017 Y0.256 I-0.0697 J0.0007
G3 X1.1979 Y0.2666 I-0.0386 J-0.008
G3 X1.1857 Y0.2781 I-0.0232 J-0.0124
G3 X1.1692 Y0.2813 I-0.0155 J-0.0359
G3 X1.153 Y0.2775 I-0.0001 J-0.0357
G3 X1.1398 Y0.2673 I0.0217 J-0.0418
G1 X1.1315 Y0.273
G1 Y0.3596
G1 X1.2205
G1 Y0.3388
G0 Z0.125
G0 X1.102 Y0.4903
G0 Z0.0425
G1 F4.0 Z-0.021
G2 F8.0 X1.0758 Y0.48 I-0.0773 J0.159
G2 X1.0496 Y0.4763 I-0.0256 J0.0879
G2 X1.0171 Y0.4815 I-0.0011 J0.0989
G2 X0.9917 Y0.4973 I0.022 J0.0635
G2 X0.9752 Y0.5239 I0.0504 J0.0498
G2 X0.9693 Y0.5616 I0.1049 J0.0356
G2 X0.9741 Y0.5953 I0.1109 J0.0014
G2 X0.9913 Y0.6246 I0.0709 J-0.0219
G2 X1.018 Y0.6421 I0.0518 J-0.0497
G2 X1.0496 Y0.6474 I0.0304 J-0.0845
G2 X1.0771 Y0.6435 I0.0001 J-0.0973
G2 X1.102 Y0.6338 I-0.0394 J-0.1384
G1 Y0.6032
G1 X1.1006
G3 X1.0745 Y0.6183 I-0.0648 J-0.0819
G3 X1.0484 Y0.6236 I-0.0268 J-0.0654
G3 X1.0281 Y0.6199 I-0.0008 J-0.0535
G3 X1.0114 Y0.6077 I0.0165 J-0.0403
G3 X1.0006 Y0.5858 I0.0408 J-0.0337
G3 X0.9979 Y0.5616 I0.0974 J-0.0231
G3 X1.0006 Y0.5377 I0.098 J-0.0011
G3 X1.0111 Y0.516 I0.0532 J0.0125
G3 X1.0279 Y0.5038 I0.0324 J0.027
G3 X1.0484 Y0.5002 I0.0196 J0.0515
G3 X1.0654 Y0.5024 I-0.0003 J0.0688
G3 X1.0809 Y0.5081 I-0.0178 J0.0724
G3 X1.0922 Y0.5146 I-0.0622 J0.122
G3 X1.1006 Y0.5206 I-0.0651 J0.0994
G1 X1.102
G1 Y0.4903
G0 Z0.125
G0 X0.9892 Y0.3514
G0 Z0.0425
G1 F4.0 Z-0.021
G2 F8.0 X0.998 Y0.3417 I-0.0282 J-0.0347
G2 X1.0058 Y0.3252 I-0.0508 J-0.0339
G2 X1.011 Y0.2983 I-0.1316 J-0.0391
G2 X1.0122 Y0.2709 I-0.2732 J-0.0262
G2 X1.0093 Y0.2357 I-0.1925 J-0.0016
G2 X0.9974 Y0.2025 I-0.1013 J0.0172
G2 X0.9794 Y0.1839 I-0.0444 J0.0251
G2 X0.9542 Y0.1776 I-0.0241 J0.043
G2 X0.9301 Y0.1822 I-0.0011 J0.0595
G2 X0.911 Y0.1977 I0.019 J0.0428
G2 X0.9027 Y0.2158 I0.0495 J0.0337
G2 X0.8976 Y0.2451 I0.1511 J0.0415
G2 X0.8964 Y0.2748 I0.3315 J0.0284
G2 X0.8997 Y0.3074 I0.1487 J0.0013
G2 X0.912 Y0.3377 I0.0917 J-0.0195
G2 X0.9306 Y0.3559 I0.0452 J-0.0279
G2 X0.9559 Y0.362 I0.0243 J-0.045
G2 X0.9796 Y0.3574 I0.0011 J-0.0569
G2 X0.9892 Y0.3514 I-0.0186 J-0.0406
G0 Z0.125
G0 X0.9738 Y0.3345
G0 Z0.0425
G1 F4.0 Z-0.021
G3 F8.0 X0.9553 Y0.3413 I-0.0176 J-0.0194
G3 X0.9353 Y0.3327 I-0.0007 J-0.0261
G3 X0.9272 Y0.3191 I0.0316 J-0.0278
G3 X0.922 Y0.2962 I0.0914 J-0.0328
G3 X0.9208 Y0.2727 I0.2025 J-0.0225
G3 X0.9215 Y0.2514 I0.2747 J-0.0008
G3 X0.9236 Y0.2352 I0.1655 J0.0123
G3 X0.9265 Y0.223 I0.0984 J0.0171
G3 X0.9352 Y0.2062 I0.0448 J0.0126
G3 X0.9525 Y0.1983 I0.0169 J0.0143
G3 X0.9684 Y0.2025 I0.0007 J0.0295
G3 X0.9792 Y0.2148 I-0.0168 J0.0258
G3 X0.984 Y0.2287 I-0.0536 J0.0262
G3 X0.9871 Y0.2505 I-0.1463 J0.0314
G3 X0.9878 Y0.2725 I-0.3032 J0.0211
G3 X0.9872 Y0.2935 I-0.3481 J0.0011
G3 X0.9845 Y0.3143 I-0.124 J-0.0057
G3 X0.9806 Y0.3251 I-0.0516 J-0.0123
G3 X0.9739 Y0.3344 I-0.029 J-0.014
G1 X0.9738 Y0.3345
G0 Z0.125
G0 X0.8775 Y0.3143
G0 Z0.0425
G1 F4.0 Z-0.021
G2 F8.0 X0.8799 Y0.2983 I-0.1343 J-0.0282
G2 X0.8811 Y0.2709 I-0.2732 J-0.0262
G2 X0.8781 Y0.2357 I-0.1925 J-0.0016
G2 X0.8663 Y0.2025 I-0.1013 J0.0172
G2 X0.8483 Y0.1839 I-0.0444 J0.0251
G2 X0.8231 Y0.1776 I-0.0241 J0.043
G2 X0.799 Y0.1822 I-0.0011 J0.0595
G2 X0.7799 Y0.1977 I0.019 J0.0428
G2 X0.7716 Y0.2158 I0.0495 J0.0337
G2 X0.7665 Y0.2451 I0.1511 J0.0415
G2 X0.7653 Y0.2748 I0.3315 J0.0284
G2 X0.7686 Y0.3074 I0.1487 J0.0013
G2 X0.7809 Y0.3377 I0.0917 J-0.0195
G2 X0.7995 Y0.3559 I0.0452 J-0.0279
G2 X0.8248 Y0.362 I0.0243 J-0.045
G2 X0.8485 Y0.3574 I0.0011 J-0.0569
G2 X0.8669 Y0.3417 I-0.0186 J-0.0406
G2 X0.8747 Y0.3252 I-0.0508 J-0.0339
G2 X0.8775 Y0.3143 I-0.1316 J-0.0391
G0 Z0.125
G0 X0.8542 Y0.31
G0 Z0.0425
G1 F4.0 Z-0.021
G3 F8.0 X0.8534 Y0.3143 I-0.1221 J-0.0223
G3 X0.8495 Y0.3251 I-0.0516 J-0.0123
G3 X0.8428 Y0.3344 I-0.029 J-0.014
G3 X0.8242 Y0.3413 I-0.0177 J-0.0193
G3 X0.8042 Y0.3327 I-0.0007 J-0.0261
G3 X0.7961 Y0.3191 I0.0316 J-0.0278
G3 X0.7909 Y0.2962 I0.0914 J-0.0328
G3 X0.7897 Y0.2727 I0.2025 J-0.0225
G3 X0.7904 Y0.2514 I0.2747 J-0.0008
G3 X0.7924 Y0.2352 I0.1655 J0.0123
G3 X0.7954 Y0.223 I0.0984 J0.0171
G3 X0.8041 Y0.2062 I0.0448 J0.0126
G3 X0.8214 Y0.1983 I0.0169 J0.0143
G3 X0.8373 Y0.2025 I0.0007 J0.0295
G3 X0.8481 Y0.2148 I-0.0168 J0.0258
G3 X0.8529 Y0.2287 I-0.0536 J0.0262
G3 X0.856 Y0.2505 I-0.1463 J0.0314
G3 X0.8567 Y0.2725 I-0.3032 J0.0211
G3 X0.8561 Y0.2935 I-0.3481 J0.0011
G3 X0.8542 Y0.31 I-0.124 J-0.0057
G0 Z0.125
G0 X0.734 Y0.3149
G0 Z0.0425
G1 F4.0 Z-0.021
G2 F8.0 X0.7321 Y0.3028 I-0.055 J0.0022
G2 X0.7248 Y0.2836 I-0.1005 J0.0273
G2 X0.7147 Y0.2657 I-0.1708 J0.0842
G1 X0.6746 Y0.202
G1 X0.7446
G1 Y0.18
G1 X0.6348
G1 Y0.1849
G1 X0.6908 Y0.2707
G3 X0.7027 Y0.2924 I-0.1204 J0.08
G3 X0.7067 Y0.3042 I-0.0739 J0.032
G3 X0.7084 Y0.3165 I-0.0488 J0.0128
G3 X0.7067 Y0.3271 I-0.0312 J0.0006
G3 X0.6959 Y0.3385 I-0.0182 J-0.0063
G3 X0.6804 Y0.3413 I-0.0144 J-0.0362
G3 X0.6619 Y0.336 I-0.0001 J-0.0352
G3 X0.6493 Y0.3229 I0.0153 J-0.0273
G1 X0.6335 Y0.3359
G2 X0.6498 Y0.3549 I0.0331 J-0.0118
G2 X0.664 Y0.3604 I0.025 J-0.0436
G2 X0.6792 Y0.362 I0.0147 J-0.0673
G2 X0.7004 Y0.3595 I0.0009 J-0.0832
G2 X0.7195 Y0.35 I-0.012 J-0.0482
G2 X0.7307 Y0.335 I-0.0235 J-0.0292
G2 X0.734 Y0.3165 I-0.0455 J-0.0177
G2 Y0.3149 I-0.0551 J0.0007
G0 Z0.125
G0 X0.742 Y0.4763
G0 Z0.0425
G1 F4.0 Z-0.021
G2 F8.0 X0.7152 Y0.4809 I0.0056 J0.1133
G2 X0.6856 Y0.4982 I0.0215 J0.071
G2 X0.6677 Y0.5271 I0.0493 J0.0505
G2 X0.6627 Y0.5609 I0.1024 J0.0322
G2 X0.6675 Y0.5948 I0.113 J0.0014
G2 X0.6845 Y0.6246 I0.0741 J-0.0227
G2 X0.7108 Y0.6426 I0.0524 J-0.0482
G2 X0.7423 Y0.6482 I0.0303 J-0.0798
G2 X0.7698 Y0.644 I0.0013 J-0.0842
G2 X0.7932 Y0.6288 I-0.018 J-0.0536
G2 X0.8075 Y0.6031 I-0.0467 J-0.0426
G2 X0.8113 Y0.5739 I-0.1005 J-0.0278
G1 Y0.559
G1 X0.6907
G3 X0.6952 Y0.5326 I0.0707 J-0.0014
G3 X0.7077 Y0.5143 I0.0462 J0.018
G3 X0.7257 Y0.5037 I0.0335 J0.0366
G3 X0.7489 Y0.5002 I0.0224 J0.0694
G3 X0.7824 Y0.5068 I-0.0006 J0.0916
G3 X0.795 Y0.5124 I-0.0522 J0.1337
G3 X0.8066 Y0.52 I-0.0249 J0.0509
G1 X0.808
G1 Y0.49
G2 X0.7796 Y0.4801 I-0.0882 J0.2093
G2 X0.7491 Y0.4762 I-0.03 J0.1114
G2 X0.742 Y0.4763 I-0.0015 J0.1134
G0 Z0.125
G0 Y0.58
G0 Z0.0425
G1 F4.0 Z-0.021
G1 F8.0 X0.7844
G3 X0.7821 Y0.5978 I-0.0651 J0.0004
G3 X0.7735 Y0.6136 I-0.038 J-0.0105
G3 X0.7584 Y0.623 I-0.0247 J-0.0227
G3 X0.7408 Y0.6255 I-0.0167 J-0.0559
G3 X0.7218 Y0.6225 I-0.0008 J-0.058
G3 X0.7055 Y0.6124 I0.0138 J-0.0405
G3 X0.6907 Y0.58 I0.0359 J-0.036
G1 X0.742
G0 Z0.125
G0 X0.853
G0 Z0.0425
G1 F4.0 Z-0.021
G1 F8.0 Y0.6436
G1 X0.8805
G1 Y0.6195
G2 X0.8944 Y0.6297 I0.1203 J-0.1485
G2 X0.9094 Y0.6381 I0.0561 J-0.0827
G2 X0.935 Y0.6436 I0.0259 J-0.0573
G2 X0.9454 Y0.6432 I0.0013 J-0.0926
G2 X0.9551 Y0.6419 I-0.0179 J-0.167
G1 Y0.6136
G1 X0.9536
G3 X0.9416 Y0.6156 I-0.0213 J-0.0885
G3 X0.928 Y0.6164 I-0.0127 J-0.1096
G3 X0.9034 Y0.6107 I0.0001 J-0.0561
G3 X0.8805 Y0.5962 I0.0476 J-0.1002
G1 Y0.48
G1 X0.853
G1 Y0.58
G0 Z0.125
G0 X0.6179
G0 Z0.0425
G1 F4.0 Z-0.021
G1 F8.0 Y0.48
G1 X0.5889
G1 Y0.6679
G1 X0.5282 Y0.5401
G1 X0.511
G1 X0.4508 Y0.6679
G1 Y0.48
G1 X0.4237
G1 Y0.6981
G1 X0.4632
G1 X0.5214 Y0.5767
G1 X0.5776 Y0.6981
G1 X0.6179
G1 Y0.58
G0 Z0.125
G0 X1.0488 Y0.2078
G0 Z0.0425
G1 F4.0 Z-0.021
G2 F8.0 X1.0499 Y0.2089 I0.0133 J-0.0115
G2 X1.0629 Y0.2143 I0.0127 J-0.0123
G2 X1.0758 Y0.2089 I0.0003 J-0.0176
G2 X1.0812 Y0.196 I-0.0123 J-0.0127
G2 X1.0758 Y0.1829 I-0.018 J-0.0002
G2 X1.0629 Y0.1776 I-0.0127 J0.0123
G2 X1.0499 Y0.1829 I-0.0003 J0.0176
G2 X1.0446 Y0.196 I0.0127 J0.0128
G2 X1.0488 Y0.2078 I0.0176 J0.0003
G0 Z0.125
G0 X1.4472 Y1.5011
G0 Z0.0425
G1 F4.0 Z-0.021
G2 F8.0 X1.427 Y1.5108 I0.0223 J0.0724
G2 X1.4038 Y1.5414 I0.036 J0.0514
G2 X1.3979 Y1.5793 I0.1039 J0.0358
G2 X1.4127 Y1.6266 I0.0872 J-0.0014
G2 X1.4286 Y1.6457 I0.0799 J-0.0502
G2 X1.4494 Y1.6592 I0.0502 J-0.0547
G2 X1.4197 Y1.6863 I0.0384 J0.0718
G2 X1.4082 Y1.7223 I0.0528 J0.0367
G2 X1.4132 Y1.7499 I0.0728 J0.0011
G2 X1.4297 Y1.7727 I0.055 J-0.0225
G2 X1.4559 Y1.787 I0.0477 J-0.0559
G2 X1.4855 Y1.7912 I0.0285 J-0.0953
G2 X1.5159 Y1.7873 I0.0014 J-0.1094
G2 X1.5428 Y1.7727 I-0.0177 J-0.0644
G2 X1.5585 Y1.7496 I-0.0398 J-0.0439
G2 X1.5631 Y1.7221 I-0.0728 J-0.0264
G2 X1.5597 Y1.7021 I-0.0621 J0.0003
G2 X1.5508 Y1.6838 I-0.0819 J0.0285
G2 X1.5383 Y1.6678 I-0.0841 J0.0528
G2 X1.5223 Y1.6553 I-0.0517 J0.0497
G2 X1.5422 Y1.6419 I-0.068 J-0.1228
G2 X1.5654 Y1.6143 I-0.0552 J-0.0701
G2 X1.5738 Y1.5793 I-0.066 J-0.0344
G2 X1.5686 Y1.546 I-0.099 J-0.0015
G2 X1.55 Y1.5178 I-0.0655 J0.0229
G2 X1.5193 Y1.5008 I-0.0525 J0.0585
G2 X1.4846 Y1.4961 I-0.0333 J0.1161
G2 X1.4507 Y1.5001 I-0.0017 J0.1311
G2 X1.4472 Y1.5011 I0.0189 J0.0733
G0 Z0.125
G0 X1.4633 Y1.5338
G0 Z0.0425
G1 F4.0 Z-0.021
G3 F8.0 X1.4846 Y1.5293 I0.0197 J0.0403
G3 X1.504 Y1.5326 I0.0006 J0.0546
G3 X1.5205 Y1.5434 I-0.0164 J0.0433
G3 X1.5348 Y1.5793 I-0.0341 J0.0343
G3 X1.525 Y1.609 I-0.0506 J-0.0002
G3 X1.5153 Y1.6192 I-0.0458 J-0.0337
G3 X1.4981 Y1.6316 I-0.0976 J-0.1176
G3 X1.4799 Y1.6422 I-0.1686 J-0.269
G3 X1.4492 Y1.617 I0.042 J-0.0825
G3 X1.4369 Y1.5793 I0.0492 J-0.0369
G3 X1.4502 Y1.5436 I0.0509 J-0.0014
G3 X1.4633 Y1.5338 I0.0328 J0.0306
G0 Z0.125
G0 X1.4973 Y1.6713
G0 Z0.0425
G1 F4.0 Z-0.021
G3 F8.0 X1.5159 Y1.6944 I-0.0667 J0.0729
G3 X1.5238 Y1.723 I-0.0501 J0.0292
G3 X1.5213 Y1.737 I-0.0369 J0.0005
G3 X1.5131 Y1.7484 I-0.0278 J-0.0113
G3 X1.4855 Y1.758 I-0.0259 J-0.03
G3 X1.4709 Y1.7564 I-0.0007 J-0.0604
G3 X1.4526 Y1.7441 I0.006 J-0.0286
G3 X1.4473 Y1.7227 I0.0342 J-0.0198
G3 X1.4532 Y1.7047 I0.0322 J0.0007
G3 X1.4733 Y1.6854 I0.0636 J0.046
G3 X1.4973 Y1.6713 I0.1087 J0.1572
G0 Z0.125
G0 X1.603 Y1.6659
G0 Z0.0425
G1 F4.0 Z-0.021
G2 F8.0 X1.6081 Y1.7038 I0.2376 J-0.0121
G2 X1.6277 Y1.7523 I0.1467 J-0.0313
G2 X1.6576 Y1.7814 I0.0724 J-0.0446
G2 X1.698 Y1.7912 I0.0389 J-0.072
G2 X1.736 Y1.7838 I0.0018 J-0.0911
G2 X1.7654 Y1.7588 I-0.0297 J-0.065
G2 X1.7779 Y1.7323 I-0.0813 J-0.0543
G2 X1.7861 Y1.6892 I-0.2105 J-0.0625
G2 X1.7881 Y1.6455 I-0.4371 J-0.0419
G2 X1.7834 Y1.5892 I-0.308 J-0.0025
G2 X1.7645 Y1.5359 I-0.1621 J0.0275
G2 X1.7356 Y1.5062 I-0.0711 J0.0401
G2 X1.6953 Y1.4961 I-0.0386 J0.0688
G2 X1.6567 Y1.5035 I-0.0018 J0.0952
G2 X1.6262 Y1.5283 I0.0304 J0.0685
G2 X1.6129 Y1.5573 I0.0792 J0.0539
G2 X1.6047 Y1.6042 I0.2418 J0.0664
G2 X1.6027 Y1.6518 I0.5304 J0.0454
G2 X1.603 Y1.6659 I0.2379 J0.002
G0 Z0.125
G0 X1.6421 Y1.6642
G0 Z0.0425
G1 F4.0 Z-0.021
G3 F8.0 X1.6418 Y1.6482 I0.3257 J-0.0142
G3 X1.643 Y1.6142 I0.4395 J-0.0013
G3 X1.6462 Y1.5883 I0.2648 J0.0197
G3 X1.6509 Y1.5688 I0.1574 J0.0274
G3 X1.6649 Y1.5419 I0.0717 J0.0201
G3 X1.6926 Y1.5293 I0.0271 J0.0229
G3 X1.718 Y1.536 I0.0012 J0.0472
G3 X1.7354 Y1.5557 I-0.0268 J0.0412
G3 X1.743 Y1.5779 I-0.0858 J0.042
G3 X1.7479 Y1.6128 I-0.2341 J0.0503
G3 X1.749 Y1.648 I-0.4852 J0.0337
G3 X1.7481 Y1.6816 I-0.557 J0.0018
G3 X1.7438 Y1.7148 I-0.1984 J-0.0091
G3 X1.7376 Y1.7322 I-0.0826 J-0.0197
G3 X1.7268 Y1.7471 I-0.0464 J-0.0223
G3 X1.6971 Y1.758 I-0.0282 J-0.0309
G3 X1.665 Y1.7444 I-0.0012 J-0.0418
G3 X1.6521 Y1.7226 I0.0505 J-0.0446
G3 X1.6438 Y1.6859 I0.1462 J-0.0525
G3 X1.6421 Y1.6642 I0.324 J-0.0359
G0 Z0.125
M5
M30
