( Made using CamBam - http://www.cambam.co.uk )
( 082-lead 11/15/2013 4:04:24 PM )
( T0 : 0.0313 )
G20 G90 G91.1 G64 G40
G0 Z0.125
( T0 : 0.0313 )
T0 M6
( Pocket1 )
G17
M3 S10000
G0 X0.7531 Y2.75
G0 Z0.0625
G1 F4.0 Z-0.0313
G2 F8.0 X0.7484 Y2.7473 I-0.0031 J0.0
G2 Y2.7527 I0.0016 J0.0027
G2 X0.7531 Y2.75 I0.0016 J-0.0027
G1 F4.0 X0.7594
G2 F8.0 X0.7453 Y2.7419 I-0.0094 J0.0
G2 Y2.7581 I0.0047 J0.0081
G2 X0.7594 Y2.75 I0.0047 J-0.0081
G1 F4.0 X0.7719
G2 F8.0 X0.7391 Y2.7311 I-0.0219 J0.0
G2 Y2.7689 I0.0109 J0.0189
G2 X0.7719 Y2.75 I0.0109 J-0.0189
G1 F4.0 X0.7844
G2 F8.0 X0.7328 Y2.7202 I-0.0344 J0.0
G2 Y2.7798 I0.0172 J0.0298
G2 X0.7844 Y2.75 I0.0172 J-0.0298
G1 F4.0 X0.7969
G2 F8.0 X0.7266 Y2.7094 I-0.0469 J0.0
G2 Y2.7906 I0.0234 J0.0406
G2 X0.7969 Y2.75 I0.0234 J-0.0406
G0 Z0.125
G0 X0.7531
G0 Z0.0312
G1 F4.0 Z-0.0625
G2 F8.0 X0.7484 Y2.7473 I-0.0031 J0.0
G2 Y2.7527 I0.0016 J0.0027
G2 X0.7531 Y2.75 I0.0016 J-0.0027
G1 F4.0 X0.7594
G2 F8.0 X0.7453 Y2.7419 I-0.0094 J0.0
G2 Y2.7581 I0.0047 J0.0081
G2 X0.7594 Y2.75 I0.0047 J-0.0081
G1 F4.0 X0.7719
G2 F8.0 X0.7391 Y2.7311 I-0.0219 J0.0
G2 Y2.7689 I0.0109 J0.0189
G2 X0.7719 Y2.75 I0.0109 J-0.0189
G1 F4.0 X0.7844
G2 F8.0 X0.7328 Y2.7202 I-0.0344 J0.0
G2 Y2.7798 I0.0172 J0.0298
G2 X0.7844 Y2.75 I0.0172 J-0.0298
G1 F4.0 X0.7969
G2 F8.0 X0.7266 Y2.7094 I-0.0469 J0.0
G2 Y2.7906 I0.0234 J0.0406
G2 X0.7969 Y2.75 I0.0234 J-0.0406
G0 Z0.125
G0 X0.7531
G0 Z0.0
G1 F4.0 Z-0.0938
G2 F8.0 X0.7484 Y2.7473 I-0.0031 J0.0
G2 Y2.7527 I0.0016 J0.0027
G2 X0.7531 Y2.75 I0.0016 J-0.0027
G1 F4.0 X0.7594
G2 F8.0 X0.7453 Y2.7419 I-0.0094 J0.0
G2 Y2.7581 I0.0047 J0.0081
G2 X0.7594 Y2.75 I0.0047 J-0.0081
G1 F4.0 X0.7719
G2 F8.0 X0.7391 Y2.7311 I-0.0219 J0.0
G2 Y2.7689 I0.0109 J0.0189
G2 X0.7719 Y2.75 I0.0109 J-0.0189
G1 F4.0 X0.7844
G2 F8.0 X0.7328 Y2.7202 I-0.0344 J0.0
G2 Y2.7798 I0.0172 J0.0298
G2 X0.7844 Y2.75 I0.0172 J-0.0298
G1 F4.0 X0.7969
G2 F8.0 X0.7266 Y2.7094 I-0.0469 J0.0
G2 Y2.7906 I0.0234 J0.0406
G2 X0.7969 Y2.75 I0.0234 J-0.0406
G0 Z0.125
G0 X0.7531
G0 Z-0.0323
G1 F4.0 Z-0.126
G2 F8.0 X0.7484 Y2.7473 I-0.0031 J0.0
G2 Y2.7527 I0.0016 J0.0027
G2 X0.7531 Y2.75 I0.0016 J-0.0027
G1 F4.0 X0.7594
G2 F8.0 X0.7453 Y2.7419 I-0.0094 J0.0
G2 Y2.7581 I0.0047 J0.0081
G2 X0.7594 Y2.75 I0.0047 J-0.0081
G1 F4.0 X0.7719
G2 F8.0 X0.7391 Y2.7311 I-0.0219 J0.0
G2 Y2.7689 I0.0109 J0.0189
G2 X0.7719 Y2.75 I0.0109 J-0.0189
G1 F4.0 X0.7844
G2 F8.0 X0.7328 Y2.7202 I-0.0344 J0.0
G2 Y2.7798 I0.0172 J0.0298
G2 X0.7844 Y2.75 I0.0172 J-0.0298
G1 F4.0 X0.7969
G2 F8.0 X0.7266 Y2.7094 I-0.0469 J0.0
G2 Y2.7906 I0.0234 J0.0406
G2 X0.7969 Y2.75 I0.0234 J-0.0406
G0 Z0.125
G0 X3.2469
G0 Z0.0625
G1 F4.0 Z-0.0313
G2 F8.0 X3.2484 Y2.7527 I0.0031 J0.0
G2 X3.2531 Y2.75 I0.0016 J-0.0027
G2 X3.2484 Y2.7473 I-0.0031 J0.0
G2 X3.2469 Y2.75 I0.0016 J0.0027
G1 F4.0 X3.2406
G2 F8.0 X3.2453 Y2.7581 I0.0094 J0.0
G2 X3.2594 Y2.75 I0.0047 J-0.0081
G2 X3.2453 Y2.7419 I-0.0094 J0.0
G2 X3.2406 Y2.75 I0.0047 J0.0081
G1 F4.0 X3.2281
G2 F8.0 X3.2391 Y2.7689 I0.0219 J0.0
G2 X3.2719 Y2.75 I0.0109 J-0.0189
G2 X3.2391 Y2.7311 I-0.0219 J0.0
G2 X3.2281 Y2.75 I0.0109 J0.0189
G1 F4.0 X3.2156
G2 F8.0 X3.2328 Y2.7798 I0.0344 J0.0
G2 X3.2844 Y2.75 I0.0172 J-0.0298
G2 X3.2328 Y2.7202 I-0.0344 J0.0
G2 X3.2156 Y2.75 I0.0172 J0.0298
G1 F4.0 X3.2031
G2 F8.0 X3.2266 Y2.7906 I0.0469 J0.0
G2 X3.2969 Y2.75 I0.0234 J-0.0406
G2 X3.2266 Y2.7094 I-0.0469 J0.0
G2 X3.2031 Y2.75 I0.0234 J0.0406
G0 Z0.125
G0 X3.2469
G0 Z0.0312
G1 F4.0 Z-0.0625
G2 F8.0 X3.2484 Y2.7527 I0.0031 J0.0
G2 X3.2531 Y2.75 I0.0016 J-0.0027
G2 X3.2484 Y2.7473 I-0.0031 J0.0
G2 X3.2469 Y2.75 I0.0016 J0.0027
G1 F4.0 X3.2406
G2 F8.0 X3.2453 Y2.7581 I0.0094 J0.0
G2 X3.2594 Y2.75 I0.0047 J-0.0081
G2 X3.2453 Y2.7419 I-0.0094 J0.0
G2 X3.2406 Y2.75 I0.0047 J0.0081
G1 F4.0 X3.2281
G2 F8.0 X3.2391 Y2.7689 I0.0219 J0.0
G2 X3.2719 Y2.75 I0.0109 J-0.0189
G2 X3.2391 Y2.7311 I-0.0219 J0.0
G2 X3.2281 Y2.75 I0.0109 J0.0189
G1 F4.0 X3.2156
G2 F8.0 X3.2328 Y2.7798 I0.0344 J0.0
G2 X3.2844 Y2.75 I0.0172 J-0.0298
G2 X3.2328 Y2.7202 I-0.0344 J0.0
G2 X3.2156 Y2.75 I0.0172 J0.0298
G1 F4.0 X3.2031
G2 F8.0 X3.2266 Y2.7906 I0.0469 J0.0
G2 X3.2969 Y2.75 I0.0234 J-0.0406
G2 X3.2266 Y2.7094 I-0.0469 J0.0
G2 X3.2031 Y2.75 I0.0234 J0.0406
G0 Z0.125
G0 X3.2469
G0 Z0.0
G1 F4.0 Z-0.0938
G2 F8.0 X3.2484 Y2.7527 I0.0031 J0.0
G2 X3.2531 Y2.75 I0.0016 J-0.0027
G2 X3.2484 Y2.7473 I-0.0031 J0.0
G2 X3.2469 Y2.75 I0.0016 J0.0027
G1 F4.0 X3.2406
G2 F8.0 X3.2453 Y2.7581 I0.0094 J0.0
G2 X3.2594 Y2.75 I0.0047 J-0.0081
G2 X3.2453 Y2.7419 I-0.0094 J0.0
G2 X3.2406 Y2.75 I0.0047 J0.0081
G1 F4.0 X3.2281
G2 F8.0 X3.2391 Y2.7689 I0.0219 J0.0
G2 X3.2719 Y2.75 I0.0109 J-0.0189
G2 X3.2391 Y2.7311 I-0.0219 J0.0
G2 X3.2281 Y2.75 I0.0109 J0.0189
G1 F4.0 X3.2156
G2 F8.0 X3.2328 Y2.7798 I0.0344 J0.0
G2 X3.2844 Y2.75 I0.0172 J-0.0298
G2 X3.2328 Y2.7202 I-0.0344 J0.0
G2 X3.2156 Y2.75 I0.0172 J0.0298
G1 F4.0 X3.2031
G2 F8.0 X3.2266 Y2.7906 I0.0469 J0.0
G2 X3.2969 Y2.75 I0.0234 J-0.0406
G2 X3.2266 Y2.7094 I-0.0469 J0.0
G2 X3.2031 Y2.75 I0.0234 J0.0406
G0 Z0.125
G0 X3.2469
G0 Z-0.0323
G1 F4.0 Z-0.126
G2 F8.0 X3.2484 Y2.7527 I0.0031 J0.0
G2 X3.2531 Y2.75 I0.0016 J-0.0027
G2 X3.2484 Y2.7473 I-0.0031 J0.0
G2 X3.2469 Y2.75 I0.0016 J0.0027
G1 F4.0 X3.2406
G2 F8.0 X3.2453 Y2.7581 I0.0094 J0.0
G2 X3.2594 Y2.75 I0.0047 J-0.0081
G2 X3.2453 Y2.7419 I-0.0094 J0.0
G2 X3.2406 Y2.75 I0.0047 J0.0081
G1 F4.0 X3.2281
G2 F8.0 X3.2391 Y2.7689 I0.0219 J0.0
G2 X3.2719 Y2.75 I0.0109 J-0.0189
G2 X3.2391 Y2.7311 I-0.0219 J0.0
G2 X3.2281 Y2.75 I0.0109 J0.0189
G1 F4.0 X3.2156
G2 F8.0 X3.2328 Y2.7798 I0.0344 J0.0
G2 X3.2844 Y2.75 I0.0172 J-0.0298
G2 X3.2328 Y2.7202 I-0.0344 J0.0
G2 X3.2156 Y2.75 I0.0172 J0.0298
G1 F4.0 X3.2031
G2 F8.0 X3.2266 Y2.7906 I0.0469 J0.0
G2 X3.2969 Y2.75 I0.0234 J-0.0406
G2 X3.2266 Y2.7094 I-0.0469 J0.0
G2 X3.2031 Y2.75 I0.0234 J0.0406
G0 Z0.125
G0 X3.2499 Y0.2531
G0 Z0.0625
G1 F4.0 Z-0.0313
G2 F8.0 X3.2531 Y0.25 I0.0001 J-0.0031
G2 X3.2484 Y0.2473 I-0.0031 J0.0
G2 Y0.2527 I0.0016 J0.0027
G2 X3.2499 Y0.2531 I0.0016 J-0.0027
G1 F4.0 X3.2498 Y0.2594
G2 F8.0 X3.2594 Y0.25 I0.0002 J-0.0094
G2 X3.2453 Y0.2419 I-0.0094 J0.0
G2 Y0.2581 I0.0047 J0.0081
G2 X3.2498 Y0.2594 I0.0047 J-0.0081
G1 F4.0 X3.2496 Y0.2719
G2 F8.0 X3.2719 Y0.25 I0.0004 J-0.0219
G2 X3.2391 Y0.2311 I-0.0219 J0.0
G2 Y0.2689 I0.0109 J0.0189
G2 X3.2496 Y0.2719 I0.0109 J-0.0189
G1 F4.0 X3.2494 Y0.2844
G2 F8.0 X3.2844 Y0.25 I0.0006 J-0.0344
G2 X3.2328 Y0.2202 I-0.0344 J0.0
G2 Y0.2798 I0.0172 J0.0298
G2 X3.2494 Y0.2844 I0.0172 J-0.0298
G1 F4.0 X3.2491 Y0.2969
G2 F8.0 X3.2969 Y0.25 I0.0009 J-0.0469
G2 X3.2266 Y0.2094 I-0.0469 J0.0
G2 Y0.2906 I0.0234 J0.0406
G2 X3.2491 Y0.2969 I0.0234 J-0.0406
G0 Z0.125
G0 X3.2499 Y0.2531
G0 Z0.0312
G1 F4.0 Z-0.0625
G2 F8.0 X3.2531 Y0.25 I0.0001 J-0.0031
G2 X3.2484 Y0.2473 I-0.0031 J0.0
G2 Y0.2527 I0.0016 J0.0027
G2 X3.2499 Y0.2531 I0.0016 J-0.0027
G1 F4.0 X3.2498 Y0.2594
G2 F8.0 X3.2594 Y0.25 I0.0002 J-0.0094
G2 X3.2453 Y0.2419 I-0.0094 J0.0
G2 Y0.2581 I0.0047 J0.0081
G2 X3.2498 Y0.2594 I0.0047 J-0.0081
G1 F4.0 X3.2496 Y0.2719
G2 F8.0 X3.2719 Y0.25 I0.0004 J-0.0219
G2 X3.2391 Y0.2311 I-0.0219 J0.0
G2 Y0.2689 I0.0109 J0.0189
G2 X3.2496 Y0.2719 I0.0109 J-0.0189
G1 F4.0 X3.2494 Y0.2844
G2 F8.0 X3.2844 Y0.25 I0.0006 J-0.0344
G2 X3.2328 Y0.2202 I-0.0344 J0.0
G2 Y0.2798 I0.0172 J0.0298
G2 X3.2494 Y0.2844 I0.0172 J-0.0298
G1 F4.0 X3.2491 Y0.2969
G2 F8.0 X3.2969 Y0.25 I0.0009 J-0.0469
G2 X3.2266 Y0.2094 I-0.0469 J0.0
G2 Y0.2906 I0.0234 J0.0406
G2 X3.2491 Y0.2969 I0.0234 J-0.0406
G0 Z0.125
G0 X3.2499 Y0.2531
G0 Z0.0
G1 F4.0 Z-0.0938
G2 F8.0 X3.2531 Y0.25 I0.0001 J-0.0031
G2 X3.2484 Y0.2473 I-0.0031 J0.0
G2 Y0.2527 I0.0016 J0.0027
G2 X3.2499 Y0.2531 I0.0016 J-0.0027
G1 F4.0 X3.2498 Y0.2594
G2 F8.0 X3.2594 Y0.25 I0.0002 J-0.0094
G2 X3.2453 Y0.2419 I-0.0094 J0.0
G2 Y0.2581 I0.0047 J0.0081
G2 X3.2498 Y0.2594 I0.0047 J-0.0081
G1 F4.0 X3.2496 Y0.2719
G2 F8.0 X3.2719 Y0.25 I0.0004 J-0.0219
G2 X3.2391 Y0.2311 I-0.0219 J0.0
G2 Y0.2689 I0.0109 J0.0189
G2 X3.2496 Y0.2719 I0.0109 J-0.0189
G1 F4.0 X3.2494 Y0.2844
G2 F8.0 X3.2844 Y0.25 I0.0006 J-0.0344
G2 X3.2328 Y0.2202 I-0.0344 J0.0
G2 Y0.2798 I0.0172 J0.0298
G2 X3.2494 Y0.2844 I0.0172 J-0.0298
G1 F4.0 X3.2491 Y0.2969
G2 F8.0 X3.2969 Y0.25 I0.0009 J-0.0469
G2 X3.2266 Y0.2094 I-0.0469 J0.0
G2 Y0.2906 I0.0234 J0.0406
G2 X3.2491 Y0.2969 I0.0234 J-0.0406
G0 Z0.125
G0 X3.2499 Y0.2531
G0 Z-0.0323
G1 F4.0 Z-0.126
G2 F8.0 X3.2531 Y0.25 I0.0001 J-0.0031
G2 X3.2484 Y0.2473 I-0.0031 J0.0
G2 Y0.2527 I0.0016 J0.0027
G2 X3.2499 Y0.2531 I0.0016 J-0.0027
G1 F4.0 X3.2498 Y0.2594
G2 F8.0 X3.2594 Y0.25 I0.0002 J-0.0094
G2 X3.2453 Y0.2419 I-0.0094 J0.0
G2 Y0.2581 I0.0047 J0.0081
G2 X3.2498 Y0.2594 I0.0047 J-0.0081
G1 F4.0 X3.2496 Y0.2719
G2 F8.0 X3.2719 Y0.25 I0.0004 J-0.0219
G2 X3.2391 Y0.2311 I-0.0219 J0.0
G2 Y0.2689 I0.0109 J0.0189
G2 X3.2496 Y0.2719 I0.0109 J-0.0189
G1 F4.0 X3.2494 Y0.2844
G2 F8.0 X3.2844 Y0.25 I0.0006 J-0.0344
G2 X3.2328 Y0.2202 I-0.0344 J0.0
G2 Y0.2798 I0.0172 J0.0298
G2 X3.2494 Y0.2844 I0.0172 J-0.0298
G1 F4.0 X3.2491 Y0.2969
G2 F8.0 X3.2969 Y0.25 I0.0009 J-0.0469
G2 X3.2266 Y0.2094 I-0.0469 J0.0
G2 Y0.2906 I0.0234 J0.0406
G2 X3.2491 Y0.2969 I0.0234 J-0.0406
G0 Z0.125
G0 X0.7531 Y0.2501
G0 Z0.0625
G1 F4.0 Z-0.0313
G1 F8.0 Y0.25
G2 X0.7484 Y0.2473 I-0.0031 J0.0
G2 Y0.2527 I0.0016 J0.0027
G2 X0.7531 Y0.2501 I0.0016 J-0.0027
G1 F4.0 X0.7594 Y0.2502
G2 F8.0 Y0.25 I-0.0094 J-0.0002
G2 X0.7453 Y0.2419 I-0.0094 J0.0
G2 Y0.2581 I0.0047 J0.0081
G2 X0.7594 Y0.2502 I0.0047 J-0.0081
G1 F4.0 X0.7719 Y0.2504
G2 F8.0 Y0.25 I-0.0219 J-0.0004
G2 X0.7391 Y0.2311 I-0.0219 J0.0
G2 Y0.2689 I0.0109 J0.0189
G2 X0.7719 Y0.2504 I0.0109 J-0.0189
G1 F4.0 X0.7844 Y0.2506
G2 F8.0 Y0.25 I-0.0344 J-0.0006
G2 X0.7328 Y0.2202 I-0.0344 J0.0
G2 Y0.2798 I0.0172 J0.0298
G2 X0.7844 Y0.2506 I0.0172 J-0.0298
G1 F4.0 X0.7969 Y0.2509
G2 F8.0 Y0.25 I-0.0469 J-0.0009
G2 X0.7266 Y0.2094 I-0.0469 J0.0
G2 Y0.2906 I0.0234 J0.0406
G2 X0.7969 Y0.2509 I0.0234 J-0.0406
G0 Z0.125
G0 X0.7531 Y0.2501
G0 Z0.0312
G1 F4.0 Z-0.0625
G1 F8.0 Y0.25
G2 X0.7484 Y0.2473 I-0.0031 J0.0
G2 Y0.2527 I0.0016 J0.0027
G2 X0.7531 Y0.2501 I0.0016 J-0.0027
G1 F4.0 X0.7594 Y0.2502
G2 F8.0 Y0.25 I-0.0094 J-0.0002
G2 X0.7453 Y0.2419 I-0.0094 J0.0
G2 Y0.2581 I0.0047 J0.0081
G2 X0.7594 Y0.2502 I0.0047 J-0.0081
G1 F4.0 X0.7719 Y0.2504
G2 F8.0 Y0.25 I-0.0219 J-0.0004
G2 X0.7391 Y0.2311 I-0.0219 J0.0
G2 Y0.2689 I0.0109 J0.0189
G2 X0.7719 Y0.2504 I0.0109 J-0.0189
G1 F4.0 X0.7844 Y0.2506
G2 F8.0 Y0.25 I-0.0344 J-0.0006
G2 X0.7328 Y0.2202 I-0.0344 J0.0
G2 Y0.2798 I0.0172 J0.0298
G2 X0.7844 Y0.2506 I0.0172 J-0.0298
G1 F4.0 X0.7969 Y0.2509
G2 F8.0 Y0.25 I-0.0469 J-0.0009
G2 X0.7266 Y0.2094 I-0.0469 J0.0
G2 Y0.2906 I0.0234 J0.0406
G2 X0.7969 Y0.2509 I0.0234 J-0.0406
G0 Z0.125
G0 X0.7531 Y0.2501
G0 Z0.0
G1 F4.0 Z-0.0938
G1 F8.0 Y0.25
G2 X0.7484 Y0.2473 I-0.0031 J0.0
G2 Y0.2527 I0.0016 J0.0027
G2 X0.7531 Y0.2501 I0.0016 J-0.0027
G1 F4.0 X0.7594 Y0.2502
G2 F8.0 Y0.25 I-0.0094 J-0.0002
G2 X0.7453 Y0.2419 I-0.0094 J0.0
G2 Y0.2581 I0.0047 J0.0081
G2 X0.7594 Y0.2502 I0.0047 J-0.0081
G1 F4.0 X0.7719 Y0.2504
G2 F8.0 Y0.25 I-0.0219 J-0.0004
G2 X0.7391 Y0.2311 I-0.0219 J0.0
G2 Y0.2689 I0.0109 J0.0189
G2 X0.7719 Y0.2504 I0.0109 J-0.0189
G1 F4.0 X0.7844 Y0.2506
G2 F8.0 Y0.25 I-0.0344 J-0.0006
G2 X0.7328 Y0.2202 I-0.0344 J0.0
G2 Y0.2798 I0.0172 J0.0298
G2 X0.7844 Y0.2506 I0.0172 J-0.0298
G1 F4.0 X0.7969 Y0.2509
G2 F8.0 Y0.25 I-0.0469 J-0.0009
G2 X0.7266 Y0.2094 I-0.0469 J0.0
G2 Y0.2906 I0.0234 J0.0406
G2 X0.7969 Y0.2509 I0.0234 J-0.0406
G0 Z0.125
G0 X0.7531 Y0.2501
G0 Z-0.0323
G1 F4.0 Z-0.126
G1 F8.0 Y0.25
G2 X0.7484 Y0.2473 I-0.0031 J0.0
G2 Y0.2527 I0.0016 J0.0027
G2 X0.7531 Y0.2501 I0.0016 J-0.0027
G1 F4.0 X0.7594 Y0.2502
G2 F8.0 Y0.25 I-0.0094 J-0.0002
G2 X0.7453 Y0.2419 I-0.0094 J0.0
G2 Y0.2581 I0.0047 J0.0081
G2 X0.7594 Y0.2502 I0.0047 J-0.0081
G1 F4.0 X0.7719 Y0.2504
G2 F8.0 Y0.25 I-0.0219 J-0.0004
G2 X0.7391 Y0.2311 I-0.0219 J0.0
G2 Y0.2689 I0.0109 J0.0189
G2 X0.7719 Y0.2504 I0.0109 J-0.0189
G1 F4.0 X0.7844 Y0.2506
G2 F8.0 Y0.25 I-0.0344 J-0.0006
G2 X0.7328 Y0.2202 I-0.0344 J0.0
G2 Y0.2798 I0.0172 J0.0298
G2 X0.7844 Y0.2506 I0.0172 J-0.0298
G1 F4.0 X0.7969 Y0.2509
G2 F8.0 Y0.25 I-0.0469 J-0.0009
G2 X0.7266 Y0.2094 I-0.0469 J0.0
G2 Y0.2906 I0.0234 J0.0406
G2 X0.7969 Y0.2509 I0.0234 J-0.0406
( Pocket3 )
S10000
G0 Z0.125
G0 X1.0719 Y0.5719
G0 Z0.0625
G1 F4.0 Z-0.02
G1 F8.0 Y0.5766
G3 X1.0766 Y0.5719 I0.0531 J0.0484
G1 X1.0719
G1 F4.0 X1.0656
G1 F8.0 Y0.5971
G3 X1.0971 Y0.5656 I0.0594 J0.0279
G1 X1.0656
G1 Y0.5719
G0 Z0.125
G0 X1.0719 Y2.4234
G0 Z0.0625
G1 F4.0 Z-0.02
G1 F8.0 Y2.4281
G1 X1.0766
G3 X1.0719 Y2.4234 I0.0484 J-0.0531
G1 F4.0 X1.0765 Y2.4192
G3 F8.0 X1.0656 Y2.4029 I0.0485 J-0.0442
G1 Y2.4344
G1 X1.0971
G3 X1.0765 Y2.4192 I0.0279 J-0.0594
G0 Z0.125
G0 X2.9234 Y2.4281
G0 Z0.0625
G1 F4.0 Z-0.02
G1 F8.0 X2.9281
G1 Y2.4234
G3 X2.9234 Y2.4281 I-0.0531 J-0.0484
G1 F4.0 X2.9192 Y2.4235
G3 F8.0 X2.9029 Y2.4344 I-0.0442 J-0.0485
G1 X2.9344
G1 Y2.4029
G3 X2.9192 Y2.4235 I-0.0594 J-0.0279
G0 Z0.125
G0 X2.9281 Y0.5766
G0 Z0.0625
G1 F4.0 Z-0.02
G1 F8.0 Y0.5719
G1 X2.9234
G3 X2.9281 Y0.5766 I-0.0484 J0.0531
G1 F4.0 X2.9344
G1 F8.0 Y0.5656
G1 X2.9029
G3 X2.9344 Y0.5971 I-0.0279 J0.0594
G1 Y0.5766
G0 Z0.125
G0 X2.8968 Y0.6073
G0 Z0.0625
G1 F4.0 Z-0.02
G3 F8.0 X2.9031 Y0.625 I-0.0218 J0.0177
G1 Y2.375
G3 X2.875 Y2.4031 I-0.0281 J0.0
G1 X1.125
G3 X1.0969 Y2.375 I0.0 J-0.0281
G1 Y0.625
G3 X1.125 Y0.5969 I0.0281 J0.0
G1 X2.875
G3 X2.8968 Y0.6073 I0.0 J0.0281
G1 F4.0 X2.8871 Y0.6151
G3 F8.0 X2.8906 Y0.625 I-0.0121 J0.0099
G1 Y2.375
G3 X2.875 Y2.3906 I-0.0156 J0.0
G1 X1.125
G3 X1.1094 Y2.375 I0.0 J-0.0156
G1 Y0.625
G3 X1.125 Y0.6094 I0.0156 J0.0
G1 X2.875
G3 X2.8871 Y0.6151 I0.0 J0.0156
G0 Z0.125
G0 X2.9065 Y0.5994
G0 Z0.0625
G1 F4.0 Z-0.02
G2 F8.0 X2.875 Y0.5844 I-0.0315 J0.0256
G1 X1.125
G2 X1.0844 Y0.625 I0.0 J0.0406
G1 Y2.375
G2 X1.125 Y2.4156 I0.0406 J0.0
G1 X2.875
G2 X2.9156 Y2.375 I0.0 J-0.0406
G1 Y0.625
G2 X2.9065 Y0.5994 I-0.0406 J0.0
G1 F4.0 X2.9162 Y0.5915
G2 F8.0 X2.875 Y0.5719 I-0.0412 J0.0335
G1 X1.125
G2 X1.0719 Y0.625 I0.0 J0.0531
G1 Y2.375
G2 X1.125 Y2.4281 I0.0531 J0.0
G1 X2.875
G2 X2.9281 Y2.375 I0.0 J-0.0531
G1 Y0.625
G2 X2.9162 Y0.5915 I-0.0531 J0.0
G0 Z0.125
G0 X2.9469
G0 Z0.0625
G1 F4.0 Z-0.02
G1 F8.0 Y0.5531
G1 X1.0531
G1 Y2.4469
G1 X2.9469
G1 Y0.5915
G1 F4.0 X2.9594
G1 F8.0 Y0.5406
G1 X1.0406
G1 Y2.4594
G1 X2.9594
G1 Y0.5915
G1 F4.0 X2.9719
G1 F8.0 Y0.5281
G1 X1.0281
G1 Y2.4719
G1 X2.9719
G1 Y0.5915
G1 F4.0 X2.9844
G1 F8.0 Y0.5156
G1 X1.0156
G1 Y2.4844
G1 X2.9844
G1 Y0.5915
G0 Z0.125
G0 X2.3244 Y1.3969
G0 Z0.0625
G1 F4.0 Z-0.02
G1 F8.0 X2.3168
G3 X2.318 Y1.4031 I-0.0619 J0.0157
G3 X2.3193 Y1.4201 I-0.0985 J0.0162
G1 Y1.6055
G3 X2.3139 Y1.6274 I-0.0469 J0.0
G3 X2.3193 Y1.6492 I-0.0414 J0.0218
G1 Y1.8622
G3 X2.3165 Y1.8852 I-0.0872 J0.0011
G1 X2.3259
G3 X2.3229 Y1.861 I0.0671 J-0.0207
G1 Y1.4119
G3 X2.3244 Y1.3969 I0.0625 J-0.0012
G1 F4.0 Y1.3906
G1 F8.0 X2.3081
G3 X2.3118 Y1.4041 I-0.0532 J0.022
G3 X2.3131 Y1.4201 I-0.0923 J0.0153
G1 Y1.6055
G3 X2.3067 Y1.6274 I-0.0406 J0.0
G3 X2.3131 Y1.6492 I-0.0342 J0.0219
G1 Y1.8622
G3 X2.3098 Y1.886 I-0.0809 J0.001
G3 X2.3079 Y1.8914 I-0.0576 J-0.0168
G1 X2.335
G3 X2.3291 Y1.8612 I0.058 J-0.0269
G1 Y1.4119
G3 X2.3328 Y1.3906 I0.0563 J-0.0011
G1 X2.3244
G1 F4.0 Y1.3781
G1 F8.0 X2.2833
G3 X2.2843 Y1.3788 I-0.0374 J0.0535
G3 X2.2891 Y1.3833 I-0.0165 J0.0228
G3 X2.2995 Y1.406 I-0.0342 J0.0293
G3 X2.3006 Y1.4201 I-0.08 J0.0133
G1 Y1.6055
G3 X2.2901 Y1.6274 I-0.0281 J0.0
G3 X2.3006 Y1.6492 I-0.0177 J0.0219
G1 Y1.8623
G3 X2.2978 Y1.8825 I-0.0684 J0.0009
G3 X2.2847 Y1.9039 I-0.0456 J-0.0133
G1 X2.36
G3 X2.3581 Y1.9023 I0.0172 J-0.0223
G3 X2.3416 Y1.8615 I0.0349 J-0.0378
G1 Y1.4117
G3 X2.3561 Y1.3781 I0.0438 J-0.001
G1 X2.3244
G0 Z0.125
G0 X2.0351 Y1.7066
G0 Z0.0625
G1 F4.0 Z-0.02
G2 F8.0 X2.0244 Y1.7246 I0.0598 J0.0477
G2 X2.0166 Y1.768 I0.1057 J0.0414
G3 Y1.7702 I-0.0469 J0.0008
G2 X2.0326 Y1.8281 I0.1013 J0.0031
G3 X2.0302 Y1.8149 I0.1483 J-0.0341
G3 X2.0272 Y1.772 I0.2773 J-0.0412
G3 X2.034 Y1.7109 I0.2489 J-0.003
G3 X2.0351 Y1.7066 I0.134 J0.0306
G1 F4.0 X2.0411 Y1.7081
G3 F8.0 X2.0498 Y1.6846 I0.1269 J0.0334
G2 X2.0441 Y1.6889 I0.1115 J0.1527
G3 X2.044 Y1.689 I-0.0252 J-0.0319
G2 X2.0186 Y1.7223 I0.051 J0.0652
G2 X2.0103 Y1.7681 I0.1115 J0.0438
G3 Y1.77 I-0.0406 J0.0007
G2 X2.0486 Y1.8556 I0.1075 J0.0033
G2 X2.0487 Y1.8557 I0.0869 J-0.1035
G3 X2.0364 Y1.814 I0.1322 J-0.0617
G3 X2.0334 Y1.772 I0.2711 J-0.0403
G3 X2.0401 Y1.7124 I0.2426 J-0.003
G3 X2.0411 Y1.7081 I0.1279 J0.0292
G1 F4.0 X2.0532 Y1.7113
G3 F8.0 X2.0843 Y1.6574 I0.1148 J0.0302
G3 X2.0857 Y1.6561 I0.0198 J0.0199
G3 X2.1003 Y1.6451 I0.085 J0.0983
G2 X2.0364 Y1.6791 I0.061 J0.1921
G3 X2.0363 Y1.6792 I-0.0174 J-0.0221
G2 X2.007 Y1.7176 I0.0587 J0.075
G2 X1.9978 Y1.7683 I0.1231 J0.0485
G3 Y1.7696 I-0.0281 J0.0005
G2 X2.0406 Y1.8652 I0.12 J0.0037
G2 X2.0984 Y1.895 I0.0949 J-0.113
G3 X2.0631 Y1.8565 I0.0607 J-0.0912
G3 X2.0628 Y1.856 I0.0246 J-0.0135
G3 X2.0488 Y1.8122 I0.1181 J-0.062
G3 X2.0459 Y1.772 I0.2587 J-0.0386
G3 X2.0523 Y1.7152 I0.2301 J-0.0029
G3 X2.0532 Y1.7113 I0.1158 J0.0263
G0 Z0.125
G0 X2.0198 Y1.677
G0 Z0.0625
G1 F4.0 Z-0.02
G2 F8.0 X1.9954 Y1.7129 I0.0751 J0.0773
G2 X1.9853 Y1.7685 I0.1347 J0.0532
G3 Y1.7692 I-0.0156 J0.0003
G2 X2.0325 Y1.8748 I0.1325 J0.0041
G2 X2.0972 Y1.9076 I0.1029 J-0.1226
G2 X2.1723 Y1.9164 I0.0715 J-0.2858
G3 X2.1725 I0.0002 J0.0156
G1 X2.4436
G1 Y1.9031
G1 X2.4096
G3 X2.3916 Y1.9022 I-0.0011 J-0.1556
G3 X2.369 Y1.895 I0.0036 J-0.0503
G3 X2.3665 Y1.8931 I0.0081 J-0.0133
G3 X2.3541 Y1.8619 I0.0265 J-0.0286
G1 Y1.4116
G3 X2.365 Y1.387 I0.0313 J-0.0009
G3 X2.3664 Y1.3859 I0.0102 J0.0119
G3 X2.3825 Y1.3798 I0.0209 J0.0305
G3 X2.3948 Y1.3789 I0.0116 J0.0773
G1 X2.4436
G1 Y1.3656
G1 X2.1869
G1 Y1.3789
G1 X2.2436
G3 X2.277 Y1.3889 I0.0024 J0.0527
G3 X2.2796 Y1.3914 I-0.0092 J0.0126
G3 X2.2871 Y1.408 I-0.0247 J0.0212
G3 X2.2881 Y1.42 I-0.0676 J0.0114
G1 Y1.6055
G3 X2.2725 Y1.6211 I-0.0156 J0.0
G1 X2.1799
G3 X2.1797 I0.0 J-0.0156
G2 X2.0994 Y1.6323 I-0.0025 J0.2744
G2 X2.0286 Y1.6693 I0.0619 J0.2049
G2 X2.0198 Y1.677 I0.0664 J0.0849
G0 Z0.125
G0 X2.0706 Y1.6991
G0 Z0.0625
G1 F4.0 Z-0.02
G3 F8.0 X2.0931 Y1.6663 I0.0974 J0.0424
G3 X2.0939 Y1.6655 I0.011 J0.0111
G3 X2.1485 Y1.639 I0.0768 J0.0888
G3 X2.2042 Y1.6336 I0.0526 J0.2507
G1 X2.2725
G3 X2.2881 Y1.6492 I0.0 J0.0156
G1 Y1.8624
G3 X2.2858 Y1.879 I-0.0559 J0.0009
G3 X2.2733 Y1.8972 I-0.0336 J-0.0098
G3 X2.2717 Y1.8983 I-0.0094 J-0.0125
G3 X2.2547 Y1.9042 I-0.0236 J-0.0407
G3 X2.2413 Y1.9058 I-0.0235 J-0.137
G3 X2.2158 Y1.9066 I-0.0238 J-0.3343
G3 X2.1698 Y1.9046 I-0.0025 J-0.4561
G3 X2.1217 Y1.8934 I0.0122 J-0.1617
G3 X2.1215 Y1.8933 I0.0058 J-0.0145
G3 X2.074 Y1.8505 I0.0377 J-0.0895
G3 X2.0739 Y1.8502 I0.0137 J-0.0075
G3 X2.0611 Y1.8105 I0.107 J-0.0562
G3 X2.0584 Y1.7719 I0.2464 J-0.0368
G3 X2.0644 Y1.7181 I0.2177 J-0.0029
G3 X2.0706 Y1.6991 I0.1036 J0.0235
G0 Z0.125
G0 X1.8424 Y1.6618
G0 Z0.0625
G1 F4.0 Z-0.02
G1 F8.0 Y1.5799
G3 X1.8423 Y1.5811 I-0.4767 J-0.0471
G3 X1.8315 Y1.6347 I-0.2618 J-0.025
G1 X1.8314
G3 X1.8294 Y1.6407 I-0.1375 J-0.0431
G3 X1.8424 Y1.6618 I-0.0265 J0.0308
G0 Z0.125
G0 Y1.4845
G0 Z0.0625
G1 F4.0 Z-0.02
G1 F8.0 Y1.4496
G3 Y1.4494 I0.0406 J0.0
G3 X1.8425 Y1.4392 I0.51 J0.0023
G3 X1.8345 Y1.4415 I-0.0154 J-0.0376
G3 X1.84 Y1.4662 I-0.2108 J0.0595
G3 Y1.4664 I-0.0401 J0.0065
G3 X1.8424 Y1.4845 I-0.3934 J0.0611
G0 Z0.125
G0 X1.5959 Y1.4708
G0 Z0.0625
G1 F4.0 Z-0.02
G2 F8.0 X1.5923 Y1.4814 I0.1381 J0.054
G2 X1.583 Y1.5472 I0.2113 J0.0633
G3 Y1.5481 I-0.0406 J0.0005
G2 X1.5916 Y1.6075 I0.1953 J0.0022
G2 X1.601 Y1.6301 I0.1272 J-0.04
G3 X1.5949 Y1.6037 I0.2108 J-0.0623
G3 Y1.6035 I0.0401 J-0.0066
G3 X1.5901 Y1.5391 I0.3834 J-0.0611
G3 X1.5959 Y1.4708 I0.3632 J-0.003
G1 F4.0 X1.6082 Y1.4731
G3 F8.0 X1.6087 Y1.4707 I0.345 J0.063
G3 X1.6357 Y1.402 I0.187 J0.0338
G3 X1.6412 Y1.3939 I0.0795 J0.0479
G2 X1.6131 Y1.4189 I0.075 J0.1124
G3 X1.6128 Y1.4193 I-0.0215 J-0.0182
G2 X1.5803 Y1.4778 I0.1213 J0.1056
G2 X1.5705 Y1.5473 I0.2233 J0.0669
G3 Y1.548 I-0.0281 J0.0003
G2 X1.5796 Y1.6112 I0.2078 J0.0024
G2 X1.6095 Y1.6642 I0.1391 J-0.0437
G3 X1.6102 Y1.6649 I-0.0211 J0.0186
G2 X1.6733 Y1.7041 I0.0892 J-0.0734
G3 X1.6663 Y1.7002 I0.0412 J-0.0835
G3 X1.6658 Y1.6999 I0.0145 J-0.024
G3 X1.6322 Y1.6676 I0.0616 J-0.0978
G3 X1.6155 Y1.6344 I0.1062 J-0.0742
G3 X1.6073 Y1.6016 I0.1964 J-0.0666
G3 X1.6072 Y1.6015 I0.0277 J-0.0046
G3 X1.6026 Y1.5391 I0.3711 J-0.0592
G3 X1.6082 Y1.4731 I0.3507 J-0.003
G0 Z0.125
G0 X1.8436 Y1.869
G0 Z0.0625
G1 F4.0 Z-0.02
G1 F8.0 Y1.8959
G1 X1.8546 Y1.8954
G3 X1.8436 Y1.869 I0.0566 J-0.0392
G1 F4.0 X1.8558 Y1.8666
G3 F8.0 X1.8549 Y1.8546 I0.0554 J-0.0104
G1 Y1.4496
G3 Y1.4495 I0.0281 J0.0
G3 X1.857 Y1.4056 I0.4975 J0.0022
G2 X1.8521 Y1.4145 I0.1874 J0.1089
G3 X1.8167 Y1.4277 I-0.025 J-0.013
G3 X1.8195 Y1.4353 I-0.115 J0.0464
G3 X1.8276 Y1.4682 I-0.1958 J0.0658
G3 X1.8277 Y1.4683 I-0.0277 J0.0045
G3 X1.8322 Y1.5309 I-0.381 J0.0592
G3 X1.8298 Y1.5799 I-0.4665 J0.0019
G3 X1.8195 Y1.6309 I-0.2494 J-0.0238
G3 X1.8139 Y1.6456 I-0.1256 J-0.0394
G3 X1.8311 Y1.6715 I-0.011 J0.0259
G1 Y1.9091
G1 X1.8852 Y1.9064
G3 X1.8766 Y1.9007 I0.0321 J-0.0575
G3 X1.8558 Y1.8666 I0.0346 J-0.0445
G1 F4.0 X1.8681 Y1.8643
G3 F8.0 X1.8674 Y1.8548 I0.0431 J-0.0081
G1 Y1.4496
G1 Y1.4495
G3 X1.8755 Y1.3633 I0.485 J0.0022
G1 X1.8729 Y1.3625
G2 X1.841 Y1.4088 I0.1715 J0.1521
G3 X1.8144 Y1.4106 I-0.0139 J-0.0072
G2 X1.7703 Y1.3722 I-0.0997 J0.0702
G2 X1.7141 Y1.3602 I-0.0545 J0.1169
G3 X1.7137 I-0.0002 J-0.0156
G2 X1.6529 Y1.3729 I-0.0017 J0.1435
G2 X1.6035 Y1.4109 I0.0633 J0.1333
G3 X1.6034 Y1.411 I-0.0119 J-0.0101
G2 X1.5683 Y1.4742 I0.1307 J0.1138
G2 X1.558 Y1.5475 I0.2352 J0.0705
G3 Y1.5478 I-0.0156 J0.0002
G2 X1.5677 Y1.6149 I0.2203 J0.0025
G2 X1.6002 Y1.6725 I0.1511 J-0.0474
G3 X1.6005 Y1.6729 I-0.0117 J0.0104
G2 X1.7008 Y1.7195 I0.0988 J-0.0814
G3 X1.7011 I0.0002 J0.0156
G2 X1.7573 Y1.7048 I0.0009 J-0.1109
G3 X1.7577 Y1.7046 I0.0078 J0.0136
G2 X1.7879 Y1.6672 I-0.0291 J-0.0545
G3 X1.8186 Y1.6715 I0.015 J0.0043
G1 Y1.9222
G1 X1.9342 Y1.9164
G1 Y1.9031
G1 X1.9261
G3 X1.9058 Y1.901 I-0.0009 J-0.0878
G3 X1.8843 Y1.8908 I0.0115 J-0.0521
G3 X1.8681 Y1.8643 I0.0269 J-0.0346
G0 Z0.125
G0 X1.7606 Y1.6889
G0 Z0.0625
G1 F4.0 Z-0.02
G3 F8.0 X1.7595 Y1.6895 I-0.0548 J-0.0894
G3 X1.7593 Y1.6897 I-0.008 J-0.0134
G3 X1.715 Y1.7012 I-0.0434 J-0.0763
G3 X1.6727 Y1.6895 I-0.0006 J-0.0806
G3 X1.6725 Y1.6894 I0.0081 J-0.0134
G3 X1.6424 Y1.6605 I0.055 J-0.0872
G3 X1.6273 Y1.6304 I0.0959 J-0.0671
G3 X1.6196 Y1.5996 I0.1845 J-0.0627
G1 Y1.5995
G3 X1.615 Y1.5391 I0.3588 J-0.0572
G3 X1.621 Y1.473 I0.3383 J-0.003
G3 X1.6463 Y1.4086 I0.1747 J0.0315
G3 X1.7158 Y1.3695 I0.0689 J0.0414
G3 X1.7589 Y1.3797 I0.0011 J0.0918
G3 X1.7592 Y1.3799 I-0.0072 J0.0139
G3 X1.7921 Y1.4088 I-0.0472 J0.087
G1 X1.7922
G3 X1.8077 Y1.4392 I-0.0904 J0.0653
G3 X1.8153 Y1.4702 I-0.184 J0.0619
G1 Y1.4703
G3 X1.8197 Y1.5309 I-0.3687 J0.0573
G3 X1.8174 Y1.5787 I-0.4541 J0.0019
G3 X1.8076 Y1.6272 I-0.237 J-0.0225
G3 X1.792 Y1.6593 I-0.1137 J-0.0357
G1 X1.7919
G3 X1.7606 Y1.6889 I-0.0861 J-0.0598
G0 Z0.125
G0 X1.5985 Y2.0117
G0 Z0.0625
G1 F4.0 Z-0.02
G3 F8.0 X1.6139 Y2.023 I-0.026 J0.0518
G3 X1.6142 Y2.0232 I-0.0112 J0.0109
G3 X1.6305 Y2.0661 I-0.0439 J0.0413
G3 X1.6157 Y2.1096 I-0.0706 J0.0002
G3 X1.6155 Y2.1098 I-0.0124 J-0.0096
G3 X1.5831 Y2.1367 I-0.0822 J-0.066
G3 X1.5679 Y2.1365 I-0.0074 J-0.0138
G3 X1.5404 Y2.1176 I0.1017 J-0.1775
G3 X1.5164 Y2.0899 I0.062 J-0.078
G3 X1.5163 Y2.0897 I0.0135 J-0.0079
G3 X1.5088 Y2.0622 I0.0502 J-0.0284
G3 X1.5274 Y2.0204 I0.0527 J-0.0016
G3 X1.5487 Y2.0088 I0.0385 J0.0452
G1 X1.5488 Y2.0087
G3 X1.5708 Y2.0056 I0.0215 J0.0723
G3 X1.5985 Y2.0117 I0.0017 J0.0579
G0 Z0.125
G0 X1.5919 Y2.1461
G0 Z0.0625
G1 F4.0 Z-0.02
G3 F8.0 X1.5908 Y2.1467 I-0.0586 J-0.1023
G3 X1.592 Y2.1475 I-0.0529 J0.0843
G3 X1.5919 Y2.1461 I0.028 J-0.0031
G1 F4.0 X1.6044 Y2.1454
G3 F8.0 X1.6121 Y2.131 I0.0156 J-0.0009
G2 X1.6415 Y2.1021 I-0.0431 J-0.0733
G3 X1.6417 Y2.1018 I0.0133 J0.0082
G2 X1.6526 Y2.0657 I-0.0575 J-0.037
G2 X1.6479 Y2.0347 I-0.0961 J-0.0014
G2 X1.6325 Y2.0106 I-0.0546 J0.0181
G2 X1.6051 Y1.9958 I-0.0452 J0.0509
G2 X1.5712 Y1.9915 I-0.0323 J0.119
G3 X1.5708 I-0.0002 J-0.0156
G2 X1.5365 Y1.996 I-0.0014 J0.1218
G2 X1.5083 Y2.0113 I0.0201 J0.0712
G2 X1.4918 Y2.0351 I0.0395 J0.0448
G2 X1.4867 Y2.0657 I0.0815 J0.0293
G2 X1.4904 Y2.0832 I0.0466 J-0.0007
G1 X1.4905 Y2.0833
G2 X1.5004 Y2.1011 I0.0834 J-0.0349
G3 X1.5006 Y2.1014 I-0.0127 J0.0091
G2 X1.5144 Y2.1176 I0.0861 J-0.0589
G1 Y2.1177
G2 X1.5303 Y2.1287 I0.0418 J-0.0432
G3 X1.5311 Y2.1565 I-0.0067 J0.0141
G2 X1.5191 Y2.1659 I0.0231 J0.042
G1 Y2.166
G2 X1.5086 Y2.1796 I0.0655 J0.0613
G3 X1.5085 Y2.1798 I-0.0132 J-0.0083
G2 X1.5008 Y2.1952 I0.0666 J0.0427
G2 X1.498 Y2.2103 I0.0419 J0.0155
G2 X1.5023 Y2.2346 I0.0652 J0.001
G2 X1.5158 Y2.2534 I0.0457 J-0.0184
G1 Y2.2535
G2 X1.54 Y2.2664 I0.0403 J-0.0464
G2 X1.5698 Y2.2701 I0.0285 J-0.1049
G3 X1.5701 I0.0002 J0.0156
G2 X1.5988 Y2.2662 I0.001 J-0.0982
G2 X1.6229 Y2.2532 I-0.0197 J-0.0658
G3 X1.623 I0.01 J0.012
G2 X1.6372 Y2.2345 I-0.0314 J-0.0385
G2 X1.6417 Y2.2105 I-0.0562 J-0.0231
G2 X1.6335 Y2.1819 I-0.0574 J0.0009
G3 X1.6332 Y2.1814 I0.0134 J-0.0081
G2 X1.6112 Y2.1574 I-0.0621 J0.0348
G3 X1.6044 Y2.1454 I0.0088 J-0.0129
G1 F4.0 X1.5913 Y2.1623
G3 F8.0 X1.6031 Y2.1734 I-0.0534 J0.0688
G3 X1.614 Y2.1888 I-0.0533 J0.0495
G3 X1.6196 Y2.2103 I-0.042 J0.0224
G3 X1.6121 Y2.2377 I-0.047 J0.0018
G3 X1.6114 Y2.2387 I-0.0131 J-0.0085
G3 X1.5857 Y2.2545 I-0.0335 J-0.0256
G3 X1.5702 Y2.2561 I-0.0152 J-0.0713
G3 X1.5356 Y2.2446 I-0.002 J-0.0521
G3 X1.5352 Y2.2444 I0.0098 J-0.0122
G3 X1.5203 Y2.2105 I0.0275 J-0.0323
G3 X1.524 Y2.1917 I0.0559 J0.0011
G3 X1.5314 Y2.1765 I0.0825 J0.0311
G3 X1.5422 Y2.1625 I0.0675 J0.0408
G3 X1.5583 Y2.1509 I0.0401 J0.0386
G3 X1.571 Y2.1505 I0.0067 J0.0141
G3 X1.5913 Y2.1623 I-0.0331 J0.0805
G0 Z0.125
G0 X1.3694 Y2.0116
G0 Z0.0625
G1 F4.0 Z-0.02
G1 F8.0 X1.3718 Y2.0081
G1 X1.3507
G3 X1.3583 Y2.0279 I-0.0205 J0.0192
G1 X1.3694 Y2.0116
G1 F4.0 X1.3798 Y2.0186
G1 F8.0 X1.3954 Y1.9956
G1 X1.2331
G1 Y2.0117
G1 X1.3302
G3 X1.3433 Y2.0359 I0.0 J0.0156
G1 X1.2818 Y2.1297
G1 X1.2817
G2 X1.2651 Y2.1582 I0.2451 J0.162
G1 Y2.1583
G2 X1.2536 Y2.1876 I0.1366 J0.0705
G2 X1.2509 Y2.2066 I0.0724 J0.0199
G1 Y2.2067
G2 X1.2558 Y2.2326 I0.0658 J0.0011
G2 X1.271 Y2.2524 I0.0468 J-0.0203
G2 X1.2993 Y2.2662 I0.0458 J-0.058
G2 X1.3333 Y2.2701 I0.0325 J-0.1317
G3 X1.3336 I0.0002 J0.0156
G2 X1.3758 Y2.2582 I0.0007 J-0.0781
G3 X1.3762 Y2.258 I0.0083 J0.0132
G2 X1.397 Y2.2394 I-0.037 J-0.0622
G1 X1.3851 Y2.23
G3 X1.3706 Y2.2436 I-0.0682 J-0.058
G3 X1.3704 Y2.2438 I-0.0094 J-0.0125
G3 X1.3316 Y2.2561 I-0.0383 J-0.0534
G3 X1.3041 Y2.2516 I-0.0017 J-0.0765
G3 X1.2788 Y2.2273 I0.0145 J-0.0405
G3 X1.2786 Y2.227 I0.0145 J-0.0059
G3 X1.275 Y2.2062 I0.0521 J-0.0198
G3 X1.2784 Y2.183 I0.0896 J0.0011
G3 X1.2858 Y2.1626 I0.1331 J0.0369
G1 X1.2859 Y2.1625
G3 X1.3063 Y2.1268 I0.2196 J0.1019
G1 X1.3798 Y2.0186
( Pocket2 )
S10000
G0 Z0.125
G0 X2.3049 Y0.6982
G0 Z0.0625
G1 F4.0 Z-0.02
G1 F8.0 X2.2951
G3 X2.2988 Y0.7073 I-0.0144 J0.0111
G1 X2.3049 Y0.6982
G1 F4.0 Y0.693
G1 F8.0 X2.2239
G1 Y0.6963
G1 X2.2807
G3 X2.2916 Y0.7165 I0.0 J0.013
G1 X2.2535 Y0.7745
G2 X2.2434 Y0.7918 I0.149 J0.0984
G1 X2.2433 Y0.7919
G2 X2.2365 Y0.8094 I0.0816 J0.0421
G2 X2.2349 Y0.8203 I0.0416 J0.0115
G1 Y0.8204
G2 X2.2377 Y0.8351 I0.0374 J0.0006
G2 X2.2461 Y0.846 I0.0259 J-0.0113
G2 X2.2623 Y0.8539 I0.0263 J-0.0333
G1 X2.2624
G2 X2.2826 Y0.8563 I0.0193 J-0.0783
G3 X2.2828 I0.0001 J0.013
G2 X2.3072 Y0.8494 I0.0004 J-0.045
G3 X2.3074 Y0.8492 I0.0069 J0.011
G2 X2.3173 Y0.8411 I-0.0212 J-0.0356
G1 X2.315 Y0.8393
G3 X2.3077 Y0.8458 I-0.0426 J-0.0405
G3 X2.3075 Y0.846 I-0.0078 J-0.0104
G3 X2.2815 Y0.8542 I-0.0257 J-0.0358
G3 X2.2634 Y0.8513 I-0.0011 J-0.0507
G3 X2.2458 Y0.8344 I0.0101 J-0.0282
G3 X2.2457 Y0.8341 I0.012 J-0.0049
G3 X2.2432 Y0.82 I0.0353 J-0.0134
G3 X2.2454 Y0.8048 I0.0588 J0.0007
G3 X2.2502 Y0.7916 I0.0856 J0.0237
G3 X2.2631 Y0.769 I0.1389 J0.0645
G1 X2.3148 Y0.693
G1 X2.3049
G0 Z0.125
G0 X2.1722 Y0.7293
G0 Z0.0625
G1 F4.0 Z-0.02
G2 F8.0 X2.1705 Y0.7238 I-0.1257 J0.0344
G2 X2.1634 Y0.7089 I-0.0603 J0.0196
G2 X2.1471 Y0.6949 I-0.0324 J0.0211
G2 X2.1243 Y0.6905 I-0.0217 J0.0509
G3 X2.1238 I-0.0003 J-0.013
G2 X2.1021 Y0.6955 I-0.0008 J0.0455
G2 X2.0859 Y0.7109 I0.0224 J0.0399
G1 X2.0858
G2 X2.0737 Y0.7406 I0.0734 J0.0472
G2 X2.0704 Y0.7745 I0.1547 J0.0324
G3 Y0.7747 I-0.013 J0.0001
G2 X2.0724 Y0.8042 I0.1966 J0.0013
G1 Y0.8043
G2 X2.0802 Y0.831 I0.0954 J-0.0131
G2 X2.0896 Y0.8446 I0.044 J-0.0205
G2 X2.1085 Y0.8548 I0.0271 J-0.0277
G2 X2.1222 Y0.8563 I0.0132 J-0.0589
G3 X2.1225 I0.0001 J0.013
G2 X2.1444 Y0.8511 I0.0007 J-0.046
G2 X2.1613 Y0.8357 I-0.0244 J-0.0437
G3 X2.1614 Y0.8355 I0.0107 J0.0073
G2 X2.1738 Y0.8089 I-0.0689 J-0.0483
G2 X2.1776 Y0.7787 I-0.1112 J-0.0293
G3 Y0.7786 I0.013 J-0.0001
G2 X2.1761 Y0.7503 I-0.25 J-0.0011
G2 X2.1722 Y0.7293 I-0.1296 J0.0135
G1 F4.0 X2.1654 Y0.7308
G3 F8.0 X2.1657 Y0.7324 I-0.086 J0.0185
G3 X2.1679 Y0.7474 I-0.1517 J0.0304
G1 X2.168
G3 X2.1693 Y0.7764 I-0.2826 J0.0275
G3 X2.168 Y0.8005 I-0.2097 J0.001
G3 X2.1623 Y0.8257 I-0.1062 J-0.0109
G3 X2.152 Y0.843 I-0.0505 J-0.0182
G3 X2.1519 Y0.8432 I-0.0097 J-0.0086
G3 X2.1231 Y0.8556 I-0.0283 J-0.0258
G3 X2.0873 Y0.8338 I-0.0016 J-0.0377
G3 X2.0821 Y0.8183 I0.0593 J-0.0283
G3 X2.0799 Y0.8039 I0.1323 J-0.0276
G1 Y0.8038
G3 X2.0787 Y0.7762 I0.2737 J-0.026
G3 X2.0793 Y0.754 I0.3405 J-0.0009
G3 X2.0822 Y0.7311 I0.1723 J0.01
G3 X2.0874 Y0.7145 I0.0727 J0.0138
G3 X2.1028 Y0.6969 I0.0367 J0.0166
G3 X2.1033 Y0.6967 I0.0069 J0.011
G3 X2.1251 Y0.6911 I0.021 J0.0369
G3 X2.1478 Y0.6985 I0.0006 J0.0366
G3 X2.1483 Y0.6989 I-0.0078 J0.0104
G3 X2.1612 Y0.7169 I-0.0278 J0.0335
G3 X2.1654 Y0.7308 I-0.0818 J0.0324
G0 Z0.125
G0 X1.9312 Y0.8485
G0 Z0.0625
G1 F4.0 Z-0.02
G3 F8.0 X1.9276 Y0.8426 I0.0134 J-0.0123
G1 X1.9244 Y0.8485
G1 X1.9312
G1 F4.0 X1.935 Y0.845
G3 F8.0 X1.9332 Y0.83 I0.0096 J-0.0088
G2 X1.9627 Y0.7733 I-1.301 J-0.7107
G2 X1.9888 Y0.7154 I-0.8479 J-0.418
G2 X1.9975 Y0.693 I-0.5321 J-0.2188
G1 X1.989
G3 X1.9809 Y0.7154 I-0.4397 J-0.1469
G3 X1.9654 Y0.7527 I-0.7857 J-0.3044
G3 X1.9475 Y0.7916 I-1.0712 J-0.4697
G3 X1.9299 Y0.827 I-1.2467 J-0.5968
G3 Y0.8271 I-0.0116 J-0.0059
G1 X1.9157 Y0.8537
G1 X2.0168
G1 Y0.8493
G1 X1.9446
G3 X1.935 Y0.845 I0.0 J-0.013
G0 Z0.125
G0 X1.8528 Y0.7008
G0 Z0.0625
G1 F4.0 Z-0.02
G2 F8.0 X1.8536 Y0.7001 I-0.002 J-0.0034
G3 X1.854 Y0.6997 I0.0131 J0.0127
G2 X1.8551 Y0.697 I-0.0026 J-0.0027
G3 Y0.6963 I0.0182 J-0.0004
G2 X1.8539 Y0.6933 I-0.0042 J-0.0001
G3 X1.8536 Y0.693 I0.0128 J-0.0129
G2 X1.8507 Y0.6919 I-0.0028 J0.0027
G3 X1.8501 Y0.6918 I-0.0003 J-0.0182
G2 X1.8475 Y0.6929 I-0.0001 J0.0035
G3 X1.847 Y0.6934 I-0.0132 J-0.0126
G2 X1.8458 Y0.6963 I0.0027 J0.0028
G3 Y0.697 I-0.0182 J0.0003
G2 X1.8469 Y0.6996 I0.0035 J0.0001
G3 X1.8475 Y0.7002 I-0.0126 J0.0132
G2 X1.8501 Y0.7013 I0.0026 J-0.0024
G3 X1.8507 I0.0003 J0.0182
G2 X1.8528 Y0.7008 I0.0001 J-0.0039
G1 F4.0 X1.8553 Y0.7053
G2 F8.0 X1.8574 Y0.7037 I-0.0045 J-0.0079
G3 X1.8576 Y0.7035 I0.0093 J0.009
G2 X1.8603 Y0.6969 I-0.0062 J-0.0064
G3 Y0.6964 I0.013 J-0.0003
G2 X1.8575 Y0.6896 I-0.0094 J-0.0002
G3 X1.8574 Y0.6894 I0.0092 J-0.0092
G2 X1.8507 Y0.6867 I-0.0066 J0.0064
G3 X1.8502 I-0.0002 J-0.013
G2 X1.8437 Y0.6894 I-0.0002 J0.0087
G3 X1.8434 Y0.6897 I-0.0094 J-0.009
G2 X1.8406 Y0.6964 I0.0064 J0.0066
G3 Y0.6969 I-0.013 J0.0002
G2 X1.8433 Y0.7033 I0.0087 J0.0002
G3 X1.8437 Y0.7038 I-0.009 J0.0094
G2 X1.8502 Y0.7065 I0.0063 J-0.006
G3 X1.8507 I0.0002 J0.013
G2 X1.8553 Y0.7053 I0.0001 J-0.0091
G0 Z0.125
G0 X1.7524 Y0.6982
G0 Z0.0625
G1 F4.0 Z-0.02
G1 F8.0 X1.7426
G3 X1.7463 Y0.7073 I-0.0144 J0.0111
G1 X1.7524 Y0.6982
G1 F4.0 X1.7567 Y0.7011
G1 F8.0 X1.7623 Y0.693
G1 X1.6714
G1 Y0.6963
G1 X1.7282
G3 X1.7391 Y0.7165 I0.0 J0.013
G1 X1.701 Y0.7745
G2 X1.6909 Y0.7918 I0.149 J0.0984
G1 X1.6908 Y0.7919
G2 X1.684 Y0.8094 I0.0816 J0.0421
G2 X1.6824 Y0.8203 I0.0416 J0.0115
G1 Y0.8204
G2 X1.6852 Y0.8351 I0.0374 J0.0006
G2 X1.6936 Y0.846 I0.0259 J-0.0113
G2 X1.7098 Y0.8539 I0.0263 J-0.0333
G1 X1.7099
G2 X1.7301 Y0.8563 I0.0193 J-0.0783
G3 X1.7303 I0.0001 J0.013
G2 X1.7547 Y0.8494 I0.0004 J-0.045
G3 X1.7549 Y0.8492 I0.0069 J0.011
G2 X1.7648 Y0.8411 I-0.0212 J-0.0356
G1 X1.7625 Y0.8393
G3 X1.7552 Y0.8458 I-0.0426 J-0.0405
G3 X1.755 Y0.846 I-0.0078 J-0.0104
G3 X1.729 Y0.8542 I-0.0257 J-0.0358
G3 X1.7109 Y0.8513 I-0.0011 J-0.0507
G3 X1.6933 Y0.8344 I0.0101 J-0.0282
G3 X1.6932 Y0.8341 I0.012 J-0.0049
G3 X1.6907 Y0.82 I0.0353 J-0.0134
G3 X1.6929 Y0.8048 I0.0588 J0.0007
G3 X1.6977 Y0.7916 I0.0856 J0.0237
G3 X1.7106 Y0.769 I0.1389 J0.0645
G1 X1.7567 Y0.7011
( Pocket4 )
S10000
G0 Z0.125
G0 X2.3345 Y1.0053
G0 Z0.0625
G1 F4.0 Z-0.02
G1 F8.0 X2.3328
G3 X2.3345 Y1.008 I-0.0207 J0.0145
G1 Y1.0053
G1 F4.0 X2.3391
G1 F8.0 Y1.0007
G1 X2.3201
G3 X2.3328 Y1.0198 I-0.008 J0.0191
G1 Y1.1936
G1 X2.3391
G1 Y1.0053
G1 F4.0 X2.3483
G1 F8.0 Y0.9915
G1 X2.205
G1 Y1.0083
G1 X2.3121
G3 X2.3236 Y1.0198 I0.0 J0.0115
G1 Y1.2028
G1 X2.3483
G1 Y1.0053
G0 Z0.125
G0 X2.1478 Y1.0664
G0 Z0.0625
G1 F4.0 Z-0.02
G3 F8.0 X2.1474 Y1.067 I-0.0211 J-0.0139
G3 X2.1478 Y1.0676 I-0.0215 J0.0132
G2 Y1.0664 I-0.0972 J-0.0018
G1 F4.0 X2.1524 Y1.0665
G2 F8.0 Y1.0645 I-0.1018 J-0.0007
G3 Y1.0641 I0.0207 J-0.0003
G2 X2.1493 Y1.0386 I-0.0989 J-0.0009
G2 X2.1394 Y1.0174 I-0.0621 J0.0161
G2 X2.1357 Y1.013 I-0.0372 J0.0272
G3 X2.1439 Y1.0298 I-0.0483 J0.0339
G3 X2.1473 Y1.0523 I-0.0774 J0.0234
G3 X2.1416 Y1.0668 I-0.0207 J0.0002
G3 X2.1465 Y1.0798 I-0.0158 J0.0134
G3 X2.1438 Y1.1014 I-0.0741 J0.0016
G3 X2.1397 Y1.1118 I-0.0539 J-0.0153
G2 X2.1484 Y1.0939 I-0.047 J-0.034
G2 X2.1524 Y1.0665 I-0.0978 J-0.0281
G0 Z0.125
G0 X2.0387 Y1.0732
G0 Z0.0625
G1 F4.0 Z-0.02
G1 F8.0 X2.0346
G2 X2.0355 Y1.0802 I0.1656 J-0.016
G3 Y1.0803 I-0.0205 J0.0029
G2 X2.0394 Y1.0968 I0.0866 J-0.0116
G3 X2.0375 Y1.0805 I0.0791 J-0.0173
G3 X2.0387 Y1.0732 I0.0207 J-0.0002
G1 F4.0 Y1.064
G1 F8.0 X2.0248
G2 X2.0263 Y1.0814 I0.1754 J-0.0068
G1 Y1.0815
G2 X2.0338 Y1.1077 I0.0957 J-0.0129
G2 X2.043 Y1.1222 I0.0541 J-0.0246
G2 X2.0658 Y1.1384 I0.0447 J-0.0385
G2 X2.0944 Y1.1435 I0.0275 J-0.072
G3 X2.0949 I0.0002 J0.0115
G2 X2.1423 Y1.1231 I0.0016 J-0.0616
G2 X2.1572 Y1.0965 I-0.0496 J-0.0453
G2 X2.1616 Y1.0644 I-0.1067 J-0.0307
G3 Y1.0642 I0.0115 J-0.0001
G2 X2.1582 Y1.0363 I-0.1081 J-0.001
G2 X2.1468 Y1.012 I-0.071 J0.0184
G2 X2.1226 Y0.9932 I-0.0447 J0.0326
G2 X2.0903 Y0.9876 I-0.0306 J0.0809
G3 X2.09 I-0.0002 J-0.0115
G2 X2.0684 Y0.9902 I-0.0007 J0.0873
G2 X2.0497 Y0.9985 I0.0139 J0.0563
G2 X2.0358 Y1.0123 I0.0322 J0.0463
G2 X2.0322 Y1.018 I0.0603 J0.042
G1 X2.0533 Y1.0216
G3 X2.0546 Y1.0189 I0.0558 J0.0263
G3 X2.0644 Y1.0069 I0.0349 J0.0183
G3 X2.0647 Y1.0067 I0.0073 J0.0089
G3 X2.0896 Y0.9985 I0.0241 J0.0311
G3 X2.1242 Y1.0133 I0.0007 J0.0459
G3 X2.1351 Y1.0324 I-0.0368 J0.0336
G1 Y1.0325
G3 X2.1381 Y1.0524 I-0.0686 J0.0208
G3 X2.1267 Y1.064 I-0.0115 J0.0001
G1 X2.0387
G1 F4.0 X2.0493 Y1.0729
G3 F8.0 X2.0582 Y1.0687 I0.0088 J0.0074
G1 X2.1258
G3 X2.1373 Y1.08 I0.0 J0.0115
G3 X2.1349 Y1.0989 I-0.0649 J0.0014
G3 X2.125 Y1.1171 I-0.045 J-0.0128
G3 X2.0918 Y1.1318 I-0.0324 J-0.0282
G3 X2.0598 Y1.1178 I-0.0004 J-0.0425
G3 X2.0494 Y1.0992 I0.0337 J-0.031
G3 X2.0467 Y1.0804 I0.069 J-0.0197
G3 X2.0493 Y1.0729 I0.0115 J-0.0001
G0 Z0.125
G0 X1.9654 Y1.0381
G0 Z0.0625
G1 F4.0 Z-0.02
G2 F8.0 X1.9675 Y1.0271 I-0.0255 J-0.0106
G3 Y1.0262 I0.0207 J-0.0004
G2 X1.959 Y1.0056 I-0.0271 J-0.0008
G2 X1.9501 Y1.0 I-0.02 J0.0216
G3 X1.9636 Y1.0314 I-0.0294 J0.0313
G3 X1.9612 Y1.0451 I-0.0385 J0.0002
G2 X1.9636 Y1.0418 I-0.0182 J-0.0157
G2 X1.9654 Y1.0381 I-0.0236 J-0.0143
G0 Z0.125
G0 X1.8675 Y1.0163
G0 Z0.0625
G1 F4.0 Z-0.02
G3 F8.0 X1.8587 Y1.0053 I0.0109 J-0.0176
G3 X1.8573 Y1.0007 I0.107 J-0.036
G1 X1.8564
G3 X1.8582 Y1.0187 I-0.1447 J0.0235
G3 X1.8586 Y1.0363 I-0.3666 J0.0167
G3 Y1.0364 I-0.0207 J-0.0001
G1 X1.8581 Y1.0892
G2 X1.8586 Y1.1031 I0.1937 J0.0006
G3 Y1.1032 I-0.0207 J0.0014
G2 X1.8603 Y1.1154 I0.0817 J-0.0052
G3 Y1.1155 I-0.0202 J0.0044
G2 X1.8618 Y1.1198 I0.0169 J-0.0036
G2 X1.8656 Y1.1243 I0.0139 J-0.0078
G2 X1.8729 Y1.1289 I0.0225 J-0.0275
G2 X1.8735 Y1.1291 I0.0213 J-0.0483
G3 X1.8631 Y1.1114 I0.0263 J-0.0273
G3 X1.8612 Y1.096 I0.0551 J-0.0146
G1 Y1.0917
G3 X1.8674 Y1.0769 I0.0207 J0.0
G3 X1.8612 Y1.0622 I0.0145 J-0.0147
G1 Y1.0532
G3 X1.8615 Y1.0412 I0.222 J-0.0007
G3 X1.8636 Y1.0262 I0.0742 J0.0026
G3 X1.8639 Y1.0251 I0.0201 J0.0049
G3 X1.8675 Y1.0163 I0.047 J0.0142
G1 F4.0 X1.8723 Y1.0085
G3 F8.0 X1.8674 Y1.0024 I0.006 J-0.0098
G3 X1.8656 Y0.9964 I0.0983 J-0.0331
G2 X1.8642 Y0.9915 I-0.1569 J0.0442
G1 X1.8446
G3 X1.847 Y1.0003 I-0.1074 J0.0339
G3 X1.8471 Y1.0009 I-0.0112 J0.0026
G3 X1.849 Y1.019 I-0.1354 J0.0233
G3 X1.8494 Y1.0363 I-0.3574 J0.0163
G1 X1.8489 Y1.0892
G2 X1.8494 Y1.1037 I0.2029 J0.0006
G1 Y1.1038
G2 X1.8513 Y1.1174 I0.0908 J-0.0057
G2 X1.8537 Y1.1241 I0.0259 J-0.0055
G2 X1.8598 Y1.1314 I0.022 J-0.0122
G2 X1.8691 Y1.1373 I0.0284 J-0.0347
G2 X1.8877 Y1.1422 I0.0251 J-0.0566
G3 X1.8879 Y1.1423 I-0.0012 J0.0114
G2 X1.9094 Y1.1435 I0.0204 J-0.1684
G3 X1.9096 I0.0001 J0.0115
G2 X1.9333 Y1.1414 I0.0012 J-0.1233
G3 X1.9335 I0.0021 J0.0113
G2 X1.9532 Y1.1336 I-0.0089 J-0.0514
G2 X1.965 Y1.1208 I-0.0255 J-0.0354
G2 X1.9681 Y1.1152 I-0.058 J-0.035
G1 X1.9493 Y1.1118
G3 X1.9482 Y1.1139 I-0.0526 J-0.0285
G3 X1.9383 Y1.1248 I-0.031 J-0.0181
G3 X1.938 Y1.125 I-0.0068 J-0.0093
G3 X1.9248 Y1.1306 I-0.0206 J-0.0299
G3 X1.9127 Y1.1318 I-0.0117 J-0.0554
G3 X1.8985 Y1.1308 I-0.0008 J-0.0874
G3 X1.8814 Y1.1239 I0.0046 J-0.0357
G3 X1.8807 Y1.1233 I0.0069 J-0.0092
G3 X1.872 Y1.1091 I0.0191 J-0.0214
G3 X1.8704 Y1.0961 I0.0462 J-0.0123
G1 Y1.0917
G3 X1.8778 Y1.0809 I0.0115 J0.0
G3 X1.9011 Y1.074 I0.0584 J0.153
G3 X1.9238 Y1.0692 I0.1179 J0.5096
G2 X1.9412 Y1.0652 I-0.0413 J-0.2197
G1 X1.9413
G2 X1.9571 Y1.0595 I-0.0244 J-0.0921
G2 X1.9715 Y1.0466 I-0.0141 J-0.0301
G2 X1.9767 Y1.0269 I-0.0315 J-0.019
G3 Y1.0264 I0.0115 J-0.0002
G2 X1.9653 Y0.9989 I-0.0363 J-0.001
G2 X1.9503 Y0.9903 I-0.0263 J0.0283
G2 X1.9315 Y0.9876 I-0.018 J0.06
G3 X1.9313 I-0.0001 J-0.0115
G2 X1.9077 Y0.9923 I-0.0004 J0.0596
G2 X1.8865 Y1.0068 I0.0283 J0.0643
G3 X1.8723 Y1.0085 I-0.0081 J-0.0082
G1 F4.0 X1.8797 Y1.0144
G3 F8.0 X1.8876 Y1.0068 I0.0312 J0.0249
G3 X1.9176 Y0.9965 I0.0307 J0.0405
G3 X1.9438 Y1.0066 I0.0011 J0.0363
G3 X1.9545 Y1.0314 I-0.023 J0.0246
G3 X1.9505 Y1.0463 I-0.0293 J0.0002
G3 X1.9504 Y1.0465 I-0.01 J-0.0057
G3 X1.9406 Y1.0569 I-0.0288 J-0.0174
G3 X1.9397 Y1.0574 I-0.0065 J-0.0095
G3 X1.925 Y1.0633 I-0.0298 J-0.0529
G3 X1.9118 Y1.0665 I-0.055 J-0.1964
G1 X1.9117
G2 X1.8852 Y1.0732 I0.0574 J0.2841
G3 X1.8704 Y1.0622 I-0.0033 J-0.011
G1 Y1.0532
G3 X1.8707 Y1.0416 I0.2128 J-0.0007
G3 X1.8725 Y1.0283 I0.065 J0.0022
G3 X1.8727 Y1.0278 I0.0112 J0.0027
G3 X1.8797 Y1.0144 I0.0382 J0.0115
G0 Z0.125
G0 X1.7791 Y1.0389
G0 Z0.0625
G1 F4.0 Z-0.02
G2 F8.0 X1.7785 Y1.0365 I-0.1057 J0.0258
G2 X1.7663 Y1.0134 I-0.0568 J0.0152
G2 X1.7503 Y1.0009 I-0.0392 J0.034
G2 X1.75 Y1.0008 I-0.0184 J0.0389
G3 X1.7669 Y1.0191 I-0.0339 J0.0482
G3 X1.7672 Y1.0196 I-0.0178 J0.0105
G3 X1.7759 Y1.0463 I-0.0641 J0.0356
G3 X1.7774 Y1.0692 I-0.1577 J0.0218
G3 X1.7748 Y1.0937 I-0.1071 J0.001
G3 X1.762 Y1.1204 I-0.0627 J-0.0136
G3 X1.7528 Y1.1295 I-0.0429 J-0.0342
G2 X1.7669 Y1.1186 I-0.0204 J-0.0411
G2 X1.7787 Y1.0961 I-0.0405 J-0.0355
G1 Y1.096
G2 X1.7822 Y1.0665 I-0.1107 J-0.0281
G3 Y1.066 I0.0207 J-0.0003
G2 X1.7791 Y1.0389 I-0.1088 J-0.0013
G0 Z0.125
G0 X1.6627 Y1.0253
G0 Z0.0625
G1 F4.0 Z-0.02
G3 F8.0 X1.6611 Y1.0241 I0.0152 J-0.0202
G1 Y1.0291
G3 X1.6627 Y1.0253 I0.0673 J0.0245
G0 Z0.125
G0 X1.6611 Y1.1035
G0 Z0.0625
G1 F4.0 Z-0.02
G1 F8.0 Y1.1156
G3 X1.6647 Y1.1119 I0.02 J0.0155
G3 X1.6611 Y1.1035 I0.0638 J-0.0324
G1 F4.0 X1.6655 Y1.1019
G3 F8.0 X1.6625 Y1.0905 I0.0631 J-0.0225
G3 X1.6603 Y1.0649 I0.1321 J-0.0244
G3 X1.6629 Y1.0398 I0.1128 J-0.001
G3 X1.6685 Y1.0236 I0.0656 J0.0139
G3 X1.6572 Y1.0051 I0.0094 J-0.0185
G1 Y1.0007
G1 X1.6565
G1 Y1.1955
G1 X1.6604
G1 Y1.1311
G3 X1.6707 Y1.1132 I0.0207 J0.0
G3 X1.6655 Y1.1019 I0.0578 J-0.0338
G0 Z0.125
G0 X1.6473
G0 Z0.0625
G1 F4.0 Z-0.02
G1 F8.0 Y1.2047
G1 X1.6696
G1 Y1.1311
G3 X1.6899 Y1.1237 I0.0115 J0.0
G2 X1.7084 Y1.1384 I0.0467 J-0.0399
G2 X1.7307 Y1.1435 I0.0219 J-0.0443
G3 X1.731 I0.0001 J0.0115
G2 X1.7738 Y1.1247 I0.0013 J-0.0551
G2 X1.7876 Y1.0983 I-0.0474 J-0.0416
G2 X1.7914 Y1.0664 I-0.1196 J-0.0304
G3 Y1.0661 I0.0115 J-0.0001
G2 X1.7874 Y1.0341 I-0.118 J-0.0014
G2 X1.7733 Y1.0073 I-0.0657 J0.0176
G2 X1.7543 Y0.9927 I-0.0461 J0.04
G2 X1.7315 Y0.9876 I-0.0224 J0.0472
G2 X1.708 Y0.9934 I0.0004 J0.0521
G2 X1.6874 Y1.0117 I0.0264 J0.0506
G3 X1.6664 Y1.0051 I-0.0095 J-0.0065
G1 Y0.9915
G1 X1.6473
G1 Y1.1019
G0 Z0.125
G0 X1.6729 Y1.0949
G0 Z0.0625
G1 F4.0 Z-0.02
G3 F8.0 X1.6715 Y1.089 I0.0557 J-0.0154
G3 X1.6695 Y1.0649 I0.1231 J-0.0228
G3 X1.6719 Y1.0417 I0.1036 J-0.001
G3 X1.6828 Y1.0181 I0.0566 J0.0119
G3 X1.7184 Y1.0004 I0.0357 J0.0272
G3 X1.742 Y1.0066 I0.0007 J0.0457
G3 X1.7423 Y1.0067 I-0.0058 J0.01
G3 X1.759 Y1.0238 I-0.0262 J0.0423
G3 X1.7592 Y1.024 I-0.0099 J0.0058
G3 X1.7668 Y1.0475 I-0.0561 J0.0311
G3 X1.7682 Y1.0692 I-0.1486 J0.0206
G3 X1.7658 Y1.0918 I-0.0979 J0.001
G3 X1.7549 Y1.1147 I-0.0537 J-0.0116
G3 X1.7189 Y1.1318 I-0.0357 J-0.0285
G3 X1.6825 Y1.1143 I-0.0007 J-0.0451
G3 X1.6824 Y1.1142 I0.0091 J-0.007
G3 X1.6729 Y1.0949 I0.0461 J-0.0348
G0 Z0.125
M5
M30
