( Made using CamBam - http://www.cambam.co.uk )
( 083-bismuth 11/13/2013 1:03:31 PM )
( T0 : 0.0313 )
G20 G90 G91.1 G64 G40
G0 Z0.125
( T0 : 0.0313 )
T0 M6
( Pocket1 )
G17
M3 S10000
G0 X0.7531 Y2.75
G0 Z0.0625
G1 F4.0 Z-0.0313
G2 F8.0 X0.7484 Y2.7473 I-0.0031 J0.0
G2 Y2.7527 I0.0016 J0.0027
G2 X0.7531 Y2.75 I0.0016 J-0.0027
G1 F4.0 X0.7594
G2 F8.0 X0.7453 Y2.7419 I-0.0094 J0.0
G2 Y2.7581 I0.0047 J0.0081
G2 X0.7594 Y2.75 I0.0047 J-0.0081
G1 F4.0 X0.7719
G2 F8.0 X0.7391 Y2.7311 I-0.0219 J0.0
G2 Y2.7689 I0.0109 J0.0189
G2 X0.7719 Y2.75 I0.0109 J-0.0189
G1 F4.0 X0.7844
G2 F8.0 X0.7328 Y2.7202 I-0.0344 J0.0
G2 Y2.7798 I0.0172 J0.0298
G2 X0.7844 Y2.75 I0.0172 J-0.0298
G1 F4.0 X0.7969
G2 F8.0 X0.7266 Y2.7094 I-0.0469 J0.0
G2 Y2.7906 I0.0234 J0.0406
G2 X0.7969 Y2.75 I0.0234 J-0.0406
G0 Z0.125
G0 X0.7531
G0 Z0.0312
G1 F4.0 Z-0.0625
G2 F8.0 X0.7484 Y2.7473 I-0.0031 J0.0
G2 Y2.7527 I0.0016 J0.0027
G2 X0.7531 Y2.75 I0.0016 J-0.0027
G1 F4.0 X0.7594
G2 F8.0 X0.7453 Y2.7419 I-0.0094 J0.0
G2 Y2.7581 I0.0047 J0.0081
G2 X0.7594 Y2.75 I0.0047 J-0.0081
G1 F4.0 X0.7719
G2 F8.0 X0.7391 Y2.7311 I-0.0219 J0.0
G2 Y2.7689 I0.0109 J0.0189
G2 X0.7719 Y2.75 I0.0109 J-0.0189
G1 F4.0 X0.7844
G2 F8.0 X0.7328 Y2.7202 I-0.0344 J0.0
G2 Y2.7798 I0.0172 J0.0298
G2 X0.7844 Y2.75 I0.0172 J-0.0298
G1 F4.0 X0.7969
G2 F8.0 X0.7266 Y2.7094 I-0.0469 J0.0
G2 Y2.7906 I0.0234 J0.0406
G2 X0.7969 Y2.75 I0.0234 J-0.0406
G0 Z0.125
G0 X0.7531
G0 Z0.0
G1 F4.0 Z-0.0938
G2 F8.0 X0.7484 Y2.7473 I-0.0031 J0.0
G2 Y2.7527 I0.0016 J0.0027
G2 X0.7531 Y2.75 I0.0016 J-0.0027
G1 F4.0 X0.7594
G2 F8.0 X0.7453 Y2.7419 I-0.0094 J0.0
G2 Y2.7581 I0.0047 J0.0081
G2 X0.7594 Y2.75 I0.0047 J-0.0081
G1 F4.0 X0.7719
G2 F8.0 X0.7391 Y2.7311 I-0.0219 J0.0
G2 Y2.7689 I0.0109 J0.0189
G2 X0.7719 Y2.75 I0.0109 J-0.0189
G1 F4.0 X0.7844
G2 F8.0 X0.7328 Y2.7202 I-0.0344 J0.0
G2 Y2.7798 I0.0172 J0.0298
G2 X0.7844 Y2.75 I0.0172 J-0.0298
G1 F4.0 X0.7969
G2 F8.0 X0.7266 Y2.7094 I-0.0469 J0.0
G2 Y2.7906 I0.0234 J0.0406
G2 X0.7969 Y2.75 I0.0234 J-0.0406
G0 Z0.125
G0 X0.7531
G0 Z-0.0323
G1 F4.0 Z-0.126
G2 F8.0 X0.7484 Y2.7473 I-0.0031 J0.0
G2 Y2.7527 I0.0016 J0.0027
G2 X0.7531 Y2.75 I0.0016 J-0.0027
G1 F4.0 X0.7594
G2 F8.0 X0.7453 Y2.7419 I-0.0094 J0.0
G2 Y2.7581 I0.0047 J0.0081
G2 X0.7594 Y2.75 I0.0047 J-0.0081
G1 F4.0 X0.7719
G2 F8.0 X0.7391 Y2.7311 I-0.0219 J0.0
G2 Y2.7689 I0.0109 J0.0189
G2 X0.7719 Y2.75 I0.0109 J-0.0189
G1 F4.0 X0.7844
G2 F8.0 X0.7328 Y2.7202 I-0.0344 J0.0
G2 Y2.7798 I0.0172 J0.0298
G2 X0.7844 Y2.75 I0.0172 J-0.0298
G1 F4.0 X0.7969
G2 F8.0 X0.7266 Y2.7094 I-0.0469 J0.0
G2 Y2.7906 I0.0234 J0.0406
G2 X0.7969 Y2.75 I0.0234 J-0.0406
G0 Z0.125
G0 X3.2469
G0 Z0.0625
G1 F4.0 Z-0.0313
G2 F8.0 X3.2484 Y2.7527 I0.0031 J0.0
G2 X3.2531 Y2.75 I0.0016 J-0.0027
G2 X3.2484 Y2.7473 I-0.0031 J0.0
G2 X3.2469 Y2.75 I0.0016 J0.0027
G1 F4.0 X3.2406
G2 F8.0 X3.2453 Y2.7581 I0.0094 J0.0
G2 X3.2594 Y2.75 I0.0047 J-0.0081
G2 X3.2453 Y2.7419 I-0.0094 J0.0
G2 X3.2406 Y2.75 I0.0047 J0.0081
G1 F4.0 X3.2281
G2 F8.0 X3.2391 Y2.7689 I0.0219 J0.0
G2 X3.2719 Y2.75 I0.0109 J-0.0189
G2 X3.2391 Y2.7311 I-0.0219 J0.0
G2 X3.2281 Y2.75 I0.0109 J0.0189
G1 F4.0 X3.2156
G2 F8.0 X3.2328 Y2.7798 I0.0344 J0.0
G2 X3.2844 Y2.75 I0.0172 J-0.0298
G2 X3.2328 Y2.7202 I-0.0344 J0.0
G2 X3.2156 Y2.75 I0.0172 J0.0298
G1 F4.0 X3.2031
G2 F8.0 X3.2266 Y2.7906 I0.0469 J0.0
G2 X3.2969 Y2.75 I0.0234 J-0.0406
G2 X3.2266 Y2.7094 I-0.0469 J0.0
G2 X3.2031 Y2.75 I0.0234 J0.0406
G0 Z0.125
G0 X3.2469
G0 Z0.0312
G1 F4.0 Z-0.0625
G2 F8.0 X3.2484 Y2.7527 I0.0031 J0.0
G2 X3.2531 Y2.75 I0.0016 J-0.0027
G2 X3.2484 Y2.7473 I-0.0031 J0.0
G2 X3.2469 Y2.75 I0.0016 J0.0027
G1 F4.0 X3.2406
G2 F8.0 X3.2453 Y2.7581 I0.0094 J0.0
G2 X3.2594 Y2.75 I0.0047 J-0.0081
G2 X3.2453 Y2.7419 I-0.0094 J0.0
G2 X3.2406 Y2.75 I0.0047 J0.0081
G1 F4.0 X3.2281
G2 F8.0 X3.2391 Y2.7689 I0.0219 J0.0
G2 X3.2719 Y2.75 I0.0109 J-0.0189
G2 X3.2391 Y2.7311 I-0.0219 J0.0
G2 X3.2281 Y2.75 I0.0109 J0.0189
G1 F4.0 X3.2156
G2 F8.0 X3.2328 Y2.7798 I0.0344 J0.0
G2 X3.2844 Y2.75 I0.0172 J-0.0298
G2 X3.2328 Y2.7202 I-0.0344 J0.0
G2 X3.2156 Y2.75 I0.0172 J0.0298
G1 F4.0 X3.2031
G2 F8.0 X3.2266 Y2.7906 I0.0469 J0.0
G2 X3.2969 Y2.75 I0.0234 J-0.0406
G2 X3.2266 Y2.7094 I-0.0469 J0.0
G2 X3.2031 Y2.75 I0.0234 J0.0406
G0 Z0.125
G0 X3.2469
G0 Z0.0
G1 F4.0 Z-0.0938
G2 F8.0 X3.2484 Y2.7527 I0.0031 J0.0
G2 X3.2531 Y2.75 I0.0016 J-0.0027
G2 X3.2484 Y2.7473 I-0.0031 J0.0
G2 X3.2469 Y2.75 I0.0016 J0.0027
G1 F4.0 X3.2406
G2 F8.0 X3.2453 Y2.7581 I0.0094 J0.0
G2 X3.2594 Y2.75 I0.0047 J-0.0081
G2 X3.2453 Y2.7419 I-0.0094 J0.0
G2 X3.2406 Y2.75 I0.0047 J0.0081
G1 F4.0 X3.2281
G2 F8.0 X3.2391 Y2.7689 I0.0219 J0.0
G2 X3.2719 Y2.75 I0.0109 J-0.0189
G2 X3.2391 Y2.7311 I-0.0219 J0.0
G2 X3.2281 Y2.75 I0.0109 J0.0189
G1 F4.0 X3.2156
G2 F8.0 X3.2328 Y2.7798 I0.0344 J0.0
G2 X3.2844 Y2.75 I0.0172 J-0.0298
G2 X3.2328 Y2.7202 I-0.0344 J0.0
G2 X3.2156 Y2.75 I0.0172 J0.0298
G1 F4.0 X3.2031
G2 F8.0 X3.2266 Y2.7906 I0.0469 J0.0
G2 X3.2969 Y2.75 I0.0234 J-0.0406
G2 X3.2266 Y2.7094 I-0.0469 J0.0
G2 X3.2031 Y2.75 I0.0234 J0.0406
G0 Z0.125
G0 X3.2469
G0 Z-0.0323
G1 F4.0 Z-0.126
G2 F8.0 X3.2484 Y2.7527 I0.0031 J0.0
G2 X3.2531 Y2.75 I0.0016 J-0.0027
G2 X3.2484 Y2.7473 I-0.0031 J0.0
G2 X3.2469 Y2.75 I0.0016 J0.0027
G1 F4.0 X3.2406
G2 F8.0 X3.2453 Y2.7581 I0.0094 J0.0
G2 X3.2594 Y2.75 I0.0047 J-0.0081
G2 X3.2453 Y2.7419 I-0.0094 J0.0
G2 X3.2406 Y2.75 I0.0047 J0.0081
G1 F4.0 X3.2281
G2 F8.0 X3.2391 Y2.7689 I0.0219 J0.0
G2 X3.2719 Y2.75 I0.0109 J-0.0189
G2 X3.2391 Y2.7311 I-0.0219 J0.0
G2 X3.2281 Y2.75 I0.0109 J0.0189
G1 F4.0 X3.2156
G2 F8.0 X3.2328 Y2.7798 I0.0344 J0.0
G2 X3.2844 Y2.75 I0.0172 J-0.0298
G2 X3.2328 Y2.7202 I-0.0344 J0.0
G2 X3.2156 Y2.75 I0.0172 J0.0298
G1 F4.0 X3.2031
G2 F8.0 X3.2266 Y2.7906 I0.0469 J0.0
G2 X3.2969 Y2.75 I0.0234 J-0.0406
G2 X3.2266 Y2.7094 I-0.0469 J0.0
G2 X3.2031 Y2.75 I0.0234 J0.0406
G0 Z0.125
G0 X3.2499 Y0.2531
G0 Z0.0625
G1 F4.0 Z-0.0313
G2 F8.0 X3.2531 Y0.25 I0.0001 J-0.0031
G2 X3.2484 Y0.2473 I-0.0031 J0.0
G2 Y0.2527 I0.0016 J0.0027
G2 X3.2499 Y0.2531 I0.0016 J-0.0027
G1 F4.0 X3.2498 Y0.2594
G2 F8.0 X3.2594 Y0.25 I0.0002 J-0.0094
G2 X3.2453 Y0.2419 I-0.0094 J0.0
G2 Y0.2581 I0.0047 J0.0081
G2 X3.2498 Y0.2594 I0.0047 J-0.0081
G1 F4.0 X3.2496 Y0.2719
G2 F8.0 X3.2719 Y0.25 I0.0004 J-0.0219
G2 X3.2391 Y0.2311 I-0.0219 J0.0
G2 Y0.2689 I0.0109 J0.0189
G2 X3.2496 Y0.2719 I0.0109 J-0.0189
G1 F4.0 X3.2494 Y0.2844
G2 F8.0 X3.2844 Y0.25 I0.0006 J-0.0344
G2 X3.2328 Y0.2202 I-0.0344 J0.0
G2 Y0.2798 I0.0172 J0.0298
G2 X3.2494 Y0.2844 I0.0172 J-0.0298
G1 F4.0 X3.2491 Y0.2969
G2 F8.0 X3.2969 Y0.25 I0.0009 J-0.0469
G2 X3.2266 Y0.2094 I-0.0469 J0.0
G2 Y0.2906 I0.0234 J0.0406
G2 X3.2491 Y0.2969 I0.0234 J-0.0406
G0 Z0.125
G0 X3.2499 Y0.2531
G0 Z0.0312
G1 F4.0 Z-0.0625
G2 F8.0 X3.2531 Y0.25 I0.0001 J-0.0031
G2 X3.2484 Y0.2473 I-0.0031 J0.0
G2 Y0.2527 I0.0016 J0.0027
G2 X3.2499 Y0.2531 I0.0016 J-0.0027
G1 F4.0 X3.2498 Y0.2594
G2 F8.0 X3.2594 Y0.25 I0.0002 J-0.0094
G2 X3.2453 Y0.2419 I-0.0094 J0.0
G2 Y0.2581 I0.0047 J0.0081
G2 X3.2498 Y0.2594 I0.0047 J-0.0081
G1 F4.0 X3.2496 Y0.2719
G2 F8.0 X3.2719 Y0.25 I0.0004 J-0.0219
G2 X3.2391 Y0.2311 I-0.0219 J0.0
G2 Y0.2689 I0.0109 J0.0189
G2 X3.2496 Y0.2719 I0.0109 J-0.0189
G1 F4.0 X3.2494 Y0.2844
G2 F8.0 X3.2844 Y0.25 I0.0006 J-0.0344
G2 X3.2328 Y0.2202 I-0.0344 J0.0
G2 Y0.2798 I0.0172 J0.0298
G2 X3.2494 Y0.2844 I0.0172 J-0.0298
G1 F4.0 X3.2491 Y0.2969
G2 F8.0 X3.2969 Y0.25 I0.0009 J-0.0469
G2 X3.2266 Y0.2094 I-0.0469 J0.0
G2 Y0.2906 I0.0234 J0.0406
G2 X3.2491 Y0.2969 I0.0234 J-0.0406
G0 Z0.125
G0 X3.2499 Y0.2531
G0 Z0.0
G1 F4.0 Z-0.0938
G2 F8.0 X3.2531 Y0.25 I0.0001 J-0.0031
G2 X3.2484 Y0.2473 I-0.0031 J0.0
G2 Y0.2527 I0.0016 J0.0027
G2 X3.2499 Y0.2531 I0.0016 J-0.0027
G1 F4.0 X3.2498 Y0.2594
G2 F8.0 X3.2594 Y0.25 I0.0002 J-0.0094
G2 X3.2453 Y0.2419 I-0.0094 J0.0
G2 Y0.2581 I0.0047 J0.0081
G2 X3.2498 Y0.2594 I0.0047 J-0.0081
G1 F4.0 X3.2496 Y0.2719
G2 F8.0 X3.2719 Y0.25 I0.0004 J-0.0219
G2 X3.2391 Y0.2311 I-0.0219 J0.0
G2 Y0.2689 I0.0109 J0.0189
G2 X3.2496 Y0.2719 I0.0109 J-0.0189
G1 F4.0 X3.2494 Y0.2844
G2 F8.0 X3.2844 Y0.25 I0.0006 J-0.0344
G2 X3.2328 Y0.2202 I-0.0344 J0.0
G2 Y0.2798 I0.0172 J0.0298
G2 X3.2494 Y0.2844 I0.0172 J-0.0298
G1 F4.0 X3.2491 Y0.2969
G2 F8.0 X3.2969 Y0.25 I0.0009 J-0.0469
G2 X3.2266 Y0.2094 I-0.0469 J0.0
G2 Y0.2906 I0.0234 J0.0406
G2 X3.2491 Y0.2969 I0.0234 J-0.0406
G0 Z0.125
G0 X3.2499 Y0.2531
G0 Z-0.0323
G1 F4.0 Z-0.126
G2 F8.0 X3.2531 Y0.25 I0.0001 J-0.0031
G2 X3.2484 Y0.2473 I-0.0031 J0.0
G2 Y0.2527 I0.0016 J0.0027
G2 X3.2499 Y0.2531 I0.0016 J-0.0027
G1 F4.0 X3.2498 Y0.2594
G2 F8.0 X3.2594 Y0.25 I0.0002 J-0.0094
G2 X3.2453 Y0.2419 I-0.0094 J0.0
G2 Y0.2581 I0.0047 J0.0081
G2 X3.2498 Y0.2594 I0.0047 J-0.0081
G1 F4.0 X3.2496 Y0.2719
G2 F8.0 X3.2719 Y0.25 I0.0004 J-0.0219
G2 X3.2391 Y0.2311 I-0.0219 J0.0
G2 Y0.2689 I0.0109 J0.0189
G2 X3.2496 Y0.2719 I0.0109 J-0.0189
G1 F4.0 X3.2494 Y0.2844
G2 F8.0 X3.2844 Y0.25 I0.0006 J-0.0344
G2 X3.2328 Y0.2202 I-0.0344 J0.0
G2 Y0.2798 I0.0172 J0.0298
G2 X3.2494 Y0.2844 I0.0172 J-0.0298
G1 F4.0 X3.2491 Y0.2969
G2 F8.0 X3.2969 Y0.25 I0.0009 J-0.0469
G2 X3.2266 Y0.2094 I-0.0469 J0.0
G2 Y0.2906 I0.0234 J0.0406
G2 X3.2491 Y0.2969 I0.0234 J-0.0406
G0 Z0.125
G0 X0.7531 Y0.2501
G0 Z0.0625
G1 F4.0 Z-0.0313
G1 F8.0 Y0.25
G2 X0.7484 Y0.2473 I-0.0031 J0.0
G2 Y0.2527 I0.0016 J0.0027
G2 X0.7531 Y0.2501 I0.0016 J-0.0027
G1 F4.0 X0.7594 Y0.2502
G2 F8.0 Y0.25 I-0.0094 J-0.0002
G2 X0.7453 Y0.2419 I-0.0094 J0.0
G2 Y0.2581 I0.0047 J0.0081
G2 X0.7594 Y0.2502 I0.0047 J-0.0081
G1 F4.0 X0.7719 Y0.2504
G2 F8.0 Y0.25 I-0.0219 J-0.0004
G2 X0.7391 Y0.2311 I-0.0219 J0.0
G2 Y0.2689 I0.0109 J0.0189
G2 X0.7719 Y0.2504 I0.0109 J-0.0189
G1 F4.0 X0.7844 Y0.2506
G2 F8.0 Y0.25 I-0.0344 J-0.0006
G2 X0.7328 Y0.2202 I-0.0344 J0.0
G2 Y0.2798 I0.0172 J0.0298
G2 X0.7844 Y0.2506 I0.0172 J-0.0298
G1 F4.0 X0.7969 Y0.2509
G2 F8.0 Y0.25 I-0.0469 J-0.0009
G2 X0.7266 Y0.2094 I-0.0469 J0.0
G2 Y0.2906 I0.0234 J0.0406
G2 X0.7969 Y0.2509 I0.0234 J-0.0406
G0 Z0.125
G0 X0.7531 Y0.2501
G0 Z0.0312
G1 F4.0 Z-0.0625
G1 F8.0 Y0.25
G2 X0.7484 Y0.2473 I-0.0031 J0.0
G2 Y0.2527 I0.0016 J0.0027
G2 X0.7531 Y0.2501 I0.0016 J-0.0027
G1 F4.0 X0.7594 Y0.2502
G2 F8.0 Y0.25 I-0.0094 J-0.0002
G2 X0.7453 Y0.2419 I-0.0094 J0.0
G2 Y0.2581 I0.0047 J0.0081
G2 X0.7594 Y0.2502 I0.0047 J-0.0081
G1 F4.0 X0.7719 Y0.2504
G2 F8.0 Y0.25 I-0.0219 J-0.0004
G2 X0.7391 Y0.2311 I-0.0219 J0.0
G2 Y0.2689 I0.0109 J0.0189
G2 X0.7719 Y0.2504 I0.0109 J-0.0189
G1 F4.0 X0.7844 Y0.2506
G2 F8.0 Y0.25 I-0.0344 J-0.0006
G2 X0.7328 Y0.2202 I-0.0344 J0.0
G2 Y0.2798 I0.0172 J0.0298
G2 X0.7844 Y0.2506 I0.0172 J-0.0298
G1 F4.0 X0.7969 Y0.2509
G2 F8.0 Y0.25 I-0.0469 J-0.0009
G2 X0.7266 Y0.2094 I-0.0469 J0.0
G2 Y0.2906 I0.0234 J0.0406
G2 X0.7969 Y0.2509 I0.0234 J-0.0406
G0 Z0.125
G0 X0.7531 Y0.2501
G0 Z0.0
G1 F4.0 Z-0.0938
G1 F8.0 Y0.25
G2 X0.7484 Y0.2473 I-0.0031 J0.0
G2 Y0.2527 I0.0016 J0.0027
G2 X0.7531 Y0.2501 I0.0016 J-0.0027
G1 F4.0 X0.7594 Y0.2502
G2 F8.0 Y0.25 I-0.0094 J-0.0002
G2 X0.7453 Y0.2419 I-0.0094 J0.0
G2 Y0.2581 I0.0047 J0.0081
G2 X0.7594 Y0.2502 I0.0047 J-0.0081
G1 F4.0 X0.7719 Y0.2504
G2 F8.0 Y0.25 I-0.0219 J-0.0004
G2 X0.7391 Y0.2311 I-0.0219 J0.0
G2 Y0.2689 I0.0109 J0.0189
G2 X0.7719 Y0.2504 I0.0109 J-0.0189
G1 F4.0 X0.7844 Y0.2506
G2 F8.0 Y0.25 I-0.0344 J-0.0006
G2 X0.7328 Y0.2202 I-0.0344 J0.0
G2 Y0.2798 I0.0172 J0.0298
G2 X0.7844 Y0.2506 I0.0172 J-0.0298
G1 F4.0 X0.7969 Y0.2509
G2 F8.0 Y0.25 I-0.0469 J-0.0009
G2 X0.7266 Y0.2094 I-0.0469 J0.0
G2 Y0.2906 I0.0234 J0.0406
G2 X0.7969 Y0.2509 I0.0234 J-0.0406
G0 Z0.125
G0 X0.7531 Y0.2501
G0 Z-0.0323
G1 F4.0 Z-0.126
G1 F8.0 Y0.25
G2 X0.7484 Y0.2473 I-0.0031 J0.0
G2 Y0.2527 I0.0016 J0.0027
G2 X0.7531 Y0.2501 I0.0016 J-0.0027
G1 F4.0 X0.7594 Y0.2502
G2 F8.0 Y0.25 I-0.0094 J-0.0002
G2 X0.7453 Y0.2419 I-0.0094 J0.0
G2 Y0.2581 I0.0047 J0.0081
G2 X0.7594 Y0.2502 I0.0047 J-0.0081
G1 F4.0 X0.7719 Y0.2504
G2 F8.0 Y0.25 I-0.0219 J-0.0004
G2 X0.7391 Y0.2311 I-0.0219 J0.0
G2 Y0.2689 I0.0109 J0.0189
G2 X0.7719 Y0.2504 I0.0109 J-0.0189
G1 F4.0 X0.7844 Y0.2506
G2 F8.0 Y0.25 I-0.0344 J-0.0006
G2 X0.7328 Y0.2202 I-0.0344 J0.0
G2 Y0.2798 I0.0172 J0.0298
G2 X0.7844 Y0.2506 I0.0172 J-0.0298
G1 F4.0 X0.7969 Y0.2509
G2 F8.0 Y0.25 I-0.0469 J-0.0009
G2 X0.7266 Y0.2094 I-0.0469 J0.0
G2 Y0.2906 I0.0234 J0.0406
G2 X0.7969 Y0.2509 I0.0234 J-0.0406
( Pocket3 )
S10000
G0 Z0.125
G0 X1.0719 Y0.5719
G0 Z0.0625
G1 F4.0 Z-0.02
G1 F8.0 Y0.5766
G3 X1.0766 Y0.5719 I0.0531 J0.0484
G1 X1.0719
G1 F4.0 X1.0656
G1 F8.0 Y0.5971
G3 X1.0971 Y0.5656 I0.0594 J0.0279
G1 X1.0656
G1 Y0.5719
G0 Z0.125
G0 X1.0719 Y2.4234
G0 Z0.0625
G1 F4.0 Z-0.02
G1 F8.0 Y2.4281
G1 X1.0766
G3 X1.0719 Y2.4234 I0.0484 J-0.0531
G1 F4.0 X1.0765 Y2.4192
G3 F8.0 X1.0656 Y2.4029 I0.0485 J-0.0442
G1 Y2.4344
G1 X1.0971
G3 X1.0765 Y2.4192 I0.0279 J-0.0594
G0 Z0.125
G0 X2.9234 Y2.4281
G0 Z0.0625
G1 F4.0 Z-0.02
G1 F8.0 X2.9281
G1 Y2.4234
G3 X2.9234 Y2.4281 I-0.0531 J-0.0484
G1 F4.0 X2.9192 Y2.4235
G3 F8.0 X2.9029 Y2.4344 I-0.0442 J-0.0485
G1 X2.9344
G1 Y2.4029
G3 X2.9192 Y2.4235 I-0.0594 J-0.0279
G0 Z0.125
G0 X2.9281 Y0.5766
G0 Z0.0625
G1 F4.0 Z-0.02
G1 F8.0 Y0.5719
G1 X2.9234
G3 X2.9281 Y0.5766 I-0.0484 J0.0531
G1 F4.0 X2.9344
G1 F8.0 Y0.5656
G1 X2.9029
G3 X2.9344 Y0.5971 I-0.0279 J0.0594
G1 Y0.5766
G0 Z0.125
G0 X2.8968 Y0.6073
G0 Z0.0625
G1 F4.0 Z-0.02
G3 F8.0 X2.9031 Y0.625 I-0.0218 J0.0177
G1 Y2.375
G3 X2.875 Y2.4031 I-0.0281 J0.0
G1 X1.125
G3 X1.0969 Y2.375 I0.0 J-0.0281
G1 Y0.625
G3 X1.125 Y0.5969 I0.0281 J0.0
G1 X2.875
G3 X2.8968 Y0.6073 I0.0 J0.0281
G1 F4.0 X2.8871 Y0.6151
G3 F8.0 X2.8906 Y0.625 I-0.0121 J0.0099
G1 Y2.375
G3 X2.875 Y2.3906 I-0.0156 J0.0
G1 X1.125
G3 X1.1094 Y2.375 I0.0 J-0.0156
G1 Y0.625
G3 X1.125 Y0.6094 I0.0156 J0.0
G1 X2.875
G3 X2.8871 Y0.6151 I0.0 J0.0156
G0 Z0.125
G0 X2.9065 Y0.5994
G0 Z0.0625
G1 F4.0 Z-0.02
G2 F8.0 X2.875 Y0.5844 I-0.0315 J0.0256
G1 X1.125
G2 X1.0844 Y0.625 I0.0 J0.0406
G1 Y2.375
G2 X1.125 Y2.4156 I0.0406 J0.0
G1 X2.875
G2 X2.9156 Y2.375 I0.0 J-0.0406
G1 Y0.625
G2 X2.9065 Y0.5994 I-0.0406 J0.0
G1 F4.0 X2.9162 Y0.5915
G2 F8.0 X2.875 Y0.5719 I-0.0412 J0.0335
G1 X1.125
G2 X1.0719 Y0.625 I0.0 J0.0531
G1 Y2.375
G2 X1.125 Y2.4281 I0.0531 J0.0
G1 X2.875
G2 X2.9281 Y2.375 I0.0 J-0.0531
G1 Y0.625
G2 X2.9162 Y0.5915 I-0.0531 J0.0
G0 Z0.125
G0 X2.9469
G0 Z0.0625
G1 F4.0 Z-0.02
G1 F8.0 Y0.5531
G1 X1.0531
G1 Y2.4469
G1 X2.9469
G1 Y0.5915
G1 F4.0 X2.9594
G1 F8.0 Y0.5406
G1 X1.0406
G1 Y2.4594
G1 X2.9594
G1 Y0.5915
G1 F4.0 X2.9719
G1 F8.0 Y0.5281
G1 X1.0281
G1 Y2.4719
G1 X2.9719
G1 Y0.5915
G1 F4.0 X2.9844
G1 F8.0 Y0.5156
G1 X1.0156
G1 Y2.4844
G1 X2.9844
G1 Y0.5915
G0 Z0.125
G0 X2.2538 Y1.3906
G0 Z0.0625
G1 F4.0 Z-0.02
G1 F8.0 X2.2282
G3 X2.2332 Y1.4184 I-0.0583 J0.0247
G1 Y1.6277
G3 X2.2265 Y1.65 I-0.0406 J0.0
G3 X2.2332 Y1.6723 I-0.0339 J0.0223
G1 Y1.8642
G3 X2.2283 Y1.8914 I-0.0602 J0.0032
G1 X2.2561
G3 X2.25 Y1.8614 I0.0579 J-0.0273
G1 Y1.409
G3 X2.2501 Y1.4062 I0.0406 J0.0
G3 X2.2538 Y1.3906 I0.0494 J0.0034
G1 F4.0 X2.2653 Y1.3954
G3 F8.0 X2.273 Y1.3837 I0.0342 J0.0142
G3 X2.2792 Y1.3781 I0.0399 J0.038
G1 X2.2044
G3 X2.2066 Y1.3802 I-0.0181 J0.0215
G3 X2.2207 Y1.4181 I-0.0367 J0.0352
G1 Y1.6277
G3 X2.2097 Y1.65 I-0.0281 J0.0
G3 X2.2207 Y1.6723 I-0.0171 J0.0223
G1 Y1.8646
G3 X2.2039 Y1.9039 I-0.0477 J0.0029
G1 X2.2813
G3 X2.2801 Y1.9029 I0.032 J-0.0412
G3 X2.2789 Y1.9019 I0.0179 J-0.0217
G3 X2.2625 Y1.8617 I0.035 J-0.0378
G1 Y1.409
G3 X2.2626 Y1.4071 I0.0281 J0.0
G3 X2.2653 Y1.3954 I0.0369 J0.0025
G0 Z0.125
G0 X2.0445 Y1.6518
G0 Z0.0625
G1 F4.0 Z-0.02
G3 F8.0 X2.0442 Y1.6517 I0.0378 J-0.1731
G3 Y1.6519 I-0.0278 J0.0046
G3 X2.0445 Y1.6518 I0.0374 J0.1092
G0 Z0.125
G0 X1.9611 Y1.7217
G0 Z0.0625
G1 F4.0 Z-0.02
G2 F8.0 X1.9503 Y1.7314 I0.0639 J0.0822
G2 X1.9277 Y1.7889 I0.0576 J0.0558
G3 Y1.7903 I-0.0406 J0.0009
G2 X1.9361 Y1.8285 I0.0862 J0.001
G2 X1.9616 Y1.8596 I0.0843 J-0.043
G3 X1.9618 Y1.8598 I-0.0253 J0.0318
G2 X1.9692 Y1.8653 I0.079 J-0.098
G3 X1.9554 Y1.8256 I0.1084 J-0.0598
G3 X1.9524 Y1.7884 I0.2079 J-0.0358
G3 X1.9584 Y1.7321 I0.2398 J-0.0028
G3 X1.9611 Y1.7217 I0.1246 J0.0268
G1 F4.0 X1.9731 Y1.7253
G3 F8.0 X1.9891 Y1.6926 I0.1099 J0.0336
G2 X1.9767 Y1.6977 I0.0641 J0.1734
G2 X1.9413 Y1.7227 I0.0484 J0.1061
G2 X1.9152 Y1.7892 I0.0666 J0.0645
G3 Y1.7902 I-0.0281 J0.0006
G2 X1.9249 Y1.834 I0.0987 J0.0012
G2 X1.9538 Y1.8694 I0.0955 J-0.0486
G3 X1.954 Y1.8695 I-0.0175 J0.022
G2 X2.0087 Y1.8964 I0.0868 J-0.1077
G3 X2.0088 I-0.0065 J0.0274
G2 X2.0221 Y1.8993 I0.0628 J-0.2585
G3 X1.9821 Y1.8627 I0.0474 J-0.092
G3 X1.9816 Y1.8619 I0.0237 J-0.0151
G3 X1.9678 Y1.8235 I0.096 J-0.0564
G3 X1.9649 Y1.7884 I0.1956 J-0.0337
G3 X1.9706 Y1.7348 I0.2273 J-0.0028
G3 X1.9731 Y1.7253 I0.1124 J0.0241
G0 Z0.125
G0 X1.9139 Y1.5384
G0 Z0.0625
G1 F4.0 Z-0.02
G3 F8.0 X1.9121 Y1.5102 I0.1948 J-0.0263
G3 X1.9136 Y1.4821 I0.2204 J-0.0026
G2 X1.9094 Y1.5094 I0.078 J0.0261
G3 Y1.5116 I-0.0531 J0.0008
G2 X1.9139 Y1.5384 I0.0708 J0.0019
G1 F4.0 X1.9263 Y1.5368
G3 F8.0 X1.9246 Y1.5102 I0.1824 J-0.0247
G3 X1.9321 Y1.4523 I0.2079 J-0.0026
G3 X1.9411 Y1.4288 I0.1236 J0.0336
G2 X1.9389 Y1.4302 I0.1135 J0.1723
G3 X1.9388 Y1.4303 I-0.0228 J-0.0336
G2 X1.9136 Y1.4544 I0.0561 J0.0839
G2 X1.8969 Y1.5096 I0.0781 J0.0537
G3 Y1.5112 I-0.0406 J0.0006
G2 X1.9252 Y1.5761 I0.0833 J0.0022
G3 X1.9254 Y1.5762 I-0.0268 J0.0305
G2 X1.9419 Y1.5888 I0.0919 J-0.1036
G3 X1.9337 Y1.5692 I0.1257 J-0.0641
G3 X1.9336 Y1.5689 I0.0385 J-0.0128
G3 X1.9263 Y1.5368 I0.1751 J-0.0568
G1 F4.0 X1.9387 Y1.5351
G3 F8.0 X1.9371 Y1.5102 I0.17 J-0.023
G3 X1.9442 Y1.4556 I0.1954 J-0.0025
G3 X1.9764 Y1.4018 I0.1115 J0.0303
G3 X1.9773 Y1.4011 I0.0193 J0.0205
G3 X1.9881 Y1.3926 I0.0844 J0.0971
G2 X1.9704 Y1.3991 I0.0907 J0.2756
G2 X1.9319 Y1.4198 I0.0841 J0.202
G3 X1.9318 Y1.4199 I-0.0158 J-0.0233
G2 X1.9034 Y1.4472 I0.0631 J0.0942
G2 X1.8844 Y1.5097 I0.0883 J0.061
G3 Y1.5109 I-0.0281 J0.0004
G2 X1.917 Y1.5855 I0.0958 J0.0025
G3 X1.9171 Y1.5856 I-0.0185 J0.0211
G2 X1.9637 Y1.6138 I0.1002 J-0.1129
G1 X1.9638
G2 X1.9809 Y1.6197 I0.0926 J-0.2427
G3 X1.9771 Y1.616 I0.0878 J-0.0958
G3 X1.9456 Y1.5652 I0.0905 J-0.0913
G3 X1.9455 Y1.565 I0.0267 J-0.0089
G3 X1.9387 Y1.5351 I0.1632 J-0.0529
G0 Z0.125
G0 X1.8841 Y1.5635
G0 Z0.0625
G1 F4.0 Z-0.02
G2 F8.0 X1.9087 Y1.5949 I0.0961 J-0.0501
G1 X1.9088 Y1.595
G2 X1.9593 Y1.6255 I0.1085 J-0.1223
G2 X2.0186 Y1.6408 I0.0971 J-0.2544
G3 X2.0191 Y1.6716 I-0.0022 J0.0155
G2 X1.9715 Y1.6864 I0.034 J0.1944
G2 X1.9323 Y1.714 I0.0535 J0.1175
G2 X1.9027 Y1.7895 I0.0756 J0.0732
G3 Y1.79 I-0.0156 J0.0003
G2 X1.9137 Y1.8395 I0.1112 J0.0013
G2 X1.946 Y1.8792 I0.1067 J-0.0541
G3 X1.9461 I-0.0097 J0.0122
G2 X2.0058 Y1.9085 I0.0947 J-0.1174
G2 X2.0748 Y1.9164 I0.0658 J-0.2706
G3 X2.075 I0.0002 J0.0156
G1 X2.3625
G1 Y1.9031
G1 X2.3208
G3 X2.3057 Y1.9017 I-0.0007 J-0.0703
G3 X2.2881 Y1.8933 I0.0076 J-0.0389
G3 X2.2874 Y1.8927 I0.01 J-0.012
G3 X2.275 Y1.862 I0.0265 J-0.0286
G1 Y1.409
G3 Y1.4079 I0.0156 J0.0
G3 X2.282 Y1.3924 I0.0244 J0.0017
G3 X2.2894 Y1.3862 I0.0309 J0.0293
G3 X2.2904 Y1.3856 I0.0086 J0.013
G3 X2.309 Y1.3798 I0.0231 J0.041
G3 X2.3239 Y1.3789 I0.0141 J0.1163
G1 X2.3625
G1 Y1.3656
G1 X2.084
G3 X2.0837 I0.0 J-0.0156
G2 X1.9657 Y1.3875 I-0.0049 J0.3026
G2 X1.9249 Y1.4095 I0.0889 J0.2136
G2 X1.8932 Y1.4399 I0.07 J0.1046
G2 X1.8719 Y1.5099 I0.0984 J0.0682
G3 Y1.5106 I-0.0156 J0.0002
G2 X1.8841 Y1.5635 I0.1083 J0.0029
G0 Z0.125
G0 X1.9536 Y1.5476
G0 Z0.0625
G1 F4.0 Z-0.02
G3 F8.0 X1.9496 Y1.5102 I0.1551 J-0.0355
G3 X1.9562 Y1.4589 I0.1829 J-0.0025
G3 X1.985 Y1.4109 I0.0995 J0.027
G3 X1.9855 Y1.4105 I0.0107 J0.0114
G3 X2.0375 Y1.3845 I0.0762 J0.0877
G3 X2.0911 Y1.3789 I0.0508 J0.226
G1 X2.1597
G3 X2.1749 Y1.3797 I0.0009 J0.1225
G3 X2.1948 Y1.3864 I-0.0036 J0.0433
G3 X2.1976 Y1.3888 I-0.0084 J0.0132
G3 X2.2082 Y1.4177 I-0.0277 J0.0265
G1 Y1.6277
G3 X2.1926 Y1.6434 I-0.0156 J0.0
G1 X2.0845
G3 X2.0327 Y1.6357 I-0.0021 J-0.1647
G1 X2.0326
G3 X1.9859 Y1.6072 I0.0361 J-0.1118
G3 X1.9574 Y1.5613 I0.0817 J-0.0825
G3 Y1.5612 I0.0148 J-0.0049
G3 X1.9536 Y1.5476 I0.1513 J-0.0491
G0 Z0.125
G0 X2.0286 Y1.6728
G0 Z0.0625
G1 F4.0 Z-0.02
G3 F8.0 X2.0493 Y1.6633 I0.0529 J0.0883
G3 X2.0494 I0.0049 J0.0148
G3 X2.0935 Y1.6566 I0.0424 J0.1314
G1 X2.1926
G3 X2.2082 Y1.6723 I0.0 J0.0156
G1 Y1.865
G3 X2.1941 Y1.8957 I-0.0352 J0.0025
G3 X2.1912 Y1.8975 I-0.0093 J-0.0125
G3 X2.1736 Y1.9021 I-0.0225 J-0.0499
G3 X2.1596 Y1.9033 I-0.0242 J-0.1986
G3 X2.1325 Y1.9039 I-0.0254 J-0.5076
G3 X2.0632 Y1.8994 I-0.0064 J-0.4363
G3 X2.063 I0.0023 J-0.0155
G3 X2.0383 Y1.8928 I0.0191 J-0.1211
G3 X1.9927 Y1.856 I0.0313 J-0.0855
G3 X1.9924 Y1.8556 I0.0132 J-0.0084
G3 X1.9801 Y1.8214 I0.0852 J-0.0501
G3 X1.9773 Y1.7883 I0.1832 J-0.0317
G3 X1.9828 Y1.7375 I0.2148 J-0.0027
G3 X2.009 Y1.688 I0.1002 J0.0214
G3 X2.0094 Y1.6877 I0.0113 J0.0108
G3 X2.0286 Y1.6728 I0.0722 J0.0734
G0 Z0.125
G0 X1.7108 Y1.6864
G0 Z0.0625
G1 F4.0 Z-0.02
G3 F8.0 X1.7036 Y1.6709 I0.057 J-0.0359
G3 Y1.6708 I0.0387 J-0.0124
G3 X1.7004 Y1.6565 I0.082 J-0.0259
G1 Y1.6867
G1 X1.7108 Y1.6864
G0 Z0.125
G0 X1.7003 Y1.4071
G0 Z0.0625
G1 F4.0 Z-0.02
G3 F8.0 X1.7049 Y1.3906 I0.0656 J0.0097
G1 X1.6973
G3 X1.6995 Y1.4 I-0.0481 J0.0163
G3 X1.7003 Y1.4071 I-0.0763 J0.0117
G1 F4.0 X1.6878 Y1.4078
G3 F8.0 X1.6879 Y1.4122 I-0.0645 J0.0039
G1 Y1.6995
G1 X1.7403 Y1.698
G3 X1.732 Y1.692 I0.0315 J-0.052
G3 X1.7156 Y1.6671 I0.0358 J-0.0416
G1 X1.7155 Y1.667
G3 X1.7121 Y1.6439 I0.0701 J-0.0222
G1 Y1.4196
G3 X1.7245 Y1.3824 I0.0538 J-0.0028
G3 X1.7263 Y1.3804 I0.0216 J0.018
G3 X1.7288 Y1.3781 I0.0323 J0.0327
G1 X1.6743
G3 X1.6773 Y1.3809 I-0.0177 J0.0219
G3 X1.6871 Y1.4018 I-0.0281 J0.026
G3 X1.6878 Y1.4078 I-0.0639 J0.0099
G1 F4.0 X1.6753 Y1.4086
G3 F8.0 X1.6754 Y1.4122 I-0.0521 J0.0031
G1 Y1.7124
G1 X1.8027 Y1.7087
G1 Y1.6953
G1 X1.7813
G3 X1.7617 Y1.6932 I-0.001 J-0.0854
G3 X1.7402 Y1.6825 I0.0101 J-0.0472
G3 X1.7275 Y1.6633 I0.0276 J-0.0321
G1 X1.7274
G3 X1.7246 Y1.644 I0.0581 J-0.0184
G1 Y1.4193
G3 X1.7341 Y1.3904 I0.0413 J-0.0025
G3 X1.7351 Y1.3893 I0.012 J0.01
G3 X1.7518 Y1.3803 I0.0235 J0.0238
G3 X1.7653 Y1.3789 I0.0128 J0.0576
G1 X1.7949
G1 Y1.3656
G1 X1.6066
G1 Y1.3789
G1 X1.6396
G3 X1.6663 Y1.3877 I0.0012 J0.0413
G3 X1.6681 Y1.3894 I-0.0097 J0.0123
G3 X1.6748 Y1.4036 I-0.0189 J0.0175
G3 X1.6753 Y1.4086 I-0.0515 J0.0081
G0 Z0.125
G0 X1.7101 Y1.8836
G0 Z0.0625
G1 F4.0 Z-0.02
G2 F8.0 X1.7085 Y1.8843 I0.0002 J0.0025
G3 X1.707 Y1.8859 I-0.0335 J-0.0328
G2 X1.7066 Y1.8866 I0.0007 J0.0007
G3 Y1.8873 I-0.0469 J0.0005
G2 X1.7072 Y1.8886 I0.0017 J0.0
G3 X1.7098 Y1.8912 I-0.0318 J0.0344
G2 X1.7111 Y1.8918 I0.0013 J-0.0012
G3 X1.7114 I0.0002 J0.0469
G2 X1.7123 Y1.8914 I0.0 J-0.0013
G3 X1.7147 Y1.889 I0.0346 J0.0317
G2 X1.7152 Y1.8876 I-0.0013 J-0.0014
G3 Y1.8871 I0.0469 J-0.0001
G2 X1.7144 Y1.885 I-0.0029 J0.0
G3 X1.7139 Y1.8845 I0.0329 J-0.0334
G2 X1.7118 Y1.8836 I-0.0021 J0.0021
G3 X1.7104 I-0.0004 J-0.0469
G2 X1.7101 I-0.0001 J0.0025
G1 F4.0 X1.7097 Y1.8774
G2 F8.0 X1.704 Y1.88 I0.0006 J0.0088
G3 X1.7027 Y1.8813 I-0.029 J-0.0284
G2 X1.7004 Y1.8867 I0.005 J0.0053
G3 Y1.8873 I-0.0406 J0.0004
G2 X1.7029 Y1.8932 I0.008 J0.0
G3 X1.7052 Y1.8955 I-0.0276 J0.0298
G2 X1.7111 Y1.898 I0.0058 J-0.0054
G3 X1.7114 I0.0002 J0.0406
G2 X1.7169 Y1.8956 I0.0 J-0.0076
G3 X1.7189 Y1.8935 I0.0299 J0.0274
G2 X1.7215 Y1.8876 I-0.0056 J-0.0059
G3 Y1.8871 I0.0406 J-0.0001
G2 X1.7188 Y1.8805 I-0.0092 J-0.0001
G3 X1.7183 Y1.8801 I0.0285 J-0.0289
G2 X1.7117 Y1.8773 I-0.0065 J0.0064
G3 X1.7105 I-0.0004 J-0.0406
G2 X1.7097 Y1.8774 I-0.0002 J0.0088
G1 F4.0 X1.7088 Y1.8649
G2 F8.0 X1.6951 Y1.8712 I0.0016 J0.0212
G3 X1.6942 Y1.8721 I-0.0201 J-0.0197
G2 X1.6879 Y1.8868 I0.0135 J0.0145
G3 Y1.8873 I-0.0281 J0.0003
G2 X1.6945 Y1.9024 I0.0205 J0.0001
G3 X1.6961 Y1.904 I-0.0191 J0.0207
G2 X1.7112 Y1.9105 I0.015 J-0.0139
G3 X1.7113 I0.0001 J0.0281
G2 X1.7261 Y1.904 I0.0 J-0.0201
G3 X1.7275 Y1.9026 I0.0207 J0.019
G2 X1.734 Y1.8876 I-0.0142 J-0.015
G3 Y1.8872 I0.0281 J-0.0001
G2 X1.7275 Y1.8716 I-0.0217 J-0.0002
G3 X1.7272 Y1.8713 I0.0197 J-0.02
G2 X1.7116 Y1.8648 I-0.0154 J0.0152
G3 X1.7108 I-0.0003 J-0.0281
G2 X1.7088 Y1.8649 I-0.0004 J0.0213
G1 F4.0 X1.7078 Y1.8524
G2 F8.0 X1.6862 Y1.8625 I0.0025 J0.0337
G3 X1.6857 Y1.863 I-0.0112 J-0.0109
G2 X1.6754 Y1.8869 I0.022 J0.0236
G3 Y1.8872 I-0.0156 J0.0002
G2 X1.686 Y1.9116 I0.033 J0.0002
G3 X1.6869 Y1.9124 I-0.0106 J0.0115
G2 X1.7112 Y1.923 I0.0242 J-0.0224
G1 X1.7113
G2 X1.7354 Y1.9125 I0.0 J-0.0326
G3 X1.7361 Y1.9117 I0.0115 J0.0106
G2 X1.7465 Y1.8875 I-0.0228 J-0.0241
G3 Y1.8874 I0.0156 J0.0
G2 X1.7363 Y1.8627 I-0.0342 J-0.0003
G3 X1.7361 Y1.8625 I0.011 J-0.0111
G2 X1.7115 Y1.8523 I-0.0243 J0.024
G3 X1.711 I-0.0001 J-0.0156
G2 X1.7078 Y1.8524 I-0.0007 J0.0338
G0 Z0.125
G0 X1.6038 Y2.0147
G0 Z0.0625
G1 F4.0 Z-0.02
G3 F8.0 X1.6139 Y2.023 I-0.0313 J0.0488
G3 X1.6142 Y2.0232 I-0.0112 J0.0109
G3 X1.6305 Y2.0661 I-0.0439 J0.0413
G3 X1.6157 Y2.1096 I-0.0706 J0.0002
G3 X1.6155 Y2.1098 I-0.0124 J-0.0096
G3 X1.5831 Y2.1367 I-0.0822 J-0.066
G3 X1.5679 Y2.1365 I-0.0074 J-0.0138
G3 X1.5404 Y2.1176 I0.1017 J-0.1775
G3 X1.5164 Y2.0899 I0.062 J-0.078
G3 X1.5163 Y2.0897 I0.0135 J-0.0079
G3 X1.5088 Y2.0622 I0.0502 J-0.0284
G3 X1.5274 Y2.0204 I0.0527 J-0.0016
G3 X1.5487 Y2.0088 I0.0385 J0.0452
G1 X1.5488 Y2.0087
G3 X1.5708 Y2.0056 I0.0215 J0.0723
G3 X1.6038 Y2.0147 I0.0017 J0.0579
G0 Z0.125
G0 X1.5919 Y2.1461
G0 Z0.0625
G1 F4.0 Z-0.02
G3 F8.0 X1.5908 Y2.1467 I-0.0586 J-0.1023
G3 X1.592 Y2.1475 I-0.0529 J0.0843
G3 X1.5919 Y2.1461 I0.028 J-0.0031
G1 F4.0 X1.6044 Y2.1454
G3 F8.0 X1.6121 Y2.131 I0.0156 J-0.0009
G2 X1.6415 Y2.1021 I-0.0431 J-0.0733
G3 X1.6417 Y2.1018 I0.0133 J0.0082
G2 X1.6526 Y2.0657 I-0.0575 J-0.037
G2 X1.6479 Y2.0347 I-0.0961 J-0.0014
G2 X1.6325 Y2.0106 I-0.0546 J0.0181
G2 X1.6051 Y1.9958 I-0.0452 J0.0509
G2 X1.5712 Y1.9915 I-0.0323 J0.119
G3 X1.5708 I-0.0002 J-0.0156
G2 X1.5365 Y1.996 I-0.0014 J0.1218
G2 X1.5083 Y2.0113 I0.0201 J0.0712
G2 X1.4918 Y2.0351 I0.0395 J0.0448
G2 X1.4867 Y2.0657 I0.0815 J0.0293
G2 X1.4904 Y2.0832 I0.0466 J-0.0007
G1 X1.4905 Y2.0833
G2 X1.5004 Y2.1011 I0.0834 J-0.0349
G3 X1.5006 Y2.1014 I-0.0127 J0.0091
G2 X1.5144 Y2.1176 I0.0861 J-0.0589
G1 Y2.1177
G2 X1.5303 Y2.1287 I0.0418 J-0.0432
G3 X1.5311 Y2.1565 I-0.0067 J0.0141
G2 X1.5191 Y2.1659 I0.0231 J0.042
G1 Y2.166
G2 X1.5086 Y2.1796 I0.0655 J0.0613
G3 X1.5085 Y2.1798 I-0.0132 J-0.0083
G2 X1.5008 Y2.1952 I0.0666 J0.0427
G2 X1.498 Y2.2103 I0.0419 J0.0155
G2 X1.5023 Y2.2346 I0.0652 J0.001
G2 X1.5158 Y2.2534 I0.0457 J-0.0184
G1 Y2.2535
G2 X1.54 Y2.2664 I0.0403 J-0.0464
G2 X1.5698 Y2.2701 I0.0285 J-0.1049
G3 X1.5701 I0.0002 J0.0156
G2 X1.5988 Y2.2662 I0.001 J-0.0982
G2 X1.6229 Y2.2532 I-0.0197 J-0.0658
G3 X1.623 I0.01 J0.012
G2 X1.6372 Y2.2345 I-0.0314 J-0.0385
G2 X1.6417 Y2.2105 I-0.0562 J-0.0231
G2 X1.6335 Y2.1819 I-0.0574 J0.0009
G3 X1.6332 Y2.1814 I0.0134 J-0.0081
G2 X1.6112 Y2.1574 I-0.0621 J0.0348
G3 X1.6044 Y2.1454 I0.0088 J-0.0129
G1 F4.0 X1.5913 Y2.1623
G3 F8.0 X1.6031 Y2.1734 I-0.0534 J0.0688
G3 X1.614 Y2.1888 I-0.0533 J0.0495
G3 X1.6196 Y2.2103 I-0.042 J0.0224
G3 X1.6121 Y2.2377 I-0.047 J0.0018
G3 X1.6114 Y2.2387 I-0.0131 J-0.0085
G3 X1.5857 Y2.2545 I-0.0335 J-0.0256
G3 X1.5702 Y2.2561 I-0.0152 J-0.0713
G3 X1.5356 Y2.2446 I-0.002 J-0.0521
G3 X1.5352 Y2.2444 I0.0098 J-0.0122
G3 X1.5203 Y2.2105 I0.0275 J-0.0323
G3 X1.524 Y2.1917 I0.0559 J0.0011
G3 X1.5314 Y2.1765 I0.0825 J0.0311
G3 X1.5422 Y2.1625 I0.0675 J0.0408
G3 X1.5583 Y2.1509 I0.0401 J0.0386
G3 X1.571 Y2.1505 I0.0067 J0.0141
G3 X1.5913 Y2.1623 I-0.0331 J0.0805
G0 Z0.125
G0 X1.2758 Y2.2324
G0 Z0.0625
G1 F4.0 Z-0.02
G3 F8.0 X1.2731 Y2.2251 I0.0535 J-0.0244
G3 X1.2707 Y2.2151 I0.0785 J-0.024
G2 X1.2741 Y2.2289 I0.0534 J-0.0059
G2 X1.2758 Y2.2324 I0.0341 J-0.0145
G1 F4.0 X1.2872 Y2.2272
G3 F8.0 X1.285 Y2.2214 I0.0421 J-0.0192
G3 X1.282 Y2.2003 I0.0665 J-0.0203
G3 X1.2871 Y2.1751 I0.0591 J-0.0012
G3 X1.2873 Y2.1748 I0.0143 J0.0064
G3 X1.3075 Y2.1539 I0.0412 J0.0196
G3 X1.3237 Y2.1482 I0.0284 J0.0546
G3 X1.3359 Y2.1465 I0.019 J0.095
G1 Y2.1335
G3 X1.3163 Y2.1299 I0.0053 J-0.0853
G3 X1.2918 Y2.1158 I0.019 J-0.0612
G3 X1.2766 Y2.0942 I0.04 J-0.0442
G3 X1.2765 Y2.094 I0.0145 J-0.0059
G3 X1.2719 Y2.0691 I0.0619 J-0.0243
G3 X1.2764 Y2.0417 I0.0773 J-0.0013
G3 X1.2765 Y2.0416 I0.0147 J0.0053
G3 X1.2963 Y2.0165 I0.0485 J0.0178
G3 X1.2964 Y2.0164 I0.0087 J0.013
G3 X1.315 Y2.0083 I0.0332 J0.051
G3 X1.3385 Y2.0056 I0.0224 J0.0917
G3 X1.3743 Y2.0146 I-0.0002 J0.0765
G3 X1.3744 I-0.0073 J0.0138
G3 X1.3869 Y2.0226 I-0.0497 J0.0918
G1 X1.396 Y2.0086
G2 X1.3753 Y1.9977 I-0.054 J0.0777
G2 X1.3392 Y1.9915 I-0.0352 J0.0971
G3 X1.3389 I-0.0001 J-0.0156
G2 X1.3017 Y1.996 I-0.0016 J0.1439
G1 X1.3016
G2 X1.2706 Y2.0116 I0.0198 J0.0781
G2 X1.2532 Y2.0351 I0.0373 J0.0457
G2 X1.2478 Y2.0657 I0.0761 J0.0292
G3 Y2.0662 I-0.0156 J0.0003
G2 X1.2531 Y2.0944 I0.0717 J0.0011
G2 X1.2698 Y2.1163 I0.0526 J-0.0228
G2 X1.2867 Y2.1269 I0.0525 J-0.065
G3 X1.2878 Y2.1545 I-0.0067 J0.0141
G2 X1.2653 Y2.1768 I0.0315 J0.0543
G2 X1.2579 Y2.2075 I0.0544 J0.0294
G3 Y2.2081 I-0.0156 J0.0003
G2 X1.2625 Y2.2336 I0.0662 J0.0011
G2 X1.2772 Y2.2531 I0.0456 J-0.0192
G2 X1.3044 Y2.2663 I0.0437 J-0.0548
G1 Y2.2664
G2 X1.3372 Y2.2701 I0.0313 J-0.1274
G1 X1.3373
G2 X1.3721 Y2.2627 I-0.0006 J-0.0876
G3 X1.3723 Y2.2626 I0.0063 J0.0143
G2 X1.3863 Y2.2552 I-0.0357 J-0.0846
G2 X1.3881 Y2.254 I-0.0237 J-0.0374
G1 X1.3804 Y2.2426
G3 X1.3716 Y2.248 I-0.0558 J-0.0804
G3 X1.3408 Y2.2561 I-0.0315 J-0.0578
G3 X1.3098 Y2.25 I-0.0021 J-0.0716
G3 X1.3094 Y2.2498 I0.0063 J-0.0143
G3 X1.2872 Y2.2272 I0.0199 J-0.0418
( Pocket2 )
S10000
G0 Z0.125
G0 X2.3049 Y0.6982
G0 Z0.0625
G1 F4.0 Z-0.02
G1 F8.0 X2.2951
G3 X2.2988 Y0.7073 I-0.0144 J0.0111
G1 X2.3049 Y0.6982
G1 F4.0 Y0.693
G1 F8.0 X2.2239
G1 Y0.6963
G1 X2.2807
G3 X2.2916 Y0.7165 I0.0 J0.013
G1 X2.2535 Y0.7745
G2 X2.2434 Y0.7918 I0.149 J0.0984
G1 X2.2433 Y0.7919
G2 X2.2365 Y0.8094 I0.0816 J0.0421
G2 X2.2349 Y0.8203 I0.0416 J0.0115
G1 Y0.8204
G2 X2.2377 Y0.8351 I0.0374 J0.0006
G2 X2.2461 Y0.846 I0.0259 J-0.0113
G2 X2.2623 Y0.8539 I0.0263 J-0.0333
G1 X2.2624
G2 X2.2826 Y0.8563 I0.0193 J-0.0783
G3 X2.2828 I0.0001 J0.013
G2 X2.3072 Y0.8494 I0.0004 J-0.045
G3 X2.3074 Y0.8492 I0.0069 J0.011
G2 X2.3173 Y0.8411 I-0.0212 J-0.0356
G1 X2.315 Y0.8393
G3 X2.3077 Y0.8458 I-0.0426 J-0.0405
G3 X2.3075 Y0.846 I-0.0078 J-0.0104
G3 X2.2815 Y0.8542 I-0.0257 J-0.0358
G3 X2.2634 Y0.8513 I-0.0011 J-0.0507
G3 X2.2458 Y0.8344 I0.0101 J-0.0282
G3 X2.2457 Y0.8341 I0.012 J-0.0049
G3 X2.2432 Y0.82 I0.0353 J-0.0134
G3 X2.2454 Y0.8048 I0.0588 J0.0007
G3 X2.2502 Y0.7916 I0.0856 J0.0237
G3 X2.2631 Y0.769 I0.1389 J0.0645
G1 X2.3148 Y0.693
G1 X2.3049
G0 Z0.125
G0 X2.1722 Y0.7293
G0 Z0.0625
G1 F4.0 Z-0.02
G2 F8.0 X2.1705 Y0.7238 I-0.1257 J0.0344
G2 X2.1634 Y0.7089 I-0.0603 J0.0196
G2 X2.1471 Y0.6949 I-0.0324 J0.0211
G2 X2.1243 Y0.6905 I-0.0217 J0.0509
G3 X2.1238 I-0.0003 J-0.013
G2 X2.1021 Y0.6955 I-0.0008 J0.0455
G2 X2.0859 Y0.7109 I0.0224 J0.0399
G1 X2.0858
G2 X2.0737 Y0.7406 I0.0734 J0.0472
G2 X2.0704 Y0.7745 I0.1547 J0.0324
G3 Y0.7747 I-0.013 J0.0001
G2 X2.0724 Y0.8042 I0.1966 J0.0013
G1 Y0.8043
G2 X2.0802 Y0.831 I0.0954 J-0.0131
G2 X2.0896 Y0.8446 I0.044 J-0.0205
G2 X2.1085 Y0.8548 I0.0271 J-0.0277
G2 X2.1222 Y0.8563 I0.0132 J-0.0589
G3 X2.1225 I0.0001 J0.013
G2 X2.1444 Y0.8511 I0.0007 J-0.046
G2 X2.1613 Y0.8357 I-0.0244 J-0.0437
G3 X2.1614 Y0.8355 I0.0107 J0.0073
G2 X2.1738 Y0.8089 I-0.0689 J-0.0483
G2 X2.1776 Y0.7787 I-0.1112 J-0.0293
G3 Y0.7786 I0.013 J-0.0001
G2 X2.1761 Y0.7503 I-0.25 J-0.0011
G2 X2.1722 Y0.7293 I-0.1296 J0.0135
G1 F4.0 X2.1654 Y0.7308
G3 F8.0 X2.1657 Y0.7324 I-0.086 J0.0185
G3 X2.1679 Y0.7474 I-0.1517 J0.0304
G1 X2.168
G3 X2.1693 Y0.7764 I-0.2826 J0.0275
G3 X2.168 Y0.8005 I-0.2097 J0.001
G3 X2.1623 Y0.8257 I-0.1062 J-0.0109
G3 X2.152 Y0.843 I-0.0505 J-0.0182
G3 X2.1519 Y0.8432 I-0.0097 J-0.0086
G3 X2.1231 Y0.8556 I-0.0283 J-0.0258
G3 X2.0873 Y0.8338 I-0.0016 J-0.0377
G3 X2.0821 Y0.8183 I0.0593 J-0.0283
G3 X2.0799 Y0.8039 I0.1323 J-0.0276
G1 Y0.8038
G3 X2.0787 Y0.7762 I0.2737 J-0.026
G3 X2.0793 Y0.754 I0.3405 J-0.0009
G3 X2.0822 Y0.7311 I0.1723 J0.01
G3 X2.0874 Y0.7145 I0.0727 J0.0138
G3 X2.1028 Y0.6969 I0.0367 J0.0166
G3 X2.1033 Y0.6967 I0.0069 J0.011
G3 X2.1251 Y0.6911 I0.021 J0.0369
G3 X2.1478 Y0.6985 I0.0006 J0.0366
G3 X2.1483 Y0.6989 I-0.0078 J0.0104
G3 X2.1612 Y0.7169 I-0.0278 J0.0335
G3 X2.1654 Y0.7308 I-0.0818 J0.0324
G0 Z0.125
G0 X2.0091 Y0.7881
G0 Z0.0625
G1 F4.0 Z-0.02
G3 F8.0 X2.0104 Y0.7924 I-0.0412 J0.0151
G3 X2.0124 Y0.8086 I-0.0612 J0.0156
G3 X2.0105 Y0.8242 I-0.0629 J0.0006
G3 X2.0026 Y0.8405 I-0.0415 J-0.0102
G3 X1.9735 Y0.8542 I-0.0282 J-0.022
G3 X1.9542 Y0.8503 I-0.0008 J-0.0456
G3 X1.9539 Y0.8501 I0.0053 J-0.0119
G3 X1.9376 Y0.8344 I0.0153 J-0.0321
G3 X1.9332 Y0.8219 I0.0422 J-0.0219
G1 Y0.8218
G3 X1.9318 Y0.8068 I0.0727 J-0.0146
G3 X1.9359 Y0.7841 I0.0566 J-0.0014
G3 X1.936 Y0.7839 I0.012 J0.0049
G3 X1.957 Y0.7645 I0.0322 J0.0138
G3 X1.9732 Y0.762 I0.0155 J0.0467
G3 X2.0022 Y0.7759 I0.0004 J0.0362
G3 X2.0091 Y0.7881 I-0.0343 J0.0273
G0 Z0.125
G0 X1.9434 Y0.7661
G0 Z0.0625
G1 F4.0 Z-0.02
G3 F8.0 X1.9355 Y0.7553 I0.0098 J-0.0153
G2 X1.9345 Y0.7578 I0.1186 J0.0503
G2 X1.9287 Y0.7877 I0.0764 J0.0304
G2 Y0.7894 I0.1352 J0.0012
G3 X1.9311 Y0.7822 I0.0597 J0.016
G3 X1.9312 Y0.7819 I0.0168 J0.0068
G3 X1.9434 Y0.7661 I0.037 J0.0158
G1 F4.0 X1.9462 Y0.7617
G3 F8.0 X1.9414 Y0.7452 I0.007 J-0.011
G3 X1.9668 Y0.7092 I0.1129 J0.0527
G1 X1.9669 Y0.7091
G3 X1.9873 Y0.6923 I0.1089 J0.1114
G1 X1.9864 Y0.6913
G2 X1.9677 Y0.7026 I0.0239 J0.0611
G1 X1.9676
G2 X1.9463 Y0.7261 I0.0808 J0.0951
G3 X1.9461 Y0.7263 I-0.0106 J-0.0075
G2 X1.9297 Y0.7559 I0.108 J0.0793
G2 X1.9235 Y0.7876 I0.0812 J0.0323
G2 X1.9258 Y0.8141 I0.1404 J0.0012
G3 Y0.8142 I-0.0128 J0.0023
G2 X1.9342 Y0.8369 I0.0661 J-0.0115
G2 X1.9439 Y0.8475 I0.0332 J-0.0205
G2 X1.9625 Y0.8552 I0.0255 J-0.0355
G3 X1.9627 I-0.002 J0.0128
G2 X1.9754 Y0.8563 I0.0124 J-0.0725
G3 X1.9758 I0.0001 J0.013
G2 X2.0072 Y0.8432 I0.0011 J-0.0415
G2 X2.017 Y0.8272 I-0.0313 J-0.03
G2 X2.02 Y0.8075 I-0.0574 J-0.019
G3 Y0.8072 I0.013 J-0.0002
G2 X2.0171 Y0.7876 I-0.0615 J-0.0008
G2 X2.0077 Y0.7723 I-0.0376 J0.0124
G1 Y0.7722
G2 X1.9932 Y0.7629 I-0.0279 J0.0273
G2 X1.975 Y0.7599 I-0.0175 J0.0499
G3 X1.9748 I-0.0002 J-0.013
G2 X1.9657 Y0.7606 I-0.0003 J0.0588
G2 X1.9583 Y0.7626 I0.0042 J0.0288
G3 X1.9462 Y0.7617 I-0.0052 J-0.0119
G0 Z0.125
G0 X1.8545 Y0.6992
G0 Z0.0625
G1 F4.0 Z-0.02
G2 F8.0 X1.8551 Y0.697 I-0.0031 J-0.0021
G3 Y0.6963 I0.0182 J-0.0004
G2 X1.8539 Y0.6933 I-0.0042 J-0.0001
G3 X1.8536 Y0.693 I0.0128 J-0.0129
G2 X1.8507 Y0.6919 I-0.0028 J0.0027
G3 X1.8501 Y0.6918 I-0.0003 J-0.0182
G2 X1.8475 Y0.6929 I-0.0001 J0.0035
G3 X1.847 Y0.6934 I-0.0132 J-0.0126
G2 X1.8458 Y0.6963 I0.0027 J0.0028
G3 Y0.697 I-0.0182 J0.0003
G2 X1.8469 Y0.6996 I0.0035 J0.0001
G3 X1.8475 Y0.7002 I-0.0126 J0.0132
G2 X1.8501 Y0.7013 I0.0026 J-0.0024
G3 X1.8507 I0.0003 J0.0182
G2 X1.8536 Y0.7001 I0.0001 J-0.0039
G3 X1.854 Y0.6997 I0.0131 J0.0127
G2 X1.8545 Y0.6992 I-0.0026 J-0.0027
G1 F4.0 X1.8588 Y0.7021
G2 F8.0 X1.8603 Y0.6969 I-0.0074 J-0.005
G3 Y0.6964 I0.013 J-0.0003
G2 X1.8575 Y0.6896 I-0.0094 J-0.0002
G3 X1.8574 Y0.6894 I0.0092 J-0.0092
G2 X1.8507 Y0.6867 I-0.0066 J0.0064
G3 X1.8502 I-0.0002 J-0.013
G2 X1.8437 Y0.6894 I-0.0002 J0.0087
G3 X1.8434 Y0.6897 I-0.0094 J-0.009
G2 X1.8406 Y0.6964 I0.0064 J0.0066
G3 Y0.6969 I-0.013 J0.0002
G2 X1.8433 Y0.7033 I0.0087 J0.0002
G3 X1.8437 Y0.7038 I-0.009 J0.0094
G2 X1.8502 Y0.7065 I0.0063 J-0.006
G3 X1.8507 I0.0002 J0.013
G2 X1.8574 Y0.7037 I0.0001 J-0.0091
G3 X1.8576 Y0.7035 I0.0093 J0.009
G2 X1.8588 Y0.7021 I-0.0062 J-0.0064
G0 Z0.125
G0 X1.7715 Y0.7274
G0 Z0.0625
G1 F4.0 Z-0.02
G2 F8.0 X1.7703 Y0.7238 I-0.1252 J0.0363
G2 X1.7632 Y0.7089 I-0.0603 J0.0196
G2 X1.747 Y0.6949 I-0.0324 J0.0211
G2 X1.7241 Y0.6905 I-0.0217 J0.0509
G3 X1.7236 I-0.0003 J-0.013
G2 X1.7019 Y0.6955 I-0.0008 J0.0455
G2 X1.6857 Y0.7109 I0.0224 J0.0399
G2 X1.6736 Y0.7406 I0.0734 J0.0472
G2 X1.6702 Y0.7745 I0.1547 J0.0324
G3 Y0.7747 I-0.013 J0.0001
G2 X1.6723 Y0.8042 I0.1966 J0.0013
G1 Y0.8043
G2 X1.68 Y0.831 I0.0954 J-0.0131
G2 X1.6895 Y0.8446 I0.044 J-0.0205
G2 X1.7083 Y0.8548 I0.0271 J-0.0277
G1 X1.7084
G2 X1.722 Y0.8563 I0.0132 J-0.0589
G3 X1.7223 I0.0001 J0.013
G2 X1.7442 Y0.8511 I0.0007 J-0.046
G2 X1.7611 Y0.8357 I-0.0244 J-0.0437
G3 X1.7612 Y0.8355 I0.0107 J0.0073
G2 X1.7736 Y0.8089 I-0.0689 J-0.0483
G2 X1.7774 Y0.7787 I-0.1112 J-0.0293
G3 Y0.7786 I0.013 J-0.0001
G2 X1.7759 Y0.7503 I-0.25 J-0.0011
G2 X1.7715 Y0.7274 I-0.1296 J0.0135
G1 F4.0 X1.7648 Y0.729
G3 F8.0 X1.7655 Y0.7324 I-0.0856 J0.0203
G3 X1.7678 Y0.7474 I-0.1517 J0.0304
G3 X1.7691 Y0.7764 I-0.2826 J0.0275
G3 X1.7679 Y0.8005 I-0.2097 J0.001
G3 X1.7621 Y0.8257 I-0.1062 J-0.0109
G3 X1.7519 Y0.843 I-0.0505 J-0.0182
G3 X1.7517 Y0.8432 I-0.0097 J-0.0086
G3 X1.7229 Y0.8556 I-0.0283 J-0.0258
G3 X1.6871 Y0.8338 I-0.0016 J-0.0377
G3 X1.6819 Y0.8183 I0.0593 J-0.0283
G3 X1.6797 Y0.8039 I0.1323 J-0.0276
G1 Y0.8038
G3 X1.6785 Y0.7762 I0.2737 J-0.026
G3 X1.6792 Y0.754 I0.3405 J-0.0009
G3 X1.6821 Y0.7311 I0.1723 J0.01
G3 X1.6873 Y0.7145 I0.0727 J0.0138
G3 X1.7027 Y0.6969 I0.0367 J0.0166
G3 X1.7031 Y0.6967 I0.0069 J0.011
G3 X1.7249 Y0.6911 I0.021 J0.0369
G3 X1.7476 Y0.6985 I0.0006 J0.0366
G3 X1.7481 Y0.6989 I-0.0078 J0.0104
G3 X1.761 Y0.7169 I-0.0278 J0.0335
G3 X1.7648 Y0.729 I-0.0818 J0.0324
( Pocket4 )
S10000
G0 Z0.125
G0 X2.6105 Y1.1909
G0 Z0.0625
G1 F4.0 Z-0.02
G1 F8.0 Y1.1886
G3 X2.6092 Y1.1909 I-0.0224 J-0.0117
G1 X2.6105
G0 Z0.125
G0 Y1.1105
G0 Z0.0625
G1 F4.0 Z-0.02
G1 F8.0 Y1.0947
G3 X2.604 Y1.1026 I-0.0224 J-0.0117
G3 X2.6105 Y1.1105 I-0.0159 J0.0197
G0 Z0.125
G0 X2.5197 Y1.1026
G0 Z0.0625
G1 F4.0 Z-0.02
G3 F8.0 X2.5159 Y1.1022 I0.0267 J-0.3235
G3 X2.5026 Y1.0997 I0.007 J-0.0737
G3 X2.5034 Y1.1068 I-0.0199 J0.0058
G3 X2.5042 Y1.1064 I0.0185 J0.0438
G1 X2.5043
G3 X2.5197 Y1.1026 I0.0222 J0.0556
G0 Z0.125
G0 X2.4748 Y1.0795
G0 Z0.0625
G1 F4.0 Z-0.02
G3 F8.0 X2.4666 Y1.0509 I0.0434 J-0.0279
G3 X2.4782 Y1.0173 I0.05 J-0.0015
G3 X2.4787 Y1.0167 I0.0159 J0.0132
G3 X2.5025 Y1.002 I0.0372 J0.0336
G2 X2.4996 Y1.0022 I0.0291 J0.4237
G2 X2.4777 Y1.0098 I0.004 J0.0471
G2 X2.4642 Y1.026 I0.0247 J0.0343
G3 X2.464 Y1.0264 I-0.0187 J-0.0089
G2 X2.4587 Y1.0486 I0.0441 J0.0223
G3 Y1.0489 I-0.0207 J-0.0001
G2 X2.466 Y1.0715 I0.0362 J0.0007
G2 X2.4748 Y1.0795 I0.0277 J-0.0214
G0 Z0.125
G0 X2.4772 Y1.1357
G0 Z0.0625
G1 F4.0 Z-0.02
G2 F8.0 X2.4761 Y1.1374 I0.0277 J0.0201
G3 X2.4759 Y1.1377 I-0.0175 J-0.0111
G2 X2.4703 Y1.1566 I0.0284 J0.0187
G3 Y1.1571 I-0.0207 J0.0001
G2 X2.4747 Y1.1739 I0.0324 J0.0005
G3 X2.4748 Y1.1741 I-0.0179 J0.0104
G2 X2.4867 Y1.187 I0.0342 J-0.0195
G2 X2.5028 Y1.1933 I0.022 J-0.0326
G1 X2.5029 Y1.1934
G2 X2.5047 Y1.1936 I0.0237 J-0.1506
G3 X2.5023 Y1.1927 I0.0191 J-0.0525
G3 X2.4865 Y1.1813 I0.0166 J-0.0396
G3 X2.4864 Y1.1812 I0.0156 J-0.0136
G3 X2.4753 Y1.15 I0.0351 J-0.0301
G3 X2.4772 Y1.1357 I0.0458 J-0.001
G0 Z0.125
G0 X2.6105 Y1.0081
G0 Z0.0625
G1 F4.0 Z-0.02
G1 F8.0 Y1.0053
G1 X2.6088
G3 X2.6105 Y1.0081 I-0.0207 J0.0145
G1 F4.0 X2.6151
G1 F8.0 Y1.0007
G1 X2.5961
G3 X2.6088 Y1.0198 I-0.0079 J0.0191
G1 Y1.083
G3 X2.5946 Y1.1026 I-0.0207 J0.0
G3 X2.6088 Y1.1223 I-0.0064 J0.0197
G1 Y1.1769
G3 X2.5971 Y1.1955 I-0.0207 J0.0
G1 X2.6151
G1 Y1.0081
G1 F4.0 X2.6243
G1 F8.0 Y0.9915
G1 X2.5555
G2 X2.5269 Y0.9919 I0.0151 J2.3267
G1 X2.5268
G2 X2.4988 Y0.9931 I0.0048 J0.4339
G2 X2.4725 Y1.0022 I0.0048 J0.0562
G2 X2.4559 Y1.022 I0.0299 J0.0419
G3 X2.4558 Y1.0223 I-0.0104 J-0.0049
G2 X2.4495 Y1.0485 I0.0523 J0.0265
G3 Y1.0487 I-0.0115 J0.0
G2 X2.4587 Y1.0771 I0.0454 J0.0009
G2 X2.4704 Y1.0877 I0.035 J-0.027
G2 X2.4859 Y1.0945 I0.0321 J-0.0524
G3 X2.4874 Y1.116 I-0.0031 J0.0111
G2 X2.4683 Y1.1325 I0.0175 J0.0397
G3 X2.4682 Y1.1326 I-0.0097 J-0.0062
G2 X2.4611 Y1.1567 I0.036 J0.0238
G3 Y1.1569 I-0.0115 J0.0001
G2 X2.4667 Y1.1785 I0.0416 J0.0006
G3 X2.4668 Y1.1786 I-0.0099 J0.0058
G2 X2.4815 Y1.1946 I0.0422 J-0.024
G2 X2.5014 Y1.2024 I0.0272 J-0.0402
G1 X2.5015
G2 X2.5209 Y1.2043 I0.0251 J-0.1597
G1 X2.521
G2 X2.5414 Y1.2047 I0.0193 J-0.4532
G1 X2.6243
G1 Y1.0081
G0 Z0.125
G0 X2.5991 Y1.0163
G0 Z0.0625
G1 F4.0 Z-0.02
G3 F8.0 X2.5996 Y1.0198 I-0.0109 J0.0035
G1 Y1.083
G3 X2.5881 Y1.0945 I-0.0115 J0.0
G1 X2.5497
G3 X2.5167 Y1.0931 I-0.0033 J-0.3154
G3 X2.5041 Y1.0906 I0.0062 J-0.0645
G1 X2.504
G3 X2.4831 Y1.0755 I0.0121 J-0.0389
G3 X2.4828 Y1.0751 I0.0093 J-0.0067
G3 X2.4758 Y1.0508 I0.0353 J-0.0235
G3 X2.4852 Y1.0232 I0.0408 J-0.0015
G3 X2.4855 Y1.0229 I0.0088 J0.0074
G3 X2.5095 Y1.0099 I0.0304 J0.0274
G3 X2.5096 I0.0018 J0.0114
G3 X2.5274 Y1.0085 I0.0191 J0.1318
G3 X2.544 Y1.0083 I0.0156 J0.6157
G1 X2.5881
G3 X2.5991 Y1.0163 I0.0 J0.0115
G0 Z0.125
G0 X2.5893 Y1.1108
G0 Z0.0625
G1 F4.0 Z-0.02
G3 F8.0 X2.5996 Y1.1223 I-0.0012 J0.0114
G1 Y1.1769
G3 X2.5881 Y1.1884 I-0.0115 J0.0
G1 X2.5607
G3 X2.5403 Y1.1883 I-0.0016 J-1.7778
G3 X2.5192 Y1.1876 I0.0005 J-0.318
G3 X2.5187 Y1.1875 I0.0008 J-0.0115
G3 X2.5058 Y1.1842 I0.0051 J-0.0464
G3 X2.4934 Y1.1753 I0.013 J-0.0311
G3 Y1.1752 I0.0087 J-0.0076
G3 X2.4845 Y1.15 I0.0281 J-0.0241
G3 X2.4948 Y1.1234 I0.0366 J-0.001
G3 X2.495 Y1.1233 I0.0082 J0.008
G3 X2.5077 Y1.115 I0.0269 J0.0273
G3 X2.521 Y1.1117 I0.0188 J0.0471
G3 X2.5213 Y1.1116 I0.0012 J0.0114
G3 X2.5394 Y1.1109 I0.019 J0.244
G3 X2.5569 Y1.1108 I0.0159 J1.1916
G1 X2.5881
G3 X2.5893 I0.0 J0.0115
G0 Z0.125
G0 X2.3773
G0 Z0.0625
G1 F4.0 Z-0.02
G1 F8.0 Y1.0007
G1 X2.3734
G1 Y1.1304
G1 X2.3773
G1 Y1.1108
G1 F4.0 X2.3865
G1 F8.0 Y0.9915
G1 X2.3642
G1 Y1.1396
G1 X2.3865
G1 Y1.1108
G0 Z0.125
G0 X2.3773 Y1.195
G0 Z0.0625
G1 F4.0 Z-0.02
G1 F8.0 X2.3734
G1 Y1.1955
G1 X2.3773
G1 Y1.195
G1 F4.0 Y1.1858
G1 F8.0 X2.3642
G1 Y1.2047
G1 X2.3865
G1 Y1.1858
G1 X2.3773
G0 Z0.125
G0 X2.2946 Y1.1089
G0 Z0.0625
G1 F4.0 Z-0.02
G2 F8.0 X2.2953 Y1.1027 I-0.0261 J-0.0059
G3 Y1.1021 I0.0207 J-0.0002
G2 X2.2926 Y1.0902 I-0.0258 J-0.0005
G2 X2.2846 Y1.0814 I-0.0223 J0.0124
G2 X2.2725 Y1.0758 I-0.0313 J0.0516
G3 X2.2722 Y1.0757 I0.0066 J-0.0196
G2 X2.2561 Y1.0706 I-0.081 J0.2267
G2 X2.2218 Y1.0621 I-0.1629 J0.585
G3 X2.2217 I0.0044 J-0.0202
G3 X2.2121 Y1.0594 I0.0227 J-0.1001
G3 X2.1983 Y1.0522 I0.0124 J-0.0405
G3 X2.196 Y1.0501 I0.0128 J-0.0163
G3 X2.1872 Y1.0274 I0.0238 J-0.0223
G3 X2.189 Y1.0157 I0.0351 J-0.0004
G2 X2.1861 Y1.0204 I0.0307 J0.0224
G2 X2.1831 Y1.0333 I0.0257 J0.0127
G3 Y1.0338 I-0.0207 J0.0002
G2 X2.185 Y1.0445 I0.0291 J0.0005
G2 X2.1898 Y1.0512 I0.0163 J-0.0066
G2 X2.1972 Y1.0559 I0.025 J-0.0314
G3 X2.1974 I-0.009 J0.0186
G2 X2.2077 Y1.0603 I0.0425 J-0.0863
G2 X2.2316 Y1.0671 I0.0686 J-0.1965
G3 X2.2652 Y1.0758 I-0.0917 J0.4197
G3 X2.2799 Y1.0822 I-0.0184 J0.063
G3 X2.2808 Y1.0828 I-0.0104 J0.0179
G3 X2.2946 Y1.1079 I-0.0169 J0.0257
G3 Y1.1082 I-0.0207 J0.0003
G3 Y1.1089 I-0.0314 J0.0
G0 Z0.125
G0 X2.2898 Y1.0128
G0 Z0.0625
G1 F4.0 Z-0.02
G1 F8.0 X2.2904 Y1.0127
G2 X2.2888 Y1.0112 I-0.0317 J0.0315
G3 X2.2898 Y1.0128 I-0.0421 J0.0278
G1 F4.0 X2.282 Y1.0176
G3 F8.0 X2.2828 Y1.0191 I-0.0353 J0.0214
G3 X2.2847 Y1.0229 I-0.0456 J0.0249
G1 X2.3066 Y1.0196
G2 X2.2892 Y0.9998 I-0.0479 J0.0247
G2 X2.2667 Y0.9903 I-0.0359 J0.0535
G1 X2.2666
G2 X2.2404 Y0.9876 I-0.0251 J0.1166
G3 X2.2401 I-0.0001 J-0.0115
G2 X2.2123 Y0.9907 I-0.0014 J0.1156
G1 X2.2122
G2 X2.1894 Y1.0019 I0.0122 J0.0536
G2 X2.1779 Y1.0163 I0.0303 J0.0362
G2 X2.1739 Y1.0334 I0.0339 J0.0168
G3 Y1.0337 I-0.0115 J0.0001
G2 X2.1764 Y1.0478 I0.0383 J0.0006
G2 X2.1839 Y1.0583 I0.0249 J-0.0099
G2 X2.1932 Y1.0642 I0.0308 J-0.0385
G1 X2.1933
G2 X2.2047 Y1.069 I0.0466 J-0.0946
G2 X2.2297 Y1.0761 I0.0716 J-0.2051
G3 X2.2625 Y1.0847 I-0.0897 J0.4108
G3 X2.2752 Y1.0901 I-0.0158 J0.0542
G3 X2.2757 Y1.0904 I-0.0058 J0.0099
G3 X2.2854 Y1.1081 I-0.0119 J0.018
G3 Y1.1083 I-0.0115 J0.0002
G3 X2.2748 Y1.1273 I-0.0222 J0.0
G3 X2.2745 Y1.1274 I-0.006 J-0.0098
G3 X2.2578 Y1.133 I-0.022 J-0.0383
G3 X2.2432 Y1.1339 I-0.0139 J-0.0995
G3 X2.2297 Y1.1327 I-0.0005 J-0.067
G3 X2.215 Y1.1267 I0.0074 J-0.039
G3 X2.2148 Y1.1265 I0.0064 J-0.0096
G3 X2.2039 Y1.1148 I0.0217 J-0.031
G1 X2.184 Y1.1185
G2 X2.198 Y1.1339 I0.041 J-0.0232
G2 X2.2188 Y1.1415 I0.0291 J-0.0475
G3 X2.219 I-0.0017 J0.0114
G2 X2.2439 Y1.1435 I0.0236 J-0.1405
G3 X2.2441 I0.0001 J0.0115
G2 X2.2701 Y1.1409 I0.0014 J-0.1161
G3 X2.2702 Y1.1408 I0.0024 J0.0112
G2 X2.2912 Y1.1309 I-0.0097 J-0.0476
G2 X2.3045 Y1.1026 I-0.0227 J-0.0279
G3 Y1.1023 I0.0115 J-0.0001
G2 X2.3007 Y1.0859 I-0.035 J-0.0006
G2 X2.2895 Y1.0737 I-0.0304 J0.0167
G2 X2.2754 Y1.0671 I-0.0363 J0.0593
G3 X2.2752 Y1.067 I0.0037 J-0.0109
G2 X2.2586 Y1.0617 I-0.084 J0.2354
G2 X2.2238 Y1.0531 I-0.1654 J0.5938
G3 X2.2237 I0.0024 J-0.0112
G3 X2.2149 Y1.0506 I0.0206 J-0.0911
G3 X2.204 Y1.0449 I0.0096 J-0.0318
G3 X2.2027 Y1.0438 I0.0071 J-0.009
G3 X2.1964 Y1.0274 I0.0171 J-0.016
G3 X2.2071 Y1.006 I0.0259 J-0.0004
G3 X2.2073 Y1.0058 I0.0067 J0.0093
G3 X2.2245 Y0.9988 I0.025 J0.0365
G3 X2.2402 Y0.9973 I0.0151 J0.0791
G3 X2.2557 Y0.999 I0.0006 J0.0675
G3 X2.2719 Y1.0064 I-0.0093 J0.0419
G3 X2.2722 Y1.0066 I-0.0068 J0.0093
G3 X2.282 Y1.0176 I-0.0255 J0.0324
G0 Z0.125
G0 X2.1009 Y1.1078
G0 Z0.0625
G1 F4.0 Z-0.02
G3 F8.0 X2.1007 Y1.1084 I-0.0534 J-0.019
G3 X2.1009 Y1.1085 I-0.0162 J0.0194
G1 Y1.1078
G1 F4.0 X2.0965 Y1.1063
G3 F8.0 X2.0951 Y1.11 I-0.0491 J-0.0174
G3 X2.1051 Y1.1278 I-0.0106 J0.0178
G1 Y1.1304
G1 X2.1055
G1 Y1.0007
G1 X2.1016
G1 Y1.0631
G3 X2.101 Y1.0822 I-0.2592 J0.001
G3 X2.0972 Y1.1042 I-0.0993 J-0.0055
G3 X2.0971 Y1.1047 I-0.0199 J-0.0057
G3 X2.0965 Y1.1063 I-0.0496 J-0.0159
G1 F4.0 X2.0879 Y1.1032
G2 F8.0 X2.0883 Y1.1019 I-0.0404 J-0.0144
G2 X2.0884 Y1.1016 I-0.011 J-0.0035
G2 X2.0918 Y1.0816 I-0.0867 J-0.025
G2 X2.0924 Y1.0631 I-0.2494 J-0.0175
G1 Y0.9915
G1 X2.1147
G1 Y1.1396
G1 X2.0959
G1 Y1.1278
G2 X2.0795 Y1.1174 I-0.0115 J0.0
G2 X2.0879 Y1.1032 I-0.032 J-0.0285
G0 Z0.125
G0 X1.9998 Y1.1091
G0 Z0.0625
G1 F4.0 Z-0.02
G3 F8.0 X1.9987 Y1.1023 I0.066 J-0.0147
G3 X1.998 Y1.1046 I-0.101 J-0.0272
G3 X1.9972 Y1.107 I-0.0553 J-0.0162
G3 X1.9998 Y1.1091 I-0.0145 J0.0207
G1 F4.0 X1.9967 Y1.1125
G3 F8.0 X2.001 Y1.118 I-0.014 J0.0153
G2 X2.0126 Y1.1301 I0.0277 J-0.0149
G2 X2.0197 Y1.1329 I0.0171 J-0.0328
G3 X2.0053 Y1.1118 I0.0251 J-0.0327
G3 X2.0052 Y1.1117 I0.0199 J-0.0058
G3 X2.0031 Y1.1 I0.0606 J-0.0174
G3 X2.0024 Y1.0909 I0.1599 J-0.0164
G3 X2.002 Y1.0737 I0.3614 J-0.0161
G1 Y1.0007
G1 X1.9981
G1 Y1.0621
G3 X1.9975 Y1.0814 I-0.2429 J0.001
G3 X1.9936 Y1.1033 I-0.0998 J-0.0063
G3 X1.9916 Y1.109 I-0.0508 J-0.0149
G3 X1.9967 Y1.1125 I-0.0088 J0.0187
G0 Z0.125
G0 X1.9172 Y1.1327
G0 Z0.0625
G1 F4.0 Z-0.02
G3 F8.0 X1.9071 Y1.122 I0.0252 J-0.0339
G3 X1.9063 Y1.1207 I0.0173 J-0.0114
G3 X1.9013 Y1.1066 I0.0403 J-0.0224
G3 X1.8998 Y1.0963 I0.095 J-0.0189
G3 X1.8991 Y1.0777 I0.2014 J-0.0174
G1 Y1.0007
G1 X1.8952
G1 Y1.0894
G3 Y1.0895 I-0.0207 J0.0
G2 X1.8959 Y1.1054 I0.1592 J0.0009
G3 Y1.1058 I-0.0206 J0.002
G2 X1.8984 Y1.1173 I0.0428 J-0.0033
G2 X1.9091 Y1.1294 I0.0237 J-0.0101
G2 X1.9172 Y1.1327 I0.0163 J-0.0279
G1 F4.0 X1.9227 Y1.1254
G3 F8.0 X1.9148 Y1.117 I0.0197 J-0.0265
G3 X1.9144 Y1.1163 I0.0096 J-0.0063
G3 X1.9103 Y1.1049 I0.0323 J-0.0179
G3 X1.909 Y1.0955 I0.086 J-0.0172
G3 X1.9083 Y1.0778 I0.1923 J-0.0166
G1 Y0.9915
G1 X1.886
G1 Y1.0894
G1 Y1.0895
G2 X1.8867 Y1.1063 I0.1684 J0.0009
G3 Y1.1065 I-0.0114 J0.0011
G2 X1.8899 Y1.1206 I0.052 J-0.004
G2 X1.9045 Y1.1373 I0.0323 J-0.0135
G2 X1.9165 Y1.142 I0.0209 J-0.0358
G2 X1.9305 Y1.1435 I0.0135 J-0.0619
G3 X1.9306 I0.0001 J0.0115
G2 X1.953 Y1.1381 I0.0002 J-0.0482
G2 X1.9737 Y1.1206 I-0.0325 J-0.0596
G3 X1.9929 Y1.1223 I0.009 J0.0071
G2 X2.0082 Y1.1382 I0.0358 J-0.0192
G2 X2.0308 Y1.1435 I0.0215 J-0.0408
G3 X2.0312 I0.0003 J0.0115
G2 X2.0555 Y1.1375 I0.0004 J-0.0509
G2 X2.0735 Y1.1229 I-0.0328 J-0.0589
G3 X2.0718 Y1.1242 I-0.026 J-0.0341
G3 X2.0717 I-0.0065 J-0.0095
G3 X2.0466 Y1.1318 I-0.0249 J-0.0369
G3 X2.0266 Y1.1266 I-0.0014 J-0.0352
G3 X2.0259 Y1.1261 I0.0061 J-0.0098
G3 X2.0141 Y1.1092 I0.0189 J-0.0258
G3 X2.0122 Y1.0991 I0.0518 J-0.0148
G3 X2.0116 Y1.0905 I0.1507 J-0.0156
G3 X2.0112 Y1.0738 I0.3522 J-0.0157
G1 Y0.9915
G1 X1.9889
G1 Y1.0622
G3 X1.9883 Y1.0807 I-0.2337 J0.001
G3 X1.9848 Y1.1007 I-0.0906 J-0.0056
G3 X1.9684 Y1.1239 I-0.042 J-0.0123
G3 X1.9441 Y1.1318 I-0.0247 J-0.0344
G3 X1.9227 Y1.1254 I-0.0017 J-0.033
G0 Z0.125
G0 X1.8096
G0 Z0.0625
G1 F4.0 Z-0.02
G1 F8.0 Y1.0428
G3 Y1.0427 I0.0207 J0.0
G2 X1.8086 Y1.0263 I-0.1219 J-0.0007
G3 Y1.0261 I0.0205 J-0.0027
G2 X1.8052 Y1.0132 I-0.0484 J0.0058
G2 X1.7946 Y1.002 I-0.0219 J0.01
G3 X1.7945 Y1.0019 I0.0097 J-0.0183
G2 X1.7851 Y0.9982 I-0.0201 J0.0371
G3 X1.7856 Y0.9986 I-0.0117 J0.0171
G3 X1.8024 Y1.0221 I-0.0269 J0.0369
G3 X1.8028 Y1.0235 I-0.0198 J0.006
G3 X1.8048 Y1.0379 I-0.0827 J0.019
G3 X1.8054 Y1.0497 I-0.292 J0.0207
G3 X1.8057 Y1.0725 I-0.7154 J0.0213
G1 Y1.1304
G1 X1.8096
G1 Y1.1254
G1 F4.0 X1.8188
G1 F8.0 Y1.0428
G2 X1.8177 Y1.0251 I-0.1311 J-0.0008
G3 Y1.025 I0.0114 J-0.0015
G2 X1.8137 Y1.0095 I-0.0576 J0.0069
G2 X1.799 Y0.9939 I-0.0303 J0.0136
G1 X1.7989 Y0.9938
G2 X1.7736 Y0.9876 I-0.0245 J0.0452
G3 X1.7734 I-0.0002 J-0.0115
G2 X1.7467 Y0.9942 I-0.0001 J0.0569
G3 X1.7466 Y0.9943 I-0.0054 J-0.0102
G2 X1.7304 Y1.0067 I0.0245 J0.0485
G3 X1.7566 Y0.9991 I0.0258 J0.0398
G3 X1.7798 Y1.0057 I0.0012 J0.04
G3 X1.7802 Y1.006 I-0.0063 J0.0096
G3 X1.7936 Y1.0248 I-0.0215 J0.0295
G3 X1.7938 Y1.0256 I-0.011 J0.0034
G3 X1.7957 Y1.0385 I-0.0737 J0.017
G3 X1.7962 Y1.0499 I-0.2828 J0.0201
G3 X1.7965 Y1.0725 I-0.7062 J0.0211
G1 Y1.1396
G1 X1.8188
G1 Y1.1254
G0 Z0.125
G0 X1.6993
G0 Z0.0625
G1 F4.0 Z-0.02
G1 F8.0 Y1.079
G3 X1.7006 Y1.0424 I0.3978 J-0.0038
G3 X1.7035 Y1.0268 I0.0767 J0.0061
G3 X1.704 Y1.0254 I0.0199 J0.0058
G3 X1.7051 Y1.0227 I0.0502 J0.0189
G3 X1.696 Y1.0056 I0.0117 J-0.0171
G1 Y1.0007
G1 X1.6954
G1 Y1.1304
G1 X1.6993
G1 Y1.1254
G1 F4.0 X1.7085
G1 F8.0 Y1.1396
G1 X1.6862
G1 Y0.9915
G1 X1.7052
G1 Y1.0056
G2 X1.7192 Y1.0168 I0.0115 J0.0
G2 X1.7126 Y1.0286 I0.0349 J0.0275
G2 X1.7123 Y1.0294 I0.0108 J0.0041
G2 X1.7098 Y1.0432 I0.065 J0.0191
G2 X1.7085 Y1.079 I0.3873 J0.0321
G1 Y1.1254
G0 Z0.125
G0 X1.608 Y1.1331
G0 Z0.0625
G1 F4.0 Z-0.02
G3 F8.0 X1.603 Y1.1262 I0.0177 J-0.018
G3 X1.598 Y1.1331 I-0.0227 J-0.0111
G3 X1.603 Y1.14 I-0.0177 J0.018
G3 X1.608 Y1.1331 I0.0227 J0.0111
G1 F4.0 X1.6112 Y1.1364
G3 F8.0 X1.6155 Y1.1331 I0.0145 J0.0148
G3 X1.605 Y1.115 I0.0101 J-0.018
G1 Y1.0404
G2 X1.6048 Y1.025 I-0.5132 J-0.0009
G3 Y1.0248 I0.0207 J-0.0006
G2 X1.6037 Y1.0114 I-0.1076 J0.0016
G3 Y1.0111 I0.0205 J-0.0029
G2 X1.601 Y1.0028 I-0.0232 J0.0029
G2 X1.5961 Y0.9995 I-0.0097 J0.0091
G3 X1.5959 Y0.9994 I0.0074 J-0.0193
G2 X1.5838 Y0.9969 I-0.0136 J0.0346
G3 X1.587 Y0.9988 I-0.0158 J0.03
G3 X1.5873 Y0.999 I-0.0116 J0.0171
G3 X1.5993 Y1.0158 I-0.0179 J0.0255
G3 X1.6 Y1.0191 I-0.0199 J0.0058
G3 X1.6009 Y1.0336 I-0.1234 J0.0145
G3 Y1.0461 I-0.6998 J0.0115
G1 Y1.115
G3 X1.5904 Y1.1331 I-0.0207 J0.0
G3 X1.6009 Y1.1511 I-0.0101 J0.018
G1 Y1.1756
G1 X1.605 Y1.1732
G1 Y1.1511
G3 X1.6112 Y1.1364 I0.0207 J0.0
G1 F4.0 X1.6176 Y1.1429
G3 F8.0 X1.6257 Y1.1396 I0.0081 J0.0082
G1 X1.635
G1 Y1.1265
G1 X1.6257
G3 X1.6142 Y1.115 I0.0 J-0.0115
G1 Y1.0404
G2 X1.614 Y1.0248 I-0.5224 J-0.0009
G3 Y1.0246 I0.0115 J-0.0003
G2 X1.6129 Y1.0101 I-0.1168 J0.0018
G3 X1.6128 Y1.01 I0.0114 J-0.0016
G2 X1.6085 Y0.9974 I-0.0323 J0.0041
G2 X1.5993 Y0.9909 I-0.0172 J0.0145
G3 X1.5992 I0.0041 J-0.0107
G2 X1.5815 Y0.9876 I-0.017 J0.0432
G3 X1.5812 I-0.0002 J-0.0115
G2 X1.558 Y0.9907 I-0.0013 J0.0788
G1 X1.5594 Y1.0031
G3 X1.5673 Y1.0022 I0.0097 J0.0491
G3 X1.5674 I0.0004 J0.0115
G3 X1.5819 Y1.0064 I0.0007 J0.0247
G3 X1.582 Y1.0065 I-0.0064 J0.0095
G3 X1.5905 Y1.0184 I-0.0127 J0.018
G3 X1.5909 Y1.0202 I-0.011 J0.0032
G3 X1.5917 Y1.0337 I-0.1143 J0.0135
G3 Y1.0461 I-0.6906 J0.0114
G1 Y1.115
G3 X1.5802 Y1.1265 I-0.0115 J0.0
G1 X1.5608
G1 Y1.1396
G1 X1.5802
G3 X1.5917 Y1.1511 I0.0 J0.0115
G1 Y1.1916
G1 X1.6142 Y1.1785
G1 Y1.1511
G3 X1.6176 Y1.1429 I0.0115 J0.0
G0 Z0.125
G0 X1.4928 Y1.1138
G0 Z0.0625
G1 F4.0 Z-0.02
G1 F8.0 Y1.1063
G1 X1.4927
G3 Y1.1065 I-0.024 J-0.008
G3 X1.4907 Y1.1115 I-0.0543 J-0.0186
G3 X1.4928 Y1.1138 I-0.0179 J0.0179
G1 F4.0 X1.4891 Y1.1167
G3 F8.0 X1.4935 Y1.1294 I-0.0163 J0.0127
G1 Y1.1955
G1 X1.4974
G1 Y1.0007
G1 X1.4935
G1 Y1.0657
G3 X1.4927 Y1.084 I-0.1877 J0.0009
G3 X1.4884 Y1.1048 I-0.0886 J-0.0073
G3 X1.4883 Y1.105 I-0.0196 J-0.0066
G3 X1.485 Y1.1127 I-0.0499 J-0.0171
G3 X1.4891 Y1.1167 I-0.0122 J0.0167
G1 F4.0 X1.4819 Y1.1223
G2 F8.0 X1.4695 Y1.1183 I-0.0091 J0.0071
G2 X1.4796 Y1.102 I-0.0311 J-0.0305
G1 X1.4797 Y1.1019
G2 X1.4835 Y1.0832 I-0.0756 J-0.0253
G2 X1.4843 Y1.0657 I-0.1778 J-0.0166
G1 Y0.9915
G1 X1.5066
G1 Y1.2047
G1 X1.4843
G1 Y1.1294
G2 X1.4819 Y1.1223 I-0.0115 J0.0
G0 Z0.125
G0 X1.4067 Y1.1325
G0 Z0.0625
G1 F4.0 Z-0.02
G3 F8.0 X1.3905 Y1.1114 I0.0241 J-0.0352
G3 X1.3903 Y1.1105 I0.0195 J-0.0068
G3 X1.3879 Y1.0981 I0.0598 J-0.0179
G3 X1.3872 Y1.0885 I0.1694 J-0.0172
G3 X1.3868 Y1.0704 I0.3878 J-0.017
G1 Y1.0007
G1 X1.3829
G1 Y1.0804
G2 X1.3833 Y1.0964 I0.2902 J0.0009
G3 Y1.0966 I-0.0207 J0.0011
G2 X1.385 Y1.1103 I0.0924 J-0.0039
G2 X1.3901 Y1.1222 I0.0307 J-0.0063
G2 X1.4003 Y1.1301 I0.02 J-0.0151
G3 X1.4007 Y1.1303 I-0.0081 J0.0191
G2 X1.4067 Y1.1325 I0.0188 J-0.0419
G1 F4.0 X1.4042 Y1.1413
G2 F8.0 X1.4202 Y1.1435 I0.0153 J-0.053
G3 X1.4205 I0.0002 J0.0115
G2 X1.4443 Y1.138 I0.0004 J-0.052
G2 X1.4615 Y1.1248 I-0.0301 J-0.0572
G3 X1.4357 Y1.1318 I-0.0253 J-0.042
G3 X1.4132 Y1.1258 I-0.0012 J-0.0402
G3 X1.3992 Y1.1083 I0.0176 J-0.0284
G3 X1.3991 Y1.1078 I0.0109 J-0.0038
G3 X1.397 Y1.0972 I0.051 J-0.0152
G3 X1.3964 Y1.0881 I0.1602 J-0.0163
G1 Y1.088
G3 X1.396 Y1.0704 I0.3786 J-0.0166
G1 Y0.9915
G1 X1.3737
G1 Y1.0804
G2 X1.3741 Y1.0968 I0.2994 J0.0009
G3 Y1.097 I-0.0115 J0.0006
G2 X1.3759 Y1.1121 I0.1016 J-0.0043
G2 X1.3826 Y1.1276 I0.0397 J-0.0081
G2 X1.3967 Y1.1386 I0.0274 J-0.0205
G3 X1.3969 Y1.1387 I-0.0045 J0.0106
G2 X1.4042 Y1.1413 I0.0225 J-0.0503
G0 Z0.125
M5
M30
