( Made using CamBam - http://www.cambam.co.uk )
( julia-test-tube-holder 11/23/2013 3:24:56 PM )
( T0 : 0.0625 )
G20 G90 G91.1 G64 G40
G0 Z0.125
( T0 : 0.0625 )
T0 M6
( Profile1 )
G17
M3 S5000
G0 X1.3688 Y0.6
G0 Z0.0625
G1 F10.0 Z-0.0625
G2 F16.0 X0.8156 Y0.2807 I-0.3688 J0.0
G2 Y0.9193 I0.1844 J0.3193
G2 X1.3688 Y0.6 I0.1844 J-0.3193
G1 F10.0 Z-0.125
G2 F16.0 X0.8156 Y0.2807 I-0.3688 J0.0
G2 Y0.9193 I0.1844 J0.3193
G2 X1.3688 Y0.6 I0.1844 J-0.3193
G1 F10.0 Z-0.1875
G2 F16.0 X0.8156 Y0.2807 I-0.3688 J0.0
G2 Y0.9193 I0.1844 J0.3193
G2 X1.3688 Y0.6 I0.1844 J-0.3193
G0 Z0.125
G0 X2.3313 Y0.6181
G0 Z0.0625
G1 F10.0 Z-0.0625
G2 F16.0 X2.5156 Y0.9443 I0.3687 J0.0069
G2 X3.0688 Y0.625 I0.1844 J-0.3193
G2 X2.5156 Y0.3057 I-0.3688 J0.0
G2 X2.3313 Y0.6181 I0.1844 J0.3193
G1 F10.0 Z-0.125
G2 F16.0 X2.5156 Y0.9443 I0.3687 J0.0069
G2 X3.0688 Y0.625 I0.1844 J-0.3193
G2 X2.5156 Y0.3057 I-0.3688 J0.0
G2 X2.3313 Y0.6181 I0.1844 J0.3193
G1 F10.0 Z-0.1875
G2 F16.0 X2.5156 Y0.9443 I0.3687 J0.0069
G2 X3.0688 Y0.625 I0.1844 J-0.3193
G2 X2.5156 Y0.3057 I-0.3688 J0.0
G2 X2.3313 Y0.6181 I0.1844 J0.3193
G0 Z0.125
G0 X4.0313 Y0.6238
G0 Z0.0625
G1 F10.0 Z-0.0625
G2 F16.0 X4.2156 Y0.9443 I0.3687 J0.0012
G2 X4.7688 Y0.625 I0.1844 J-0.3193
G2 X4.2156 Y0.3057 I-0.3688 J0.0
G2 X4.0313 Y0.6238 I0.1844 J0.3193
G1 F10.0 Z-0.125
G2 F16.0 X4.2156 Y0.9443 I0.3687 J0.0012
G2 X4.7688 Y0.625 I0.1844 J-0.3193
G2 X4.2156 Y0.3057 I-0.3688 J0.0
G2 X4.0313 Y0.6238 I0.1844 J0.3193
G1 F10.0 Z-0.1875
G2 F16.0 X4.2156 Y0.9443 I0.3687 J0.0012
G2 X4.7688 Y0.625 I0.1844 J-0.3193
G2 X4.2156 Y0.3057 I-0.3688 J0.0
G2 X4.0313 Y0.6238 I0.1844 J0.3193
G0 Z0.125
G0 X5.7313 Y0.6248
G0 Z0.0625
G1 F10.0 Z-0.0625
G2 F16.0 X5.9156 Y0.9443 I0.3687 J0.0002
G2 X6.4688 Y0.625 I0.1844 J-0.3193
G2 X5.9156 Y0.3057 I-0.3688 J0.0
G2 X5.7313 Y0.6248 I0.1844 J0.3193
G1 F10.0 Z-0.125
G2 F16.0 X5.9156 Y0.9443 I0.3687 J0.0002
G2 X6.4688 Y0.625 I0.1844 J-0.3193
G2 X5.9156 Y0.3057 I-0.3688 J0.0
G2 X5.7313 Y0.6248 I0.1844 J0.3193
G1 F10.0 Z-0.1875
G2 F16.0 X5.9156 Y0.9443 I0.3687 J0.0002
G2 X6.4688 Y0.625 I0.1844 J-0.3193
G2 X5.9156 Y0.3057 I-0.3688 J0.0
G2 X5.7313 Y0.6248 I0.1844 J0.3193
( Profile2 )
S5000
G0 Z0.125
G0 X0.0 Y-0.0313
G0 Z0.0625
G1 F10.0 Z-0.0625
G1 F16.0 X7.1
G3 X7.1313 Y0.0 I0.0 J0.0313
G1 Y1.25
G3 X7.1 Y1.2813 I-0.0313 J0.0
G1 X0.0
G3 X-0.0313 Y1.25 I0.0 J-0.0313
G1 Y0.0
G3 X0.0 Y-0.0313 I0.0313 J0.0
G1 F10.0 Z-0.125
G1 F16.0 X7.1
G3 X7.1313 Y0.0 I0.0 J0.0313
G1 Y1.25
G3 X7.1 Y1.2813 I-0.0313 J0.0
G1 X0.0
G3 X-0.0313 Y1.25 I0.0 J-0.0313
G1 Y0.0
G3 X0.0 Y-0.0313 I0.0313 J0.0
G1 F10.0 Z-0.1875
G1 F16.0 X7.1
G3 X7.1313 Y0.0 I0.0 J0.0313
G1 Y1.25
G3 X7.1 Y1.2813 I-0.0313 J0.0
G1 X0.0
G3 X-0.0313 Y1.25 I0.0 J-0.0313
G1 Y0.0
G3 X0.0 Y-0.0313 I0.0313 J0.0
G0 Z0.125
M5
M30
